;FLAVOR:RepRap
;TIME:15621
;Filament used: 9.89422m
;Layer height: 0.2
;Generated with Cura_SteamEngine 2.6.2
M104 S200
M109 S200
G28 ;Home
G1 Z15.0 F6000 ;Move the platform down 15mm
;Prime the extruder
G92 E0
G1 F200 E3
G92 E0
;LAYER_COUNT:170
;LAYER:0
M107
G0 F3600 X7.524 Y-31.295 Z0.3
;TYPE:SKIRT
G1 F900 X46.079 Y-3.333 E2.37614
G1 X46.694 Y-2.838 E2.41552
G1 X47.256 Y-2.283 E2.45493
G1 X47.759 Y-1.674 E2.49434
G1 X48.197 Y-1.017 E2.53373
G1 X48.567 Y-.319 E2.57314
G1 X48.865 Y0.412 E2.61253
G1 X49.087 Y1.17 E2.65193
G1 X49.231 Y1.946 E2.69131
G1 X49.3 Y2.981 E2.74306
G1 X49.3 Y24.883 E3.83575
G1 X49.26 Y25.672 E3.87517
G1 X49.141 Y26.452 E3.91453
G1 X48.943 Y27.217 E3.95396
G1 X48.669 Y27.957 E3.99332
G1 X48.321 Y28.666 E4.03273
G1 X47.903 Y29.337 E4.07217
G1 X47.42 Y29.961 E4.11154
G1 X47.015 Y30.398 E4.14126
G1 X46.898 Y30.515 E4.14952
G1 X46.312 Y31.045 E4.18894
G1 X45.676 Y31.512 E4.2283
G1 X44.996 Y31.913 E4.26769
G1 X44.278 Y32.243 E4.30711
G1 X43.531 Y32.498 E4.34649
G1 X42.762 Y32.677 E4.38588
G1 X41.978 Y32.777 E4.42531
G1 X41.383 Y32.8 E4.45502
G1 X-41.383 Y32.8 E8.58423
G1 X-42.172 Y32.76 E8.62364
G1 X-42.952 Y32.641 E8.66301
G1 X-43.717 Y32.443 E8.70243
G1 X-44.457 Y32.169 E8.7418
G1 X-45.166 Y31.821 E8.7812
G1 X-45.837 Y31.403 E8.82065
G1 X-46.461 Y30.92 E8.86001
G1 X-46.898 Y30.515 E8.88974
G1 X-47.015 Y30.398 E8.89799
G1 X-47.545 Y29.812 E8.93741
G1 X-48.012 Y29.176 E8.97678
G1 X-48.413 Y28.496 E9.01616
G1 X-48.743 Y27.778 E9.05559
G1 X-48.998 Y27.031 E9.09497
G1 X-49.177 Y26.262 E9.13436
G1 X-49.277 Y25.478 E9.17379
G1 X-49.3 Y24.883 E9.20349
G1 X-49.3 Y-24.883 E11.68633
G1 X-49.26 Y-25.672 E11.72574
G1 X-49.141 Y-26.452 E11.76511
G1 X-48.943 Y-27.217 E11.80453
G1 X-48.669 Y-27.957 E11.8439
G1 X-48.321 Y-28.666 E11.8833
G1 X-47.903 Y-29.337 E11.92275
G1 X-47.42 Y-29.961 E11.96211
G1 X-47.015 Y-30.398 E11.99184
G1 X-46.898 Y-30.515 E12.00009
G1 X-46.312 Y-31.045 E12.03951
G1 X-45.676 Y-31.512 E12.07888
G1 X-44.996 Y-31.913 E12.11826
G1 X-44.278 Y-32.243 E12.15769
G1 X-43.531 Y-32.498 E12.19707
G1 X-42.762 Y-32.677 E12.23646
G1 X-41.978 Y-32.777 E12.27589
G1 X-41.38 Y-32.8 E12.30574
G1 X2.948 Y-32.781 E14.51728
G1 X3.737 Y-32.741 E14.55669
G1 X4.518 Y-32.621 E14.59611
G1 X5.282 Y-32.423 E14.63549
G1 X6.022 Y-32.148 E14.67487
G1 X6.731 Y-31.8 E14.71428
G1 X7.524 Y-31.295 E14.76118
G0 F3600 X7.29 Y-30.971
G1 F900 X45.845 Y-3.009 E17.13732
G1 X46.443 Y-2.526 E17.17567
G1 X46.988 Y-1.983 E17.21405
G1 X47.473 Y-1.387 E17.25239
G1 X47.895 Y-.743 E17.2908
G1 X48.247 Y-0.059 E17.32918
G1 X48.526 Y0.657 E17.36752
G1 X48.729 Y1.399 E17.40589
G1 X48.854 Y2.158 E17.44427
G1 X48.9 Y2.981 E17.48539
G1 X48.9 Y24.883 E18.57809
G1 X48.86 Y25.651 E18.61646
G1 X48.741 Y26.411 E18.65484
G1 X48.543 Y27.154 E18.6932
G1 X48.269 Y27.873 E18.73159
G1 X47.922 Y28.559 E18.76994
G1 X47.506 Y29.206 E18.80831
G1 X47.025 Y29.806 E18.84668
G1 X46.733 Y30.116 E18.86793
G1 X46.616 Y30.233 E18.87618
G1 X46.044 Y30.747 E18.91455
G1 X45.422 Y31.2 E18.95294
G1 X44.757 Y31.586 E18.9913
G1 X44.055 Y31.901 E19.02969
G1 X43.324 Y32.141 E19.06807
G1 X42.573 Y32.304 E19.10641
G1 X41.808 Y32.388 E19.14481
G1 X41.383 Y32.4 E19.16602
G1 X-41.383 Y32.4 E23.29523
G1 X-42.151 Y32.36 E23.3336
G1 X-42.911 Y32.241 E23.37198
G1 X-43.654 Y32.043 E23.41034
G1 X-44.373 Y31.769 E23.44873
G1 X-45.059 Y31.422 E23.48708
G1 X-45.706 Y31.006 E23.52546
G1 X-46.306 Y30.525 E23.56382
G1 X-46.616 Y30.233 E23.58507
G1 X-46.733 Y30.116 E23.59332
G1 X-47.247 Y29.544 E23.63169
G1 X-47.7 Y28.922 E23.67008
G1 X-48.086 Y28.257 E23.70844
G1 X-48.401 Y27.555 E23.74683
G1 X-48.641 Y26.824 E23.78521
G1 X-48.804 Y26.073 E23.82355
G1 X-48.888 Y25.308 E23.86195
G1 X-48.9 Y24.883 E23.88316
G1 X-48.9 Y-24.883 E26.36599
G1 X-48.86 Y-25.651 E26.40436
G1 X-48.741 Y-26.411 E26.44274
G1 X-48.543 Y-27.154 E26.4811
G1 X-48.269 Y-27.873 E26.51949
G1 X-47.922 Y-28.559 E26.55784
G1 X-47.506 Y-29.206 E26.59622
G1 X-47.025 Y-29.806 E26.63459
G1 X-46.733 Y-30.116 E26.65583
G1 X-46.616 Y-30.233 E26.66409
G1 X-46.044 Y-30.747 E26.70245
G1 X-45.422 Y-31.2 E26.74084
G1 X-44.757 Y-31.586 E26.7792
G1 X-44.055 Y-31.901 E26.81759
G1 X-43.324 Y-32.141 E26.85598
G1 X-42.573 Y-32.304 E26.89432
G1 X-41.808 Y-32.388 E26.93271
G1 X-41.38 Y-32.4 E26.95407
G1 X2.948 Y-32.381 E29.16561
G1 X3.716 Y-32.341 E29.20397
G1 X4.476 Y-32.221 E29.24236
G1 X5.219 Y-32.023 E29.28072
G1 X5.938 Y-31.749 E29.31911
G1 X6.624 Y-31.402 E29.35746
G1 X7.29 Y-30.971 E29.39704
G0 F3600 X7.055 Y-30.648
G1 F900 X45.61 Y-2.686 E31.77318
G1 X46.191 Y-2.215 E31.81049
G1 X46.719 Y-1.684 E31.84785
G1 X47.187 Y-1.101 E31.88515
G1 X47.59 Y-.471 E31.92246
G1 X47.923 Y0.199 E31.95979
G1 X48.184 Y0.9 E31.99711
G1 X48.367 Y1.625 E32.03441
G1 X48.473 Y2.366 E32.07176
G1 X48.5 Y2.981 E32.10247
G1 X48.5 Y24.883 E33.19516
G1 X48.46 Y25.63 E33.23248
G1 X48.341 Y26.368 E33.26978
G1 X48.143 Y27.09 E33.30713
G1 X47.87 Y27.786 E33.34443
G1 X47.523 Y28.449 E33.38176
G1 X47.108 Y29.072 E33.41911
G1 X46.45 Y29.833 E33.4693
G1 X46.333 Y29.95 E33.47755
G1 X45.776 Y30.45 E33.5149
G1 X45.17 Y30.887 E33.55217
G1 X44.52 Y31.258 E33.58951
G1 X43.834 Y31.557 E33.62685
G1 X43.12 Y31.781 E33.66418
G1 X42.387 Y31.928 E33.70148
G1 X41.383 Y32 E33.75169
G1 X-41.383 Y32 E37.88091
G1 X-42.13 Y31.96 E37.91823
G1 X-42.868 Y31.841 E37.95552
G1 X-43.59 Y31.643 E37.99287
G1 X-44.286 Y31.37 E38.03017
G1 X-44.949 Y31.023 E38.06751
G1 X-45.572 Y30.608 E38.10485
G1 X-46.333 Y29.95 E38.15504
G1 X-46.45 Y29.833 E38.1633
G1 X-46.95 Y29.276 E38.20064
G1 X-47.387 Y28.67 E38.23792
G1 X-47.758 Y28.02 E38.27526
G1 X-48.057 Y27.334 E38.31259
G1 X-48.281 Y26.62 E38.34992
G1 X-48.428 Y25.887 E38.38722
G1 X-48.5 Y24.883 E38.43744
G1 X-48.5 Y-24.883 E40.92027
G1 X-48.46 Y-25.63 E40.9576
G1 X-48.341 Y-26.368 E40.99489
G1 X-48.143 Y-27.09 E41.03224
G1 X-47.87 Y-27.786 E41.06954
G1 X-47.523 Y-28.449 E41.10687
G1 X-47.108 Y-29.072 E41.14422
G1 X-46.45 Y-29.833 E41.19441
G1 X-46.333 Y-29.95 E41.20267
G1 X-45.776 Y-30.45 E41.24001
G1 X-45.17 Y-30.887 E41.27728
G1 X-44.52 Y-31.258 E41.31462
G1 X-43.834 Y-31.557 E41.35196
G1 X-43.12 Y-31.781 E41.38929
G1 X-42.387 Y-31.928 E41.42659
G1 X-41.38 Y-32 E41.47696
G1 X2.948 Y-31.981 E43.68849
G1 X3.695 Y-31.941 E43.72581
G1 X4.433 Y-31.821 E43.76311
G1 X5.155 Y-31.623 E43.80046
G1 X5.851 Y-31.349 E43.83778
G1 X6.514 Y-31.003 E43.87509
G1 X7.055 Y-30.648 E43.90737
G0 F3600 X6.82 Y-30.324
G1 F900 X45.375 Y-2.362 E46.28351
G1 X45.939 Y-1.904 E46.31976
G1 X46.448 Y-1.386 E46.35599
G1 X46.898 Y-.816 E46.39222
G1 X47.283 Y-.2 E46.42846
G1 X47.597 Y0.455 E46.4647
G1 X47.838 Y1.14 E46.50093
G1 X48.002 Y1.848 E46.53719
G1 X48.087 Y2.569 E46.57341
G1 X48.1 Y2.981 E46.59397
G1 X48.1 Y24.883 E47.68667
G1 X48.06 Y25.608 E47.72289
G1 X47.941 Y26.325 E47.75915
G1 X47.743 Y27.024 E47.7954
G1 X47.47 Y27.697 E47.83163
G1 X47.125 Y28.336 E47.86786
G1 X46.711 Y28.933 E47.90411
G1 X46.167 Y29.55 E47.94514
G1 X46.05 Y29.667 E47.9534
G1 X45.509 Y30.151 E47.98962
G1 X44.918 Y30.574 E48.02587
G1 X44.284 Y30.928 E48.0621
G1 X43.615 Y31.211 E48.09834
G1 X42.919 Y31.419 E48.13458
G1 X42.204 Y31.549 E48.17084
G1 X41.383 Y31.6 E48.21188
G1 X-41.383 Y31.6 E52.34109
G1 X-42.108 Y31.56 E52.37732
G1 X-42.825 Y31.441 E52.41358
G1 X-43.524 Y31.243 E52.44982
G1 X-44.197 Y30.97 E52.48605
G1 X-44.836 Y30.625 E52.52228
G1 X-45.433 Y30.211 E52.55853
G1 X-46.05 Y29.667 E52.59957
G1 X-46.167 Y29.55 E52.60782
G1 X-46.651 Y29.009 E52.64404
G1 X-47.074 Y28.418 E52.6803
G1 X-47.428 Y27.784 E52.71652
G1 X-47.711 Y27.115 E52.75276
G1 X-47.919 Y26.419 E52.78901
G1 X-48.049 Y25.704 E52.82526
G1 X-48.1 Y24.883 E52.8663
G1 X-48.1 Y-24.883 E55.34914
G1 X-48.06 Y-25.608 E55.38536
G1 X-47.941 Y-26.325 E55.42162
G1 X-47.743 Y-27.024 E55.45787
G1 X-47.47 Y-27.697 E55.4941
G1 X-47.125 Y-28.336 E55.53033
G1 X-46.711 Y-28.933 E55.56658
G1 X-46.167 Y-29.55 E55.60761
G1 X-46.05 Y-29.667 E55.61587
G1 X-45.509 Y-30.151 E55.65209
G1 X-44.918 Y-30.574 E55.68834
G1 X-44.284 Y-30.928 E55.72457
G1 X-43.615 Y-31.211 E55.76081
G1 X-42.919 Y-31.419 E55.79705
G1 X-42.204 Y-31.549 E55.83331
G1 X-41.38 Y-31.6 E55.8745
G1 X2.948 Y-31.581 E58.08603
G1 X3.673 Y-31.541 E58.12226
G1 X4.389 Y-31.421 E58.15848
G1 X5.088 Y-31.223 E58.19472
G1 X5.761 Y-30.95 E58.23095
G1 X6.4 Y-30.604 E58.26721
G1 X6.82 Y-30.324 E58.29239
G0 F3600 X6.585 Y-30
G1 F900 X45.14 Y-2.038 E60.66853
G1 X45.686 Y-1.593 E60.70367
G1 X46.177 Y-1.089 E60.73877
G1 X46.608 Y-.533 E60.77387
G1 X46.974 Y0.069 E60.80902
G1 X47.268 Y0.708 E60.84411
G1 X47.489 Y1.377 E60.87926
G1 X47.632 Y2.066 E60.91437
G1 X47.7 Y2.981 E60.96014
G1 X47.7 Y24.883 E62.05284
G1 X47.66 Y25.586 E62.08797
G1 X47.541 Y26.28 E62.1231
G1 X47.343 Y26.955 E62.15819
G1 X47.071 Y27.604 E62.1933
G1 X46.726 Y28.218 E62.22844
G1 X46.315 Y28.789 E62.26354
G1 X45.884 Y29.267 E62.29565
G1 X45.767 Y29.384 E62.3039
G1 X45.242 Y29.853 E62.33902
G1 X44.667 Y30.259 E62.37414
G1 X44.049 Y30.597 E62.40928
G1 X43.398 Y30.864 E62.44439
G1 X42.72 Y31.054 E62.47952
G1 X42.025 Y31.167 E62.51464
G1 X41.383 Y31.2 E62.54672
G1 X-41.383 Y31.2 E66.67593
G1 X-42.086 Y31.16 E66.71106
G1 X-42.78 Y31.041 E66.74619
G1 X-43.455 Y30.843 E66.78128
G1 X-44.104 Y30.571 E66.81639
G1 X-44.718 Y30.226 E66.85153
G1 X-45.289 Y29.815 E66.88663
G1 X-45.767 Y29.384 E66.91874
G1 X-45.884 Y29.267 E66.92699
G1 X-46.353 Y28.742 E66.96211
G1 X-46.759 Y28.167 E66.99723
G1 X-47.097 Y27.549 E67.03237
G1 X-47.364 Y26.898 E67.06748
G1 X-47.554 Y26.22 E67.10261
G1 X-47.667 Y25.525 E67.13773
G1 X-47.7 Y24.883 E67.16981
G1 X-47.7 Y-24.883 E69.65264
G1 X-47.66 Y-25.586 E69.68777
G1 X-47.541 Y-26.28 E69.7229
G1 X-47.343 Y-26.955 E69.758
G1 X-47.071 Y-27.604 E69.7931
G1 X-46.726 Y-28.218 E69.82824
G1 X-46.315 Y-28.789 E69.86334
G1 X-45.884 Y-29.267 E69.89545
G1 X-45.767 Y-29.384 E69.90371
G1 X-45.242 Y-29.853 E69.93883
G1 X-44.667 Y-30.259 E69.97394
G1 X-44.049 Y-30.597 E70.00909
G1 X-43.398 Y-30.864 E70.04419
G1 X-42.72 Y-31.054 E70.07932
G1 X-42.025 Y-31.167 E70.11445
G1 X-41.38 Y-31.2 E70.14667
G1 X2.948 Y-31.181 E72.3582
G1 X3.65 Y-31.141 E72.39328
G1 X4.344 Y-31.021 E72.42842
G1 X5.02 Y-30.823 E72.46356
G1 X5.669 Y-30.551 E72.49867
G1 X6.283 Y-30.206 E72.53381
G1 X6.585 Y-30 E72.55204
G0 F3600 X6.35 Y-29.676
G1 F900 X44.905 Y-1.714 E74.92818
G1 X45.432 Y-1.283 E74.96215
G1 X45.905 Y-.793 E74.99612
G1 X46.316 Y-.25 E75.0301
G1 X46.662 Y0.336 E75.06405
G1 X46.936 Y0.959 E75.09801
G1 X47.136 Y1.61 E75.13198
G1 X47.258 Y2.28 E75.16596
G1 X47.3 Y2.981 E75.20099
G1 X47.3 Y24.883 E76.29369
G1 X47.26 Y25.563 E76.32767
G1 X47.141 Y26.233 E76.36162
G1 X46.944 Y26.885 E76.3956
G1 X46.672 Y27.509 E76.42957
G1 X46.328 Y28.097 E76.46355
G1 X45.918 Y28.641 E76.49754
G1 X45.601 Y28.984 E76.52084
G1 X45.484 Y29.101 E76.52909
G1 X44.975 Y29.554 E76.56309
G1 X44.417 Y29.943 E76.59702
G1 X43.817 Y30.265 E76.631
G1 X43.183 Y30.514 E76.66498
G1 X42.524 Y30.687 E76.69897
G1 X41.85 Y30.781 E76.73292
G1 X41.383 Y30.8 E76.75624
G1 X-41.383 Y30.8 E80.88545
G1 X-42.063 Y30.76 E80.91944
G1 X-42.733 Y30.641 E80.95339
G1 X-43.385 Y30.444 E80.98737
G1 X-44.009 Y30.172 E81.02133
G1 X-44.597 Y29.828 E81.05531
G1 X-45.141 Y29.418 E81.0893
G1 X-45.484 Y29.101 E81.1126
G1 X-45.601 Y28.984 E81.12086
G1 X-46.054 Y28.475 E81.15485
G1 X-46.443 Y27.917 E81.18879
G1 X-46.765 Y27.317 E81.22276
G1 X-47.014 Y26.683 E81.25674
G1 X-47.187 Y26.024 E81.29073
G1 X-47.281 Y25.35 E81.32468
G1 X-47.3 Y24.883 E81.348
G1 X-47.3 Y-24.883 E83.83084
G1 X-47.26 Y-25.563 E83.86482
G1 X-47.141 Y-26.233 E83.89877
G1 X-46.944 Y-26.885 E83.93275
G1 X-46.672 Y-27.509 E83.96671
G1 X-46.328 Y-28.097 E84.0007
G1 X-45.918 Y-28.641 E84.03469
G1 X-45.601 Y-28.984 E84.05799
G1 X-45.484 Y-29.101 E84.06624
G1 X-44.975 Y-29.554 E84.10024
G1 X-44.417 Y-29.943 E84.13417
G1 X-43.817 Y-30.265 E84.16814
G1 X-43.183 Y-30.514 E84.20213
G1 X-42.524 Y-30.687 E84.23612
G1 X-41.85 Y-30.781 E84.27007
G1 X-41.381 Y-30.8 E84.29349
G1 X2.947 Y-30.781 E86.50502
G1 X3.627 Y-30.741 E86.539
G1 X4.297 Y-30.621 E86.57296
G1 X4.949 Y-30.424 E86.60694
G1 X5.573 Y-30.151 E86.64092
G1 X6.35 Y-29.676 E86.68636
G0 F3600 X6.115 Y-29.352
G1 F900 X44.67 Y-1.39 E89.0625
G1 X45.178 Y-.973 E89.09528
G1 X45.631 Y-.497 E89.12807
G1 X46.022 Y0.03 E89.16081
G1 X46.347 Y0.601 E89.19358
G1 X46.6 Y1.207 E89.22635
G1 X46.778 Y1.84 E89.25915
G1 X46.878 Y2.489 E89.29191
G1 X46.9 Y2.981 E89.31648
G1 X46.9 Y24.883 E90.40918
G1 X46.86 Y25.539 E90.44197
G1 X46.741 Y26.185 E90.47474
G1 X46.544 Y26.812 E90.50753
G1 X46.272 Y27.41 E90.5403
G1 X45.93 Y27.971 E90.57308
G1 X45.318 Y28.701 E90.62061
G1 X45.201 Y28.818 E90.62886
G1 X44.709 Y29.254 E90.66166
G1 X44.168 Y29.626 E90.69442
G1 X43.586 Y29.93 E90.72717
G1 X42.971 Y30.161 E90.75995
G1 X42.332 Y30.316 E90.79275
G1 X41.383 Y30.4 E90.84029
G1 X-41.383 Y30.4 E94.9695
G1 X-42.039 Y30.36 E95.00229
G1 X-42.685 Y30.241 E95.03506
G1 X-43.312 Y30.044 E95.06785
G1 X-43.91 Y29.772 E95.10062
G1 X-44.471 Y29.43 E95.1334
G1 X-45.201 Y28.818 E95.18093
G1 X-45.318 Y28.701 E95.18918
G1 X-45.754 Y28.209 E95.22198
G1 X-46.126 Y27.668 E95.25473
G1 X-46.43 Y27.086 E95.28749
G1 X-46.661 Y26.471 E95.32027
G1 X-46.816 Y25.832 E95.35307
G1 X-46.9 Y24.883 E95.4006
G1 X-46.9 Y-24.883 E97.88344
G1 X-46.86 Y-25.539 E97.91623
G1 X-46.741 Y-26.185 E97.949
G1 X-46.544 Y-26.812 E97.98179
G1 X-46.272 Y-27.41 E98.01456
G1 X-45.93 Y-27.971 E98.04734
G1 X-45.318 Y-28.701 E98.09487
G1 X-45.201 Y-28.818 E98.10312
G1 X-44.709 Y-29.254 E98.13592
G1 X-44.168 Y-29.626 E98.16868
G1 X-43.586 Y-29.93 E98.20144
G1 X-42.971 Y-30.161 E98.23421
G1 X-42.332 Y-30.316 E98.26701
G1 X-41.381 Y-30.4 E98.31465
G1 X2.947 Y-30.381 E100.52618
G1 X3.603 Y-30.341 E100.55897
G1 X4.249 Y-30.221 E100.59175
G1 X4.876 Y-30.024 E100.62454
G1 X5.474 Y-29.752 E100.65731
G1 X6.115 Y-29.352 E100.69501
G0 F3600 X5.881 Y-29.029
G1 F900 X44.436 Y-1.067 E103.07114
G1 X44.923 Y-.664 E103.10268
G1 X45.355 Y-.203 E103.1342
G1 X45.726 Y0.309 E103.16574
G1 X46.03 Y0.864 E103.19732
G1 X46.261 Y1.452 E103.22883
G1 X46.415 Y2.065 E103.26037
G1 X46.5 Y2.981 E103.30626
G1 X46.5 Y24.883 E104.39896
G1 X46.46 Y25.514 E104.4305
G1 X46.341 Y26.135 E104.46205
G1 X46.144 Y26.735 E104.49355
G1 X45.873 Y27.307 E104.52513
G1 X45.533 Y27.839 E104.55663
G1 X45.036 Y28.419 E104.59474
G1 X44.919 Y28.536 E104.60299
G1 X44.444 Y28.953 E104.63453
G1 X43.921 Y29.308 E104.66606
G1 X43.357 Y29.594 E104.69761
G1 X42.762 Y29.806 E104.72912
G1 X42.144 Y29.942 E104.76069
G1 X41.383 Y30 E104.79877
G1 X-41.383 Y30 E108.92798
G1 X-42.014 Y29.96 E108.95953
G1 X-42.635 Y29.841 E108.99107
G1 X-43.235 Y29.644 E109.02258
G1 X-43.807 Y29.373 E109.05416
G1 X-44.339 Y29.033 E109.08566
G1 X-44.919 Y28.536 E109.12376
G1 X-45.036 Y28.419 E109.13202
G1 X-45.453 Y27.944 E109.16355
G1 X-45.808 Y27.421 E109.19509
G1 X-46.094 Y26.857 E109.22664
G1 X-46.306 Y26.262 E109.25815
G1 X-46.442 Y25.644 E109.28972
G1 X-46.5 Y24.883 E109.3278
G1 X-46.5 Y-24.883 E111.81063
G1 X-46.46 Y-25.514 E111.84217
G1 X-46.341 Y-26.135 E111.87372
G1 X-46.144 Y-26.735 E111.90523
G1 X-45.873 Y-27.307 E111.9368
G1 X-45.533 Y-27.839 E111.9683
G1 X-45.036 Y-28.419 E112.00641
G1 X-44.919 Y-28.536 E112.01467
G1 X-44.444 Y-28.953 E112.0462
G1 X-43.921 Y-29.308 E112.07774
G1 X-43.357 Y-29.594 E112.10928
G1 X-42.762 Y-29.806 E112.1408
G1 X-42.144 Y-29.942 E112.17237
G1 X-41.381 Y-30 E112.21054
G1 X2.947 Y-29.981 E114.42208
G1 X3.578 Y-29.941 E114.45362
G1 X4.199 Y-29.821 E114.48518
G1 X4.799 Y-29.624 E114.51668
G1 X5.37 Y-29.353 E114.54821
G1 X5.881 Y-29.029 E114.5784
G0 F3600 X5.646 Y-28.705
G1 F900 X44.201 Y-.743 E116.95454
G1 X44.667 Y-.355 E116.98479
G1 X45.078 Y0.09 E117.01501
G1 X45.427 Y0.586 E117.04527
G1 X45.708 Y1.123 E117.07551
G1 X45.916 Y1.693 E117.10578
G1 X46.047 Y2.285 E117.13603
G1 X46.1 Y2.981 E117.17085
G1 X46.1 Y24.883 E118.26355
G1 X46.06 Y25.488 E118.2938
G1 X45.941 Y26.082 E118.32402
G1 X45.745 Y26.656 E118.35428
G1 X45.474 Y27.199 E118.38456
G1 X45.135 Y27.702 E118.41482
G1 X44.753 Y28.136 E118.44366
G1 X44.636 Y28.253 E118.45192
G1 X44.18 Y28.652 E118.48215
G1 X43.675 Y28.988 E118.51241
G1 X43.131 Y29.255 E118.54264
