;FLAVOR:RepRap
;TIME:3214
;Filament used: 1.86294m
;Layer height: 0.2
;Generated with Cura_SteamEngine 2.6.2
M104 S200
M109 S200
G28 ;Home
G1 Z15.0 F6000 ;Move the platform down 15mm
;Prime the extruder
G92 E0
G1 F200 E3
G92 E0
;LAYER_COUNT:275
;LAYER:0
M107
G0 F3600 X-6.583 Y14.692 Z0.3
;TYPE:SKIRT
G1 F900 X-6.591 Y14.699 E0.00053
G1 X-7.244 Y15.142 E0.0399
G1 X-7.939 Y15.517 E0.0793
G1 X-8.669 Y15.819 E0.11871
G1 X-9.752 Y16.12 E0.17479
G1 X-11.428 Y16.457 E0.26008
G1 X-12.209 Y16.573 E0.29947
G1 X-12.998 Y16.61 E0.33888
G1 X-13.787 Y16.567 E0.3783
G1 X-14.567 Y16.444 E0.41769
G1 X-15.331 Y16.243 E0.45711
G1 X-16.07 Y15.966 E0.49648
G1 X-16.778 Y15.615 E0.53591
G1 X-17.649 Y15.048 E0.58776
G1 X-17.97 Y14.807 E0.60778
G1 X-18.577 Y14.301 E0.64721
G1 X-19.129 Y13.737 E0.68658
G1 X-19.817 Y12.834 E0.74322
G1 X-21.06 Y10.931 E0.85662
G1 X-21.458 Y10.249 E0.89601
G1 X-21.785 Y9.53 E0.93542
G1 X-22.037 Y8.782 E0.9748
G1 X-22.213 Y8.012 E1.0142
G1 X-22.31 Y7.229 E1.05357
G1 X-22.327 Y6.439 E1.09299
G1 X-22.264 Y5.652 E1.13238
G1 X-22.122 Y4.875 E1.17178
G1 X-21.853 Y3.979 E1.21846
G1 X-21.751 Y3.701 E1.23323
G1 X-21.441 Y2.975 E1.27261
G1 X-21.06 Y2.283 E1.31203
G1 X-20.611 Y1.633 E1.35144
G1 X-20.099 Y1.033 E1.39079
G1 X-19.552 Y0.508 E1.42862
G1 X-18.586 Y-.334 E1.49255
G1 X-17.709 Y-5.336 E1.74591
G1 X-16.854 Y-10.871 E2.02532
G1 X-16.694 Y-11.645 E2.06475
G1 X-16.457 Y-12.398 E2.10414
G1 X-15.99 Y-13.422 E2.16029
G1 X-15.896 Y-13.594 E2.17007
G1 X-15.482 Y-14.267 E2.20949
G1 X-15.003 Y-14.894 E2.24885
G1 X-14.463 Y-15.47 E2.28824
G1 X-13.867 Y-15.989 E2.32767
G1 X-13.222 Y-16.444 E2.36705
G1 X-12.534 Y-16.832 E2.40646
G1 X-12.032 Y-17.061 E2.43399
G1 X-9.866 Y-17.957 E2.55093
G1 X-7.246 Y-19.801 E2.71077
G1 X-6.578 Y-20.223 E2.75019
G1 X-5.871 Y-20.574 E2.78957
G1 X-5.132 Y-20.852 E2.82896
G1 X-4.368 Y-21.055 E2.8684
G1 X-3.588 Y-21.178 E2.90779
G1 X-2.808 Y-21.223 E2.94677
G1 X2.696 Y-21.26 E3.22138
G1 X3.484 Y-21.225 E3.26073
G1 X3.918 Y-21.172 E3.28254
G1 X8.163 Y-20.528 E3.49675
G1 X8.937 Y-20.37 E3.53616
G1 X9.691 Y-20.135 E3.57556
G1 X10.417 Y-19.824 E3.61497
G1 X11.398 Y-19.253 E3.67159
G1 X11.664 Y-19.071 E3.68767
G1 X12.292 Y-18.593 E3.72705
G1 X12.807 Y-18.116 E3.76207
G1 X16.128 Y-14.755 E3.9978
G1 X16.654 Y-14.166 E4.0372
G1 X16.941 Y-13.787 E4.06092
G1 X17.437 Y-13.088 E4.10368
G1 X17.861 Y-12.422 E4.14307
G1 X18.215 Y-11.716 E4.18247
G1 X18.496 Y-10.978 E4.22187
G1 X18.633 Y-10.507 E4.24634
G1 X19.739 Y-6.183 E4.46901
G1 X19.895 Y-5.409 E4.5084
G1 X19.981 Y-4.385 E4.55967
G1 X20.035 Y-1.271 E4.71505
G1 X20.009 Y-.482 E4.75443
G1 X19.882 Y0.406 E4.79919
G1 X18.79 Y5.822 E5.07483
G1 X18.595 Y6.587 E5.11422
G1 X18.324 Y7.328 E5.15358
G1 X17.88 Y8.213 E5.20298
G1 X12.079 Y18.149 E5.77699
G1 X10.294 Y21.95 E5.98649
G1 X9.923 Y22.647 E6.02588
G1 X9.483 Y23.302 E6.06525
G1 X8.845 Y24.052 E6.11437
G1 X8.705 Y24.197 E6.12443
G1 X8.129 Y24.736 E6.16378
G1 X7.501 Y25.215 E6.20319
G1 X6.827 Y25.628 E6.24263
G1 X6.116 Y25.97 E6.28199
G1 X5.373 Y26.239 E6.32141
G1 X4.607 Y26.431 E6.36081
G1 X3.826 Y26.545 E6.40019
G1 X3.381 Y26.574 E6.42243
G1 X3.218 Y26.58 E6.43057
G1 X2.428 Y26.569 E6.46999
G1 X1.644 Y26.478 E6.50937
G1 X0.873 Y26.308 E6.54876
G1 X0.122 Y26.062 E6.58818
G1 X-.599 Y25.741 E6.62756
G1 X-1.284 Y25.348 E6.66696
G1 X-1.926 Y24.888 E6.70636
G1 X-2.315 Y24.557 E6.73184
G1 X-3.611 Y23.379 E6.81922
G1 X-4.168 Y22.819 E6.85862
G1 X-4.665 Y22.205 E6.89803
G1 X-5.207 Y21.352 E6.94845
G1 X-5.288 Y21.204 E6.95687
G1 X-5.632 Y20.493 E6.99628
G1 X-5.902 Y19.751 E7.03567
G1 X-6.095 Y18.985 E7.07508
G1 X-6.203 Y18.28 E7.11066
G1 X-6.583 Y14.692 E7.29067
G0 F3600 X-6.261 Y13.901
G1 F900 X-6.272 Y13.912 E7.29145
G1 X-6.864 Y14.403 E7.32982
G1 X-7.503 Y14.831 E7.36819
G1 X-8.184 Y15.189 E7.40657
G1 X-8.898 Y15.476 E7.44496
G1 X-9.831 Y15.728 E7.49318
G1 X-11.507 Y16.065 E7.57847
G1 X-12.268 Y16.177 E7.61684
G1 X-13.037 Y16.21 E7.65524
G1 X-13.804 Y16.162 E7.69359
G1 X-14.563 Y16.036 E7.73197
G1 X-15.304 Y15.831 E7.77033
G1 X-16.02 Y15.55 E7.8087
G1 X-16.704 Y15.197 E7.8471
G1 X-17.409 Y14.728 E7.88935
G1 X-17.73 Y14.487 E7.90937
G1 X-18.32 Y13.994 E7.94773
G1 X-18.856 Y13.442 E7.98612
G1 X-19.482 Y12.616 E8.03782
G1 X-20.725 Y10.713 E8.15122
G1 X-21.112 Y10.048 E8.18961
G1 X-21.428 Y9.346 E8.22802
G1 X-21.668 Y8.616 E8.26636
G1 X-21.832 Y7.864 E8.30476
G1 X-21.917 Y7.1 E8.34311
G1 X-21.922 Y6.331 E8.38147
G1 X-21.848 Y5.565 E8.41987
G1 X-21.694 Y4.812 E8.45821
G1 X-21.477 Y4.117 E8.49454
G1 X-21.375 Y3.839 E8.50931
G1 X-21.073 Y3.132 E8.54767
G1 X-20.699 Y2.46 E8.58603
G1 X-20.257 Y1.83 E8.62443
G1 X-19.753 Y1.249 E8.6628
G1 X-19.29 Y0.809 E8.69467
G1 X-18.216 Y-.127 E8.76574
G1 X-17.304 Y-5.33 E9.02928
G1 X-16.458 Y-10.81 E9.30592
G1 X-16.302 Y-11.563 E9.34428
G1 X-16.068 Y-12.296 E9.38267
G1 X-15.639 Y-13.23 E9.43395
G1 X-15.545 Y-13.402 E9.44373
G1 X-15.141 Y-14.057 E9.48212
G1 X-14.672 Y-14.666 E9.52047
G1 X-14.142 Y-15.224 E9.55886
G1 X-13.557 Y-15.723 E9.59722
G1 X-12.923 Y-16.159 E9.63561
G1 X-12.248 Y-16.527 E9.67397
G1 X-11.879 Y-16.691 E9.69411
G1 X-9.672 Y-17.604 E9.81327
G1 X-7.015 Y-19.474 E9.97537
G1 X-6.364 Y-19.884 E10.01375
G1 X-5.674 Y-20.223 E10.05211
G1 X-4.953 Y-20.489 E10.09045
G1 X-4.207 Y-20.679 E10.12885
G1 X-3.446 Y-20.791 E10.16723
G1 X-2.806 Y-20.823 E10.1992
G1 X2.698 Y-20.86 E10.4738
G1 X3.467 Y-20.825 E10.51221
G1 X3.858 Y-20.776 E10.53187
G1 X8.103 Y-20.132 E10.74607
G1 X8.856 Y-19.978 E10.78442
G1 X9.59 Y-19.745 E10.82284
G1 X10.295 Y-19.438 E10.8612
G1 X11.172 Y-18.923 E10.91194
G1 X11.438 Y-18.741 E10.92802
G1 X12.049 Y-18.275 E10.96636
G1 X12.523 Y-17.835 E10.99862
G1 X15.844 Y-14.474 E11.23435
G1 X16.355 Y-13.9 E11.27269
G1 X16.615 Y-13.555 E11.29425
G1 X17.111 Y-12.856 E11.33701
G1 X17.523 Y-12.207 E11.37536
G1 X17.865 Y-11.518 E11.41373
G1 X18.134 Y-10.797 E11.45213
G1 X18.245 Y-10.408 E11.47231
G1 X19.351 Y-6.084 E11.69498
G1 X19.503 Y-5.33 E11.73335
G1 X19.581 Y-4.378 E11.78101
G1 X19.635 Y-1.264 E11.93639
G1 X19.608 Y-.496 E11.97473
G1 X19.49 Y0.327 E12.01621
G1 X18.398 Y5.743 E12.29185
G1 X18.207 Y6.488 E12.33022
G1 X17.94 Y7.209 E12.36858
G1 X17.535 Y8.011 E12.4134
G1 X11.724 Y17.964 E12.9884
G1 X9.932 Y21.78 E13.19873
G1 X9.569 Y22.458 E13.23709
G1 X9.138 Y23.095 E13.27547
G1 X8.558 Y23.774 E13.32002
G1 X8.418 Y23.919 E13.33007
G1 X7.855 Y24.444 E13.36848
G1 X7.242 Y24.907 E13.4068
G1 X6.583 Y25.305 E13.44521
G1 X5.887 Y25.632 E13.48358
G1 X5.16 Y25.885 E13.52198
G1 X4.412 Y26.061 E13.56032
G1 X3.366 Y26.174 E13.61281
G1 X3.203 Y26.18 E13.62095
G1 X2.434 Y26.168 E13.65932
G1 X1.67 Y26.077 E13.6977
G1 X0.92 Y25.907 E13.73607
G1 X0.192 Y25.659 E13.77444
G1 X-.507 Y25.338 E13.81281
G1 X-1.168 Y24.946 E13.85115
G1 X-2.046 Y24.261 E13.90671
G1 X-3.342 Y23.083 E13.99409
G1 X-3.884 Y22.537 E14.03247
G1 X-4.366 Y21.937 E14.07087
G1 X-4.856 Y21.16 E14.1167
G1 X-4.937 Y21.012 E14.12511
G1 X-5.271 Y20.319 E14.16349
G1 X-5.531 Y19.595 E14.20187
G1 X-5.714 Y18.848 E14.24024
G1 X-5.805 Y18.238 E14.27101
G1 X-6.24 Y14.128 E14.47721
G1 X-6.258 Y13.938 E14.48673
G1 X-6.261 Y13.901 E14.48858
G0 F3600 X-5.933 Y12.981
G1 F900 X-6.035 Y13.097 E14.49629
G1 X-6.558 Y13.632 E14.53361
G1 X-7.136 Y14.107 E14.57094
G1 X-7.761 Y14.518 E14.60826
G1 X-8.426 Y14.86 E14.64556
G1 X-9.124 Y15.13 E14.6829
G1 X-9.91 Y15.336 E14.72344
G1 X-11.586 Y15.673 E14.80873
G1 X-12.326 Y15.781 E14.84604
G1 X-13.074 Y15.809 E14.88338
G1 X-13.82 Y15.758 E14.92069
G1 X-14.557 Y15.627 E14.95803
G1 X-15.275 Y15.418 E14.99534
G1 X-15.967 Y15.134 E15.03266
G1 X-16.625 Y14.778 E15.06998
G1 X-17.169 Y14.408 E15.10281
G1 X-17.49 Y14.167 E15.12283
G1 X-18.063 Y13.686 E15.16016
G1 X-18.582 Y13.148 E15.19745
G1 X-19.148 Y12.397 E15.24437
G1 X-20.391 Y10.494 E15.35777
G1 X-20.766 Y9.847 E15.39508
G1 X-21.069 Y9.163 E15.4324
G1 X-21.299 Y8.451 E15.46973
G1 X-21.45 Y7.719 E15.50702
G1 X-21.523 Y6.974 E15.54436
G1 X-21.516 Y6.226 E15.58168
G1 X-21.429 Y5.483 E15.619
G1 X-21.264 Y4.754 E15.65629
G1 X-21.102 Y4.255 E15.68247
G1 X-21 Y3.977 E15.69724
G1 X-20.705 Y3.289 E15.73459
G1 X-20.338 Y2.637 E15.77192
G1 X-19.904 Y2.028 E15.80923
G1 X-19.408 Y1.468 E15.84655
G1 X-19.027 Y1.111 E15.8726
G1 X-17.846 Y0.082 E15.95074
G1 X-16.916 Y-5.223 E16.21945
G1 X-16.063 Y-10.749 E16.49841
G1 X-15.909 Y-11.481 E16.53572
G1 X-15.679 Y-12.193 E16.57305
G1 X-15.288 Y-13.038 E16.61951
G1 X-15.194 Y-13.21 E16.62928
G1 X-14.8 Y-13.846 E16.66661
G1 X-14.341 Y-14.437 E16.70394
G1 X-13.822 Y-14.975 E16.74124
G1 X-13.248 Y-15.455 E16.77857
G1 X-12.626 Y-15.871 E16.8159
G1 X-11.726 Y-16.322 E16.86612
G1 X-9.477 Y-17.252 E16.98754
G1 X-6.785 Y-19.147 E17.15179
G1 X-6.151 Y-19.544 E17.18911
G1 X-5.479 Y-19.872 E17.22641
G1 X-4.775 Y-20.126 E17.26375
G1 X-4.048 Y-20.303 E17.30108
G1 X-3.307 Y-20.401 E17.33837
G1 X-2.803 Y-20.423 E17.36354
G1 X2.701 Y-20.46 E17.63814
G1 X3.798 Y-20.381 E17.69301
G1 X8.043 Y-19.737 E17.90722
G1 X8.775 Y-19.585 E17.94452
G1 X9.488 Y-19.356 E17.98188
G1 X10.171 Y-19.053 E18.01916
G1 X10.946 Y-18.593 E18.06412
G1 X11.212 Y-18.411 E18.0802
G1 X11.806 Y-17.956 E18.11753
G1 X12.238 Y-17.554 E18.14697
G1 X15.559 Y-14.193 E18.3827
G1 X16.056 Y-13.634 E18.42002
G1 X16.289 Y-13.324 E18.43937
G1 X16.785 Y-12.625 E18.48213
G1 X17.184 Y-11.993 E18.51941
G1 X17.514 Y-11.321 E18.55676
G1 X17.858 Y-10.309 E18.61009
G1 X18.964 Y-5.985 E18.83276
G1 X19.11 Y-5.251 E18.8701
G1 X19.181 Y-4.371 E18.91414
G1 X19.235 Y-1.257 E19.06953
G1 X19.208 Y-.51 E19.10682
G1 X19.098 Y0.248 E19.14503
G1 X18.006 Y5.664 E19.42067
G1 X17.819 Y6.388 E19.45798
G1 X17.556 Y7.088 E19.49529
G1 X17.189 Y7.809 E19.53565
G1 X11.373 Y17.771 E20.11116
G1 X9.57 Y21.61 E20.32276
G1 X9.216 Y22.269 E20.36008
G1 X8.794 Y22.886 E20.39737
G1 X8.27 Y23.496 E20.43749
G1 X8.13 Y23.641 E20.44755
G1 X7.582 Y24.151 E20.48489
G1 X6.983 Y24.599 E20.52221
G1 X6.34 Y24.981 E20.55953
G1 X5.66 Y25.292 E20.59683
G1 X4.95 Y25.528 E20.63416
G1 X4.219 Y25.688 E20.67149
G1 X3.351 Y25.774 E20.71501
G1 X3.188 Y25.78 E20.72315
G1 X2.441 Y25.768 E20.76042
G1 X1.698 Y25.676 E20.79777
G1 X0.97 Y25.505 E20.83508
G1 X0.264 Y25.257 E20.87241
G1 X-.411 Y24.935 E20.90972
G1 X-1.049 Y24.544 E20.94705
G1 X-1.777 Y23.965 E20.99346
G1 X-3.073 Y22.787 E21.08084
G1 X-3.599 Y22.255 E21.11816
G1 X-4.065 Y21.67 E21.15548
G1 X-4.506 Y20.968 E21.19684
G1 X-4.587 Y20.82 E21.20525
G1 X-4.91 Y20.145 E21.24259
G1 X-5.16 Y19.44 E21.2799
G1 X-5.333 Y18.712 E21.31724
G1 X-5.407 Y18.196 E21.34324
G1 X-5.842 Y14.086 E21.54944
G1 X-5.859 Y13.906 E21.55846
G1 X-5.933 Y12.981 E21.60475
G0 F3600 X-5.617 Y11.913
G1 F900 X-5.636 Y11.946 E21.60665
G1 X-6.181 Y12.658 E21.65139
G1 X-6.335 Y12.833 E21.66302
G1 X-6.844 Y13.351 E21.69925
G1 X-7.407 Y13.81 E21.73549
G1 X-8.017 Y14.205 E21.77174
G1 X-8.667 Y14.529 E21.80798
G1 X-9.348 Y14.781 E21.8442
G1 X-9.989 Y14.943 E21.87719
G1 X-11.665 Y15.28 E21.96248
G1 X-12.384 Y15.384 E21.99872
G1 X-13.11 Y15.408 E22.03496
G1 X-13.834 Y15.353 E22.07119
G1 X-14.548 Y15.218 E22.10744
G1 X-15.242 Y15.005 E22.14366
G1 X-15.909 Y14.717 E22.17991
G1 X-16.541 Y14.358 E22.21617
G1 X-16.929 Y14.088 E22.23975
G1 X-17.25 Y13.847 E22.25978
G1 X-17.806 Y13.38 E22.296
G1 X-18.307 Y12.854 E22.33224
G1 X-18.813 Y12.178 E22.37437
G1 X-20.056 Y10.275 E22.48777
G1 X-20.419 Y9.646 E22.524
G1 X-20.711 Y8.981 E22.56024
G1 X-20.928 Y8.288 E22.59647
G1 X-21.067 Y7.575 E22.63271
G1 X-21.127 Y6.851 E22.66895
G1 X-21.108 Y6.125 E22.70518
G1 X-21.009 Y5.406 E22.74139
G1 X-20.726 Y4.393 E22.79387
G1 X-20.624 Y4.115 E22.80864
G1 X-20.337 Y3.448 E22.84487
G1 X-19.978 Y2.816 E22.88113
G1 X-19.552 Y2.228 E22.91736
G1 X-19.064 Y1.69 E22.95359
G1 X-18.764 Y1.412 E22.974
G1 X-17.477 Y0.29 E23.05918
G1 X-16.524 Y-5.143 E23.33437
G1 X-15.668 Y-10.688 E23.61429
G1 X-15.518 Y-11.399 E23.65054
G1 X-15.29 Y-12.089 E23.6868
G1 X-14.937 Y-12.846 E23.72847
G1 X-14.843 Y-13.018 E23.73825
G1 X-14.46 Y-13.635 E23.77448
G1 X-14.011 Y-14.207 E23.81076
G1 X-13.503 Y-14.726 E23.84699
G1 X-12.94 Y-15.185 E23.88323
G1 X-12.331 Y-15.58 E23.91945
G1 X-11.573 Y-15.952 E23.96157
G1 X-9.286 Y-16.898 E24.08505
G1 X-6.555 Y-18.82 E24.25166
G1 X-5.939 Y-19.205 E24.2879
G1 X-5.284 Y-19.52 E24.32416
G1 X-4.599 Y-19.76 E24.36037
G1 X-3.891 Y-19.925 E24.39664
G1 X-3.17 Y-20.01 E24.43286
G1 X-2.8 Y-20.023 E24.45133
G1 X2.704 Y-20.06 E24.72593
G1 X3.738 Y-19.985 E24.77765
G1 X7.983 Y-19.341 E24.99186
G1 X8.694 Y-19.193 E25.02809
G1 X9.384 Y-18.967 E25.06432
G1 X10.046 Y-18.667 E25.10058
G1 X10.72 Y-18.263 E25.13978
G1 X10.986 Y-18.081 E25.15586
G1 X11.562 Y-17.638 E25.19211
G1 X11.954 Y-17.273 E25.21883
G1 X15.275 Y-13.912 E25.45456
G1 X15.963 Y-13.092 E25.50797
G1 X16.459 Y-12.393 E25.55073
G1 X16.846 Y-11.779 E25.58694
G1 X17.163 Y-11.125 E25.6232
G1 X17.47 Y-10.21 E25.67135
G1 X18.576 Y-5.886 E25.89402
G1 X18.717 Y-5.173 E25.93028
G1 X18.781 Y-4.364 E25.97076
G1 X18.835 Y-1.25 E26.12615
G1 X18.808 Y-.525 E26.16234
G1 X18.706 Y0.168 E26.19729
G1 X17.614 Y5.584 E26.47293
G1 X17.431 Y6.288 E26.50922
G1 X17.173 Y6.966 E26.54541
G1 X16.844 Y7.608 E26.5814
G1 X11.015 Y17.591 E27.15814
G1 X9.208 Y21.44 E27.37028
G1 X8.863 Y22.079 E27.40651
G1 X8.451 Y22.677 E27.44274
G1 X7.982 Y23.218 E27.47846
G1 X7.842 Y23.363 E27.48851
G1 X7.31 Y23.857 E27.52473
G1 X6.726 Y24.29 E27.56101
G1 X6.098 Y24.656 E27.59727
G1 X5.434 Y24.95 E27.6335
G1 X4.742 Y25.17 E27.66972
G1 X4.03 Y25.312 E27.70595
G1 X3.337 Y25.375 E27.74066
G1 X3.174 Y25.381 E27.7488
G1 X2.448 Y25.367 E27.78503
G1 X1.727 Y25.274 E27.8213
G1 X1.021 Y25.103 E27.85754
G1 X0.339 Y24.855 E27.89374
G1 X-.313 Y24.533 E27.93002
G1 X-.925 Y24.142 E27.96625
G1 X-1.508 Y23.669 E28.00371
G1 X-2.804 Y22.491 E28.09108
G1 X-3.314 Y21.974 E28.12732
G1 X-3.764 Y21.403 E28.16359
G1 X-4.155 Y20.776 E28.20045
G1 X-4.236 Y20.628 E28.20887
G1 X-4.549 Y19.972 E28.24513
G1 X-4.788 Y19.286 E28.28137
G1 X-4.95 Y18.578 E28.31761
G1 X-5.009 Y18.154 E28.33897
G1 X-5.444 Y14.044 E28.54516
G1 X-5.46 Y13.874 E28.55368
G1 X-5.617 Y11.913 E28.65183
G0 F3600 X-5.331 Y10.465
G1 F900 X-5.353 Y10.534 E28.65544
G1 X-5.644 Y11.175 E28.69056
G1 X-6.006 Y11.779 E28.72569
G1 X-6.482 Y12.394 E28.76449
G1 X-6.636 Y12.569 E28.77612
G1 X-7.13 Y13.07 E28.81122
G1 X-7.678 Y13.512 E28.84635
G1 X-8.272 Y13.889 E28.88145
G1 X-8.906 Y14.196 E28.91659
G1 X-9.57 Y14.43 E28.95171
G1 X-10.068 Y14.551 E28.97728
G1 X-11.744 Y14.888 E29.06257
G1 X-12.441 Y14.988 E29.0977
G1 X-13.144 Y15.007 E29.13279
G1 X-13.846 Y14.947 E29.16794
G1 X-14.536 Y14.808 E29.20305
G1 X-15.206 Y14.591 E29.23819
G1 X-15.847 Y14.3 E29.27331
G1 X-16.688 Y13.768 E29.32296
G1 X-17.009 Y13.527 E29.34298
G1 X-17.548 Y13.073 E29.37814
G1 X-18.031 Y12.561 E29.41326
G1 X-18.478 Y11.96 E29.45063
G1 X-19.721 Y10.057 E29.56403
G1 X-20.072 Y9.446 E29.59918
G1 X-20.351 Y8.8 E29.63429
G1 X-20.556 Y8.126 E29.66943
G1 X-20.682 Y7.434 E29.70453
G1 X-20.73 Y6.732 E29.73963
G1 X-20.697 Y6.028 E29.77479
G1 X-20.585 Y5.333 E29.80991
G1 X-20.351 Y4.53 E29.85164
G1 X-20.249 Y4.252 E29.86642
G1 X-19.969 Y3.606 E29.90154
G1 X-19.618 Y2.996 E29.93665
G1 X-19.2 Y2.43 E29.97176
G1 X-18.501 Y1.714 E30.02168
G1 X-17.107 Y0.499 E30.11393
G1 X-16.124 Y-5.111 E30.39808
G1 X-15.272 Y-10.627 E30.67654
G1 X-15.126 Y-11.316 E30.71168
G1 X-14.902 Y-11.983 E30.74678
G1 X-14.586 Y-12.654 E30.78378
G1 X-14.492 Y-12.826 E30.79356
G1 X-14.119 Y-13.424 E30.82873
G1 X-13.682 Y-13.975 E30.86381
G1 X-13.185 Y-14.474 E30.89895
G1 X-12.634 Y-14.913 E30.9341
G1 X-12.038 Y-15.286 E30.96917
G1 X-11.42 Y-15.582 E31.00336
G1 X-9.094 Y-16.544 E31.12894
G1 X-6.325 Y-18.493 E31.29787
G1 X-5.727 Y-18.865 E31.33301
G1 X-5.091 Y-19.167 E31.36813
G1 X-4.425 Y-19.394 E31.40324
G1 X-3.737 Y-19.545 E31.43838
G1 X-2.798 Y-19.623 E31.48539
G1 X2.706 Y-19.66 E31.75999
G1 X3.678 Y-19.59 E31.80861
G1 X7.923 Y-18.946 E32.02282
G1 X8.612 Y-18.801 E32.05794
G1 X9.28 Y-18.579 E32.09306
G1 X9.918 Y-18.282 E32.12817
G1 X10.494 Y-17.933 E32.16177
G1 X10.76 Y-17.751 E32.17785
G1 X11.318 Y-17.321 E32.213
G1 X11.669 Y-16.992 E32.237
G1 X14.99 Y-13.631 E32.47273
G1 X15.636 Y-12.861 E32.52287
G1 X16.132 Y-12.162 E32.56563
G1 X16.507 Y-11.566 E32.60076
