;FLAVOR:RepRap
;TIME:9357
;Filament used: 11.2782m
;Layer height: 0.4
;Generated with Cura_SteamEngine 2.6.2
M104 S200
M109 S200
G28 ;Home
G1 Z15.0 F6000 ;Move the platform down 15mm
;Prime the extruder
G92 E0
G1 F200 E3
G92 E0
;LAYER_COUNT:335
;LAYER:0
M107
G0 F3600 X21.242 Y-14.23 Z0.3
;TYPE:SKIRT
G1 F900 X32.185 Y-9.477 E0.59522
G1 X32.893 Y-9.127 E0.63462
G1 X33.561 Y-8.706 E0.67402
G1 X34.184 Y-8.22 E0.71344
G1 X34.754 Y-7.673 E0.75285
G1 X35.435 Y-6.843 E0.80642
G1 X35.499 Y-6.753 E0.81192
G1 X35.923 Y-6.087 E0.85131
G1 X36.278 Y-5.382 E0.89069
G1 X36.56 Y-4.644 E0.93011
G1 X36.766 Y-3.882 E0.96949
G1 X36.916 Y-2.865 E1.02078
G1 X37.733 Y7.185 E1.52383
G1 X37.757 Y7.974 E1.56321
G1 X37.702 Y8.762 E1.60262
G1 X37.566 Y9.54 E1.64202
G1 X37.403 Y10.122 E1.67218
G1 X37.733 Y14.185 E1.87555
G1 X37.757 Y14.974 E1.91493
G1 X37.702 Y15.762 E1.95434
G1 X37.566 Y16.54 E1.99374
G1 X37.403 Y17.123 E2.02394
G1 X37.733 Y21.185 E2.22726
G1 X37.757 Y21.974 E2.26665
G1 X37.702 Y22.762 E2.30605
G1 X37.566 Y23.54 E2.34546
G1 X37.404 Y24.12 E2.3755
G1 X37.733 Y28.186 E2.57902
G1 X37.756 Y28.975 E2.6184
G1 X37.7 Y29.763 E2.65781
G1 X37.565 Y30.541 E2.69721
G1 X37.351 Y31.301 E2.7366
G1 X37.062 Y32.036 E2.776
G1 X36.7 Y32.738 E2.8154
G1 X36.269 Y33.4 E2.85481
G1 X35.773 Y34.014 E2.89419
G1 X35.218 Y34.576 E2.9336
G1 X34.488 Y35.165 E2.9804
G1 X34.303 Y35.297 E2.99173
G1 X33.638 Y35.723 E3.03113
G1 X32.933 Y36.079 E3.07054
G1 X32.196 Y36.362 E3.10992
G1 X31.434 Y36.569 E3.14932
G1 X30.655 Y36.698 E3.18871
G1 X30.221 Y36.725 E3.21041
G1 X30.103 Y36.745 E3.21638
G1 X29.195 Y36.798 E3.26175
G1 X-29.229 Y36.798 E6.17654
G1 X-30.018 Y36.758 E6.21595
G1 X-30.798 Y36.639 E6.25532
G1 X-31.563 Y36.441 E6.29474
G1 X-32.303 Y36.167 E6.33411
G1 X-33.012 Y35.819 E6.37351
G1 X-33.683 Y35.401 E6.41295
G1 X-34.307 Y34.918 E6.45232
G1 X-34.493 Y34.738 E6.46523
G1 X-35.107 Y34.252 E6.5043
G1 X-35.673 Y33.701 E6.54371
G1 X-36.181 Y33.096 E6.58312
G1 X-36.624 Y32.443 E6.62249
G1 X-37 Y31.748 E6.66191
G1 X-37.303 Y31.019 E6.7013
G1 X-37.531 Y30.263 E6.7407
G1 X-37.681 Y29.487 E6.78013
G1 X-37.752 Y28.701 E6.8195
G1 X-37.733 Y27.763 E6.86631
G1 X-37.403 Y23.688 E7.07027
G1 X-37.531 Y23.263 E7.09242
G1 X-37.681 Y22.487 E7.13185
G1 X-37.752 Y21.701 E7.17122
G1 X-37.733 Y20.763 E7.21803
G1 X-37.403 Y16.693 E7.42175
G1 X-37.528 Y16.283 E7.44313
G1 X-37.68 Y15.508 E7.48254
G1 X-37.753 Y14.722 E7.52192
G1 X-37.734 Y13.762 E7.56982
G1 X-37.403 Y9.693 E7.7735
G1 X-37.528 Y9.283 E7.79488
G1 X-37.68 Y8.508 E7.83428
G1 X-37.753 Y7.722 E7.87366
G1 X-37.734 Y6.762 E7.92157
G1 X-36.917 Y-3.288 E8.42462
G1 X-36.814 Y-4.071 E8.46402
G1 X-36.631 Y-4.839 E8.50341
G1 X-36.372 Y-5.585 E8.54281
G1 X-36.039 Y-6.301 E8.5822
G1 X-35.5 Y-7.176 E8.63347
G1 X-35.436 Y-7.266 E8.63898
G1 X-34.946 Y-7.886 E8.67841
G1 X-34.396 Y-8.453 E8.71782
G1 X-33.792 Y-8.961 E8.75719
G1 X-33.139 Y-9.406 E8.79662
G1 X-32.186 Y-9.9 E8.85017
G1 X-22.276 Y-14.204 E9.3892
G1 X-22.41 Y-14.855 E9.42236
G1 X-22.491 Y-15.64 E9.46173
G1 X-22.501 Y-16.042 E9.48179
G1 X-22.501 Y-17.936 E9.57628
G1 X-22.461 Y-18.725 E9.6157
G1 X-22.342 Y-19.505 E9.65506
G1 X-22.144 Y-20.27 E9.69449
G1 X-21.87 Y-21.01 E9.73385
G1 X-21.522 Y-21.719 E9.77326
G1 X-21.104 Y-22.39 E9.8127
G1 X-20.621 Y-23.014 E9.85207
G1 X-20.609 Y-23.027 E9.85295
G1 X-20.459 Y-23.432 E9.8745
G1 X-20.111 Y-24.141 E9.9139
G1 X-19.693 Y-24.812 E9.95334
G1 X-19.21 Y-25.436 E9.99271
G1 X-19.2 Y-25.446 E9.99341
G1 X-19.049 Y-25.855 E10.01516
G1 X-18.701 Y-26.564 E10.05457
G1 X-18.283 Y-27.235 E10.09401
G1 X-17.8 Y-27.859 E10.13338
G1 X-17.257 Y-28.432 E10.17276
G1 X-16.658 Y-28.947 E10.21217
G1 X-16.01 Y-29.398 E10.25156
G1 X-15.319 Y-29.782 E10.291
G1 X-14.594 Y-30.094 E10.33038
G1 X-13.841 Y-30.331 E10.36976
G1 X-13.81 Y-30.337 E10.37134
G1 X-13.805 Y-30.343 E10.37173
G1 X-13.229 Y-30.882 E10.41108
G1 X-12.6 Y-31.36 E10.4505
G1 X-11.926 Y-31.772 E10.48991
G1 X-11.215 Y-32.114 E10.52927
G1 X-10.472 Y-32.382 E10.56867
G1 X-9.706 Y-32.574 E10.60807
G1 X-8.924 Y-32.687 E10.64749
G1 X-8.135 Y-32.721 E10.68689
G1 X-7.347 Y-32.674 E10.72628
G1 X-6.504 Y-32.535 E10.7689
G1 X-6.28 Y-32.485 E10.78035
G1 X3.181 Y-32.476 E11.25236
G1 X3.857 Y-32.689 E11.28772
G1 X4.631 Y-32.848 E11.32714
G1 X5.758 Y-32.939 E11.38355
G1 X7.315 Y-32.951 E11.46123
G1 X8.104 Y-32.917 E11.50063
G1 X8.885 Y-32.803 E11.54001
G1 X9.651 Y-32.611 E11.57941
G1 X10.394 Y-32.343 E11.61882
G1 X11.106 Y-32.001 E11.65822
G1 X11.153 Y-31.972 E11.66098
G1 X11.856 Y-31.865 E11.69646
G1 X12.621 Y-31.667 E11.73588
G1 X13.361 Y-31.393 E11.77525
G1 X14.07 Y-31.045 E11.81465
G1 X14.741 Y-30.627 E11.85409
G1 X15.365 Y-30.144 E11.89346
G1 X15.938 Y-29.601 E11.93284
G1 X16.453 Y-29.002 E11.97225
G1 X16.904 Y-28.354 E12.01164
G1 X17.288 Y-27.663 E12.05108
G1 X17.6 Y-26.938 E12.09046
G1 X17.837 Y-26.185 E12.12984
G1 X17.996 Y-25.411 E12.16926
G1 X18.077 Y-24.626 E12.20864
G1 X18.087 Y-24.224 E12.2287
G1 X18.087 Y-24.203 E12.22975
G1 X18.155 Y-24.045 E12.23833
G1 X18.181 Y-23.961 E12.24272
G1 X18.419 Y-23.685 E12.2609
G1 X18.87 Y-23.037 E12.30029
G1 X19.254 Y-22.346 E12.33973
G1 X19.566 Y-21.621 E12.3791
G1 X19.591 Y-21.541 E12.38328
G1 X19.83 Y-21.263 E12.40157
G1 X20.281 Y-20.615 E12.44096
G1 X20.665 Y-19.924 E12.4804
G1 X20.977 Y-19.199 E12.51978
G1 X21.214 Y-18.446 E12.55916
G1 X21.373 Y-17.672 E12.59859
G1 X21.454 Y-16.887 E12.63796
G1 X21.464 Y-16.485 E12.65802
G1 X21.464 Y-16.043 E12.68007
G1 X21.424 Y-15.254 E12.71948
G1 X21.305 Y-14.474 E12.75885
G1 X21.242 Y-14.23 E12.77142
G0 F3600 X20.768 Y-14
G1 F900 X32.026 Y-9.11 E13.38378
G1 X32.715 Y-8.768 E13.42216
G1 X33.364 Y-8.356 E13.46051
G1 X33.967 Y-7.878 E13.4989
G1 X34.517 Y-7.341 E13.53725
G1 X35.109 Y-6.611 E13.58414
G1 X35.173 Y-6.521 E13.58965
G1 X35.585 Y-5.872 E13.628
G1 X35.928 Y-5.184 E13.66635
G1 X36.198 Y-4.464 E13.70472
G1 X36.391 Y-3.719 E13.74311
G1 X36.518 Y-2.833 E13.78777
G1 X37.335 Y7.217 E14.29082
G1 X37.357 Y7.986 E14.3292
G1 X37.3 Y8.753 E14.36757
G1 X37.163 Y9.51 E14.40595
G1 X36.998 Y10.076 E14.43536
G1 X37.335 Y14.218 E14.64269
G1 X37.357 Y14.986 E14.68102
G1 X37.3 Y15.753 E14.7194
G1 X37.163 Y16.51 E14.75778
G1 X36.998 Y17.076 E14.78719
G1 X37.335 Y21.218 E14.99452
G1 X37.357 Y21.986 E15.03285
G1 X37.3 Y22.753 E15.07122
G1 X37.163 Y23.51 E15.1096
G1 X36.998 Y24.076 E15.13901
G1 X37.334 Y28.218 E15.34634
G1 X37.356 Y28.987 E15.38472
G1 X37.298 Y29.754 E15.42309
G1 X37.161 Y30.511 E15.46147
G1 X36.946 Y31.25 E15.49987
G1 X36.656 Y31.962 E15.53823
G1 X36.293 Y32.64 E15.5766
G1 X35.862 Y33.277 E15.61497
G1 X35.367 Y33.866 E15.65335
G1 X34.814 Y34.4 E15.6917
G1 X34.256 Y34.84 E15.72716
G1 X34.071 Y34.972 E15.73849
G1 X33.423 Y35.385 E15.77683
G1 X32.735 Y35.729 E15.81521
G1 X32.015 Y36 E15.85359
G1 X31.271 Y36.195 E15.89196
G1 X30.51 Y36.311 E15.93036
G1 X30.146 Y36.329 E15.94855
G1 X29.918 Y36.363 E15.96005
G1 X29.195 Y36.398 E15.99616
G1 X-29.229 Y36.398 E18.91095
G1 X-29.997 Y36.358 E18.94931
G1 X-30.757 Y36.239 E18.98769
G1 X-31.5 Y36.041 E19.02605
G1 X-32.219 Y35.767 E19.06444
G1 X-32.905 Y35.42 E19.1028
G1 X-33.552 Y35.004 E19.14117
G1 X-34.152 Y34.523 E19.17954
G1 X-34.277 Y34.4 E19.18829
G1 X-34.858 Y33.938 E19.22532
G1 X-35.407 Y33.4 E19.26367
G1 X-35.897 Y32.807 E19.30205
G1 X-36.324 Y32.167 E19.34043
G1 X-36.681 Y31.485 E19.37884
G1 X-36.966 Y30.771 E19.41719
G1 X-37.175 Y30.031 E19.45555
G1 X-37.306 Y29.273 E19.49393
G1 X-37.357 Y28.505 E19.53233
G1 X-37.334 Y27.796 E19.56772
G1 X-36.999 Y23.656 E19.77494
G1 X-37.175 Y23.031 E19.80734
G1 X-37.306 Y22.273 E19.84571
G1 X-37.357 Y21.505 E19.88411
G1 X-37.334 Y20.796 E19.9195
G1 X-36.999 Y16.658 E20.12662
G1 X-37.172 Y16.05 E20.15816
G1 X-37.305 Y15.292 E20.19656
G1 X-37.359 Y14.525 E20.23492
G1 X-37.336 Y13.795 E20.27135
G1 X-37 Y9.655 E20.47858
G1 X-37.172 Y9.05 E20.50996
G1 X-37.305 Y8.292 E20.54835
G1 X-37.359 Y7.525 E20.58671
G1 X-37.336 Y6.794 E20.6232
G1 X-36.519 Y-3.256 E21.12625
G1 X-36.417 Y-4.018 E21.16461
G1 X-36.236 Y-4.766 E21.203
G1 X-35.979 Y-5.49 E21.24133
G1 X-35.648 Y-6.185 E21.27974
G1 X-35.174 Y-6.944 E21.32438
G1 X-35.11 Y-7.034 E21.32989
G1 X-34.632 Y-7.637 E21.36828
G1 X-34.094 Y-8.187 E21.40666
G1 X-33.502 Y-8.678 E21.44504
G1 X-32.863 Y-9.106 E21.48341
G1 X-32.027 Y-9.533 E21.53024
G1 X-21.797 Y-13.976 E22.08667
G1 X-21.924 Y-14.435 E22.11043
G1 X-22.052 Y-15.193 E22.14879
G1 X-22.101 Y-16.042 E22.19121
G1 X-22.101 Y-17.936 E22.28571
G1 X-22.061 Y-18.704 E22.32407
G1 X-21.942 Y-19.464 E22.36245
G1 X-21.744 Y-20.207 E22.40081
G1 X-21.47 Y-20.926 E22.4392
G1 X-21.123 Y-21.612 E22.47755
G1 X-20.707 Y-22.259 E22.51593
G1 X-20.263 Y-22.813 E22.55135
G1 X-20.059 Y-23.348 E22.57992
G1 X-19.712 Y-24.034 E22.61827
G1 X-19.296 Y-24.681 E22.65665
G1 X-18.855 Y-25.232 E22.69186
G1 X-18.649 Y-25.771 E22.72064
G1 X-18.302 Y-26.457 E22.759
G1 X-17.886 Y-27.104 E22.79737
G1 X-17.405 Y-27.704 E22.83574
G1 X-16.864 Y-28.251 E22.87412
G1 X-16.269 Y-28.739 E22.91251
G1 X-15.627 Y-29.162 E22.95087
G1 X-14.944 Y-29.517 E22.98927
G1 X-14.229 Y-29.798 E23.0276
G1 X-13.595 Y-29.974 E23.06043
G1 X-13.49 Y-30.093 E23.06834
G1 X-12.925 Y-30.615 E23.10672
G1 X-12.308 Y-31.075 E23.14512
G1 X-11.647 Y-31.468 E23.18348
G1 X-10.949 Y-31.791 E23.22185
G1 X-10.221 Y-32.039 E23.26022
G1 X-9.471 Y-32.211 E23.29861
G1 X-8.708 Y-32.303 E23.33695
G1 X-7.939 Y-32.316 E23.37533
G1 X-7.172 Y-32.25 E23.41373
G1 X-6.591 Y-32.144 E23.4432
G1 X-6.327 Y-32.085 E23.45669
G1 X3.266 Y-32.076 E23.93529
G1 X3.469 Y-32.156 E23.94618
G1 X4.211 Y-32.362 E23.9846
G1 X4.969 Y-32.49 E24.02295
G1 X5.761 Y-32.539 E24.06254
G1 X7.318 Y-32.551 E24.14022
G1 X8.086 Y-32.517 E24.17857
G1 X8.847 Y-32.403 E24.21696
G1 X9.592 Y-32.211 E24.25534
G1 X10.313 Y-31.943 E24.29372
G1 X11.002 Y-31.601 E24.33209
G1 X11.027 Y-31.585 E24.33358
G1 X11.055 Y-31.584 E24.33497
G1 X11.815 Y-31.465 E24.37335
G1 X12.558 Y-31.267 E24.41171
G1 X13.277 Y-30.993 E24.4501
G1 X13.963 Y-30.646 E24.48846
G1 X14.61 Y-30.23 E24.52683
G1 X15.21 Y-29.749 E24.5652
G1 X15.757 Y-29.208 E24.60358
G1 X16.245 Y-28.613 E24.64197
G1 X16.668 Y-27.971 E24.68033
G1 X17.023 Y-27.288 E24.71873
G1 X17.304 Y-26.573 E24.75706
G1 X17.51 Y-25.831 E24.79548
G1 X17.638 Y-25.073 E24.83383
G1 X17.687 Y-24.224 E24.87626
G1 X17.687 Y-24.118 E24.88154
G1 X17.825 Y-23.767 E24.90036
G1 X18.211 Y-23.296 E24.93074
G1 X18.634 Y-22.654 E24.9691
G1 X18.989 Y-21.971 E25.0075
G1 X19.234 Y-21.347 E25.04095
G1 X19.622 Y-20.874 E25.07147
G1 X20.045 Y-20.232 E25.10983
G1 X20.4 Y-19.549 E25.14823
G1 X20.681 Y-18.834 E25.18656
G1 X20.887 Y-18.092 E25.22497
G1 X21.015 Y-17.334 E25.26333
G1 X21.064 Y-16.485 E25.30575
G1 X21.064 Y-16.043 E25.32781
G1 X21.024 Y-15.275 E25.36617
G1 X20.905 Y-14.515 E25.40455
G1 X20.768 Y-14 E25.43114
G0 F3600 X20.283 Y-13.775
G1 F900 X31.867 Y-8.744 E26.06122
G1 X32.536 Y-8.409 E26.09855
G1 X33.166 Y-8.006 E26.13586
G1 X33.749 Y-7.537 E26.17319
G1 X34.278 Y-7.009 E26.21048
G1 X34.783 Y-6.38 E26.25072
G1 X34.847 Y-6.29 E26.25623
G1 X35.247 Y-5.658 E26.29354
G1 X35.578 Y-4.987 E26.33087
G1 X35.835 Y-4.284 E26.36821
G1 X36.015 Y-3.558 E26.40553
G1 X36.119 Y-2.8 E26.4437
G1 X36.936 Y7.25 E26.94675
G1 X36.957 Y7.998 E26.98409
G1 X36.897 Y8.743 E27.02137
G1 X36.759 Y9.478 E27.05868
G1 X36.593 Y10.029 E27.08739
G1 X36.936 Y14.25 E27.29867
G1 X36.957 Y14.998 E27.33601
G1 X36.897 Y15.743 E27.3733
G1 X36.759 Y16.479 E27.41066
G1 X36.593 Y17.029 E27.43932
G1 X36.936 Y21.25 E27.6506
G1 X36.957 Y21.998 E27.68793
G1 X36.897 Y22.743 E27.72522
G1 X36.759 Y23.479 E27.76258
G1 X36.593 Y24.029 E27.79124
G1 X36.935 Y28.251 E28.00257
G1 X36.956 Y28.999 E28.0399
G1 X36.896 Y29.744 E28.07719
G1 X36.758 Y30.479 E28.1145
G1 X36.541 Y31.195 E28.15182
G1 X36.25 Y31.884 E28.18914
G1 X35.886 Y32.538 E28.22648
G1 X35.455 Y33.15 E28.26382
G1 X34.961 Y33.712 E28.30115
G1 X34.41 Y34.217 E28.33844
G1 X34.024 Y34.514 E28.36274
G1 X33.839 Y34.646 E28.37408
G1 X33.207 Y35.048 E28.41145
G1 X32.537 Y35.379 E28.44873
G1 X31.835 Y35.637 E28.48604
G1 X31.109 Y35.819 E28.52339
G1 X30.368 Y35.923 E28.56072
G1 X30.08 Y35.932 E28.57509
G1 X29.735 Y35.977 E28.59245
G1 X29.195 Y35.998 E28.61941
G1 X-29.229 Y35.998 E31.5342
G1 X-29.976 Y35.958 E31.57152
G1 X-30.714 Y35.839 E31.60881
G1 X-31.436 Y35.641 E31.64616
G1 X-32.132 Y35.368 E31.68346
G1 X-32.795 Y35.021 E31.7208
G1 X-33.418 Y34.606 E31.75814
G1 X-33.992 Y34.127 E31.79544
G1 X-34.042 Y34.077 E31.79897
G1 X-34.609 Y33.625 E31.83514
G1 X-35.14 Y33.099 E31.87243
G1 X-35.613 Y32.519 E31.90977
G1 X-36.021 Y31.892 E31.94709
G1 X-36.36 Y31.225 E31.98442
G1 X-36.625 Y30.525 E32.02176
G1 X-36.815 Y29.802 E32.05906
G1 X-36.926 Y29.062 E32.09639
G1 X-36.958 Y28.315 E32.13369
G1 X-36.935 Y27.828 E32.15802
G1 X-36.593 Y23.609 E32.36919
G1 X-36.625 Y23.525 E32.37368
G1 X-36.815 Y22.802 E32.41097
G1 X-36.926 Y22.062 E32.4483
G1 X-36.958 Y21.315 E32.48561
G1 X-36.935 Y20.828 E32.50993
G1 X-36.594 Y16.616 E32.72076
G1 X-36.622 Y16.543 E32.72466
G1 X-36.813 Y15.82 E32.76196
G1 X-36.926 Y15.081 E32.79926
G1 X-36.96 Y14.333 E32.83662
G1 X-36.937 Y13.827 E32.86189
G1 X-36.595 Y9.614 E33.07277
G1 X-36.622 Y9.543 E33.07656
G1 X-36.813 Y8.82 E33.11387
G1 X-36.926 Y8.081 E33.15116
G1 X-36.96 Y7.333 E33.18852
G1 X-36.937 Y6.827 E33.21379
G1 X-36.12 Y-3.223 E33.71684
G1 X-36.02 Y-3.964 E33.75414
G1 X-35.841 Y-4.691 E33.7915
G1 X-35.585 Y-5.394 E33.82882
G1 X-35.256 Y-6.066 E33.86615
G1 X-34.848 Y-6.713 E33.90431
G1 X-34.784 Y-6.803 E33.90982
G1 X-34.318 Y-7.388 E33.94714
G1 X-33.793 Y-7.921 E33.98446
G1 X-33.214 Y-8.394 E34.02176
G1 X-32.587 Y-8.803 E34.05911
G1 X-31.868 Y-9.167 E34.09932
G1 X-21.306 Y-13.754 E34.6738
G1 X-21.413 Y-14.055 E34.68974
G1 X-21.587 Y-14.783 E34.72708
G1 X-21.682 Y-15.525 E34.7644
G1 X-21.701 Y-16.042 E34.79022
G1 X-21.701 Y-17.936 E34.88471
G1 X-21.661 Y-18.683 E34.92203
G1 X-21.542 Y-19.421 E34.95932
G1 X-21.344 Y-20.143 E34.99667
G1 X-21.071 Y-20.839 E35.03397
G1 X-20.724 Y-21.502 E35.07131
G1 X-20.309 Y-22.125 E35.10865
G1 X-19.925 Y-22.585 E35.13855
G1 X-19.66 Y-23.261 E35.17477
G1 X-19.313 Y-23.924 E35.21211
G1 X-18.898 Y-24.547 E35.24945
G1 X-18.517 Y-25.004 E35.27914
G1 X-18.25 Y-25.684 E35.31558
G1 X-17.903 Y-26.347 E35.35292
G1 X-17.488 Y-26.97 E35.39026
G1 X-17.009 Y-27.544 E35.42756
G1 X-16.472 Y-28.065 E35.46489
G1 X-15.882 Y-28.524 E35.50218
G1 X-15.246 Y-28.919 E35.53954
G1 X-14.572 Y-29.243 E35.57684
G1 X-13.867 Y-29.493 E35.61416
G1 X-13.383 Y-29.609 E35.63899
G1 X-13.175 Y-29.843 E35.65461
G1 X-12.622 Y-30.346 E35.69191
G1 X-12.017 Y-30.787 E35.72926
G1 X-11.37 Y-31.161 E35.76654
G1 X-10.685 Y-31.464 E35.80391
G1 X-9.973 Y-31.692 E35.84121
G1 X-9.24 Y-31.843 E35.87855
G1 X-8.496 Y-31.915 E35.91584
G1 X-7.748 Y-31.907 E35.95316
G1 X-6.677 Y-31.754 E36.00714
G1 X-6.368 Y-31.685 E36.02293
G1 X3.338 Y-31.676 E36.50717
G1 X3.831 Y-31.851 E36.53326
G1 X4.559 Y-32.025 E36.57061
G1 X5.301 Y-32.12 E36.60793
G1 X5.764 Y-32.139 E36.63105
G1 X7.321 Y-32.151 E36.70873
G1 X8.068 Y-32.117 E36.74604
G1 X8.808 Y-32.003 E36.78339
G1 X9.531 Y-31.811 E36.82071
G1 X10.229 Y-31.543 E36.85801
G1 X10.895 Y-31.202 E36.89534
G1 X10.912 Y-31.191 E36.89635
G1 X11.034 Y-31.184 E36.90245
G1 X11.772 Y-31.065 E36.93974
G1 X12.494 Y-30.867 E36.97709
G1 X13.19 Y-30.594 E37.01439
G1 X13.853 Y-30.247 E37.05173
G1 X14.476 Y-29.832 E37.08907
G1 X15.05 Y-29.353 E37.12637
G1 X15.571 Y-28.816 E37.1637
G1 X16.03 Y-28.226 E37.20099
G1 X16.425 Y-27.59 E37.23834
G1 X16.749 Y-26.916 E37.27565
G1 X16.999 Y-26.211 E37.31297
G1 X17.173 Y-25.483 E37.35032
G1 X17.268 Y-24.741 E37.38764
G1 X17.287 Y-24.224 E37.41345
G1 X17.287 Y-24.058 E37.42173
G1 X17.304 Y-24.023 E37.42367
G1 X17.463 Y-23.576 E37.44734
G1 X17.537 Y-23.499 E37.45267
G1 X17.996 Y-22.909 E37.48996
G1 X18.391 Y-22.273 E37.52731
G1 X18.715 Y-21.599 E37.56462
G1 X18.873 Y-21.155 E37.58813
G1 X18.948 Y-21.077 E37.59353
G1 X19.407 Y-20.487 E37.63083
G1 X19.802 Y-19.851 E37.66818
G1 X20.126 Y-19.177 E37.70549
G1 X20.376 Y-18.472 E37.74281
G1 X20.55 Y-17.744 E37.78015
G1 X20.645 Y-17.002 E37.81747
G1 X20.664 Y-16.485 E37.84328
G1 X20.664 Y-16.043 E37.86533
G1 X20.624 Y-15.296 E37.90265
