;FLAVOR:RepRap
;TIME:19481
;Filament used: 13.8759m
;Layer height: 0.2
;Generated with Cura_SteamEngine 2.6.2
M104 S200
M109 S200
G28 ;Home
G1 Z15.0 F6000 ;Move the platform down 15mm
;Prime the extruder
G92 E0
G1 F200 E3
G92 E0
;LAYER_COUNT:591
;LAYER:0
M107
G0 F3600 X-16.616 Y27.607 Z0.3
;TYPE:SKIRT
G1 F900 X-16.616 Y-27.772 E2.76287
G1 X-16.576 Y-28.561 E2.80228
G1 X-16.457 Y-29.341 E2.84165
G1 X-16.259 Y-30.106 E2.88107
G1 X-15.985 Y-30.846 E2.92044
G1 X-15.637 Y-31.555 E2.95984
G1 X-15.219 Y-32.226 E2.99928
G1 X-14.736 Y-32.85 E3.03865
G1 X-14.331 Y-33.287 E3.06838
G1 X-14.214 Y-33.404 E3.07663
G1 X-13.628 Y-33.934 E3.11605
G1 X-12.992 Y-34.401 E3.15542
G1 X-12.312 Y-34.802 E3.1948
G1 X-11.594 Y-35.132 E3.23423
G1 X-10.847 Y-35.387 E3.2736
G1 X-10.078 Y-35.566 E3.313
G1 X-9.294 Y-35.666 E3.35243
G1 X-8.699 Y-35.689 E3.38213
G1 X18.824 Y-35.689 E4.75526
G1 X19.613 Y-35.649 E4.79468
G1 X20.393 Y-35.53 E4.83404
G1 X21.158 Y-35.332 E4.87346
G1 X21.898 Y-35.058 E4.91283
G1 X22.607 Y-34.71 E4.95224
G1 X23.278 Y-34.292 E4.99168
G1 X23.902 Y-33.809 E5.03104
G1 X24.339 Y-33.404 E5.06077
G1 X24.456 Y-33.287 E5.06902
G1 X24.986 Y-32.701 E5.10844
G1 X25.453 Y-32.065 E5.14781
G1 X25.854 Y-31.385 E5.18719
G1 X26.184 Y-30.667 E5.22662
G1 X26.439 Y-29.92 E5.266
G1 X26.618 Y-29.151 E5.30539
G1 X26.718 Y-28.367 E5.34482
G1 X26.741 Y-27.772 E5.37453
G1 X26.741 Y27.606 E8.13735
G1 X26.701 Y28.395 E8.17676
G1 X26.582 Y29.175 E8.21612
G1 X26.384 Y29.94 E8.25555
G1 X26.11 Y30.68 E8.29492
G1 X25.762 Y31.389 E8.33432
G1 X25.344 Y32.06 E8.37376
G1 X24.861 Y32.684 E8.41313
G1 X24.456 Y33.121 E8.44285
G1 X24.339 Y33.238 E8.45111
G1 X23.753 Y33.768 E8.49053
G1 X23.117 Y34.235 E8.52989
G1 X22.437 Y34.636 E8.56928
G1 X21.719 Y34.966 E8.6087
G1 X20.972 Y35.221 E8.64808
G1 X20.203 Y35.4 E8.68747
G1 X19.419 Y35.5 E8.7269
G1 X18.824 Y35.523 E8.75661
G1 X-8.699 Y35.524 E10.12974
G1 X-9.487 Y35.484 E10.1691
G1 X-10.268 Y35.365 E10.20852
G1 X-11.032 Y35.167 E10.24789
G1 X-11.773 Y34.893 E10.28731
G1 X-12.482 Y34.545 E10.32671
G1 X-13.152 Y34.128 E10.36608
G1 X-13.777 Y33.645 E10.40549
G1 X-14.214 Y33.239 E10.43525
G1 X-14.331 Y33.122 E10.4435
G1 X-14.861 Y32.536 E10.48292
G1 X-15.328 Y31.9 E10.52229
G1 X-15.729 Y31.22 E10.56167
G1 X-16.059 Y30.502 E10.6011
G1 X-16.314 Y29.755 E10.64048
G1 X-16.493 Y28.986 E10.67987
G1 X-16.593 Y28.202 E10.7193
G1 X-16.616 Y27.607 E10.749
G0 F3600 X-16.216 Y27.607
G1 F900 X-16.216 Y-27.772 E13.51187
G1 X-16.176 Y-28.54 E13.55024
G1 X-16.057 Y-29.3 E13.58862
G1 X-15.859 Y-30.043 E13.62698
G1 X-15.585 Y-30.762 E13.66537
G1 X-15.238 Y-31.448 E13.70372
G1 X-14.822 Y-32.095 E13.7421
G1 X-14.341 Y-32.695 E13.78046
G1 X-14.049 Y-33.005 E13.80171
G1 X-13.932 Y-33.122 E13.80997
G1 X-13.36 Y-33.636 E13.84833
G1 X-12.738 Y-34.089 E13.88672
G1 X-12.073 Y-34.475 E13.92508
G1 X-11.371 Y-34.79 E13.96347
G1 X-10.64 Y-35.03 E14.00186
G1 X-9.889 Y-35.193 E14.0402
G1 X-9.124 Y-35.277 E14.07859
G1 X-8.699 Y-35.289 E14.0998
G1 X18.824 Y-35.289 E15.47293
G1 X19.592 Y-35.249 E15.5113
G1 X20.352 Y-35.13 E15.54968
G1 X21.095 Y-34.932 E15.58804
G1 X21.814 Y-34.658 E15.62643
G1 X22.5 Y-34.311 E15.66478
G1 X23.147 Y-33.895 E15.70316
G1 X23.747 Y-33.414 E15.74152
G1 X24.057 Y-33.122 E15.76277
G1 X24.174 Y-33.005 E15.77102
G1 X24.688 Y-32.433 E15.80939
G1 X25.141 Y-31.811 E15.84778
G1 X25.527 Y-31.146 E15.88614
G1 X25.842 Y-30.444 E15.92453
G1 X26.082 Y-29.713 E15.96291
G1 X26.245 Y-28.962 E16.00125
G1 X26.329 Y-28.197 E16.03965
G1 X26.341 Y-27.772 E16.06086
G1 X26.341 Y27.606 E18.82368
G1 X26.301 Y28.374 E18.86205
G1 X26.182 Y29.134 E18.90042
G1 X25.984 Y29.877 E18.93879
G1 X25.71 Y30.596 E18.97717
G1 X25.363 Y31.282 E19.01553
G1 X24.947 Y31.929 E19.0539
G1 X24.466 Y32.529 E19.09227
G1 X24.174 Y32.839 E19.11352
G1 X24.057 Y32.956 E19.12177
G1 X23.485 Y33.47 E19.16014
G1 X22.863 Y33.923 E19.19853
G1 X22.198 Y34.309 E19.23689
G1 X21.496 Y34.624 E19.27527
G1 X20.765 Y34.864 E19.31366
G1 X20.014 Y35.027 E19.352
G1 X19.249 Y35.111 E19.39039
G1 X18.824 Y35.123 E19.41161
G1 X-8.699 Y35.124 E20.78473
G1 X-9.467 Y35.084 E20.8231
G1 X-10.227 Y34.965 E20.86148
G1 X-10.97 Y34.767 E20.89984
G1 X-11.689 Y34.493 E20.93823
G1 X-12.375 Y34.146 E20.97658
G1 X-13.022 Y33.73 E21.01496
G1 X-13.622 Y33.249 E21.05333
G1 X-13.932 Y32.957 E21.07457
G1 X-14.049 Y32.84 E21.08283
G1 X-14.563 Y32.268 E21.12119
G1 X-15.016 Y31.646 E21.15958
G1 X-15.402 Y30.981 E21.19794
G1 X-15.717 Y30.279 E21.23633
G1 X-15.957 Y29.548 E21.27472
G1 X-16.12 Y28.797 E21.31306
G1 X-16.204 Y28.032 E21.35145
G1 X-16.216 Y27.607 E21.37266
G0 F3600 X-15.816 Y27.607
G1 F900 X-15.816 Y-27.772 E24.13553
G1 X-15.776 Y-28.519 E24.17285
G1 X-15.657 Y-29.257 E24.21015
G1 X-15.459 Y-29.979 E24.2475
G1 X-15.186 Y-30.675 E24.2848
G1 X-14.839 Y-31.338 E24.32213
G1 X-14.424 Y-31.961 E24.35948
G1 X-13.766 Y-32.722 E24.40967
G1 X-13.649 Y-32.839 E24.41792
G1 X-13.092 Y-33.339 E24.45527
G1 X-12.486 Y-33.776 E24.49254
G1 X-11.836 Y-34.147 E24.52988
G1 X-11.15 Y-34.446 E24.56721
G1 X-10.436 Y-34.67 E24.60455
G1 X-9.703 Y-34.817 E24.64185
G1 X-8.699 Y-34.889 E24.69206
G1 X18.824 Y-34.889 E26.06519
G1 X19.571 Y-34.849 E26.10251
G1 X20.309 Y-34.73 E26.13981
G1 X21.031 Y-34.532 E26.17716
G1 X21.727 Y-34.259 E26.21446
G1 X22.39 Y-33.912 E26.25179
G1 X23.013 Y-33.497 E26.28914
G1 X23.774 Y-32.839 E26.33933
G1 X23.891 Y-32.722 E26.34758
G1 X24.391 Y-32.165 E26.38493
G1 X24.828 Y-31.559 E26.4222
G1 X25.199 Y-30.909 E26.45954
G1 X25.498 Y-30.223 E26.49687
G1 X25.722 Y-29.509 E26.53421
G1 X25.869 Y-28.776 E26.57151
G1 X25.941 Y-27.772 E26.62172
G1 X25.941 Y27.606 E29.38454
G1 X25.901 Y28.353 E29.42186
G1 X25.782 Y29.091 E29.45916
G1 X25.584 Y29.813 E29.49651
G1 X25.311 Y30.509 E29.53381
G1 X24.964 Y31.172 E29.57114
G1 X24.549 Y31.795 E29.60849
G1 X23.891 Y32.556 E29.65868
G1 X23.774 Y32.673 E29.66693
G1 X23.217 Y33.173 E29.70428
G1 X22.611 Y33.61 E29.74155
G1 X21.961 Y33.981 E29.77889
G1 X21.275 Y34.28 E29.81623
G1 X20.561 Y34.504 E29.85356
G1 X19.828 Y34.651 E29.89086
G1 X18.824 Y34.723 E29.94107
G1 X-8.699 Y34.724 E31.3142
G1 X-9.446 Y34.684 E31.35152
G1 X-10.184 Y34.565 E31.38882
G1 X-10.906 Y34.367 E31.42617
G1 X-11.602 Y34.094 E31.46347
G1 X-12.265 Y33.747 E31.5008
G1 X-12.888 Y33.333 E31.53812
G1 X-13.649 Y32.674 E31.58834
G1 X-13.766 Y32.557 E31.5966
G1 X-14.266 Y32 E31.63394
G1 X-14.703 Y31.394 E31.67122
G1 X-15.074 Y30.744 E31.70856
G1 X-15.373 Y30.058 E31.74589
G1 X-15.597 Y29.344 E31.78322
G1 X-15.744 Y28.611 E31.82052
G1 X-15.816 Y27.607 E31.87074
G0 F3600 X-15.416 Y27.607
G1 F900 X-15.416 Y-27.772 E34.63361
G1 X-15.376 Y-28.497 E34.66983
G1 X-15.257 Y-29.214 E34.70609
G1 X-15.059 Y-29.913 E34.74234
G1 X-14.786 Y-30.586 E34.77857
G1 X-14.441 Y-31.225 E34.8148
G1 X-14.027 Y-31.822 E34.85105
G1 X-13.483 Y-32.439 E34.89209
G1 X-13.366 Y-32.556 E34.90034
G1 X-12.825 Y-33.04 E34.93656
G1 X-12.234 Y-33.463 E34.97282
G1 X-11.6 Y-33.817 E35.00904
G1 X-10.931 Y-34.1 E35.04528
G1 X-10.235 Y-34.308 E35.08152
G1 X-9.52 Y-34.438 E35.11778
G1 X-8.699 Y-34.489 E35.15882
G1 X18.824 Y-34.489 E36.53195
G1 X19.549 Y-34.449 E36.56817
G1 X20.266 Y-34.33 E36.60443
G1 X20.965 Y-34.132 E36.64068
G1 X21.638 Y-33.859 E36.67691
G1 X22.277 Y-33.514 E36.71314
G1 X22.874 Y-33.1 E36.74939
G1 X23.491 Y-32.556 E36.79043
G1 X23.608 Y-32.439 E36.79868
G1 X24.092 Y-31.898 E36.8349
G1 X24.515 Y-31.307 E36.87116
G1 X24.869 Y-30.673 E36.90738
G1 X25.152 Y-30.004 E36.94362
G1 X25.36 Y-29.308 E36.97986
G1 X25.49 Y-28.593 E37.01612
G1 X25.541 Y-27.772 E37.05716
G1 X25.541 Y27.606 E39.81998
G1 X25.501 Y28.331 E39.8562
G1 X25.382 Y29.048 E39.89246
G1 X25.184 Y29.747 E39.92871
G1 X24.911 Y30.42 E39.96494
G1 X24.566 Y31.059 E40.00117
G1 X24.152 Y31.656 E40.03742
G1 X23.608 Y32.273 E40.07846
G1 X23.491 Y32.39 E40.08671
G1 X22.95 Y32.874 E40.12293
G1 X22.359 Y33.297 E40.15919
G1 X21.725 Y33.651 E40.19541
G1 X21.056 Y33.934 E40.23165
G1 X20.36 Y34.142 E40.26789
G1 X19.645 Y34.272 E40.30415
G1 X18.824 Y34.323 E40.34519
G1 X-8.699 Y34.324 E41.71832
G1 X-9.424 Y34.284 E41.75454
G1 X-10.141 Y34.165 E41.7908
G1 X-10.84 Y33.967 E41.82705
G1 X-11.513 Y33.694 E41.86328
G1 X-12.152 Y33.349 E41.89951
G1 X-12.749 Y32.935 E41.93576
G1 X-13.366 Y32.391 E41.9768
G1 X-13.483 Y32.274 E41.98505
G1 X-13.967 Y31.733 E42.02127
G1 X-14.39 Y31.142 E42.05752
G1 X-14.744 Y30.508 E42.09375
G1 X-15.027 Y29.839 E42.12999
G1 X-15.235 Y29.143 E42.16623
G1 X-15.365 Y28.428 E42.20249
G1 X-15.416 Y27.607 E42.24353
G0 F3600 X-15.016 Y27.607
G1 F900 X-15.016 Y-27.772 E45.0064
G1 X-14.976 Y-28.475 E45.04153
G1 X-14.857 Y-29.169 E45.07666
G1 X-14.659 Y-29.844 E45.11175
G1 X-14.387 Y-30.493 E45.14686
G1 X-14.042 Y-31.107 E45.182
G1 X-13.631 Y-31.678 E45.2171
G1 X-13.2 Y-32.156 E45.24921
G1 X-13.083 Y-32.273 E45.25746
G1 X-12.558 Y-32.742 E45.29258
G1 X-11.983 Y-33.148 E45.3277
G1 X-11.365 Y-33.486 E45.36284
G1 X-10.714 Y-33.753 E45.39795
G1 X-10.036 Y-33.943 E45.43307
G1 X-9.341 Y-34.056 E45.4682
G1 X-8.699 Y-34.089 E45.50027
G1 X18.824 Y-34.089 E46.8734
G1 X19.527 Y-34.049 E46.90853
G1 X20.221 Y-33.93 E46.94366
G1 X20.896 Y-33.732 E46.97876
G1 X21.545 Y-33.46 E47.01386
G1 X22.159 Y-33.115 E47.049
G1 X22.73 Y-32.704 E47.0841
G1 X23.208 Y-32.273 E47.11621
G1 X23.325 Y-32.156 E47.12447
G1 X23.794 Y-31.631 E47.15959
G1 X24.2 Y-31.056 E47.1947
G1 X24.538 Y-30.438 E47.22985
G1 X24.805 Y-29.787 E47.26495
G1 X24.995 Y-29.109 E47.30008
G1 X25.108 Y-28.414 E47.33521
G1 X25.141 Y-27.772 E47.36728
G1 X25.141 Y27.606 E50.1301
G1 X25.101 Y28.309 E50.16523
G1 X24.982 Y29.003 E50.20036
G1 X24.784 Y29.678 E50.23545
G1 X24.512 Y30.327 E50.27056
G1 X24.167 Y30.941 E50.3057
G1 X23.756 Y31.512 E50.3408
G1 X23.325 Y31.99 E50.37291
G1 X23.208 Y32.107 E50.38116
G1 X22.683 Y32.576 E50.41628
G1 X22.108 Y32.982 E50.4514
G1 X21.49 Y33.32 E50.48654
G1 X20.839 Y33.587 E50.52165
G1 X20.161 Y33.777 E50.55678
G1 X19.466 Y33.89 E50.59191
G1 X18.824 Y33.923 E50.62398
G1 X-8.699 Y33.924 E51.99711
G1 X-9.402 Y33.884 E52.03223
G1 X-10.095 Y33.765 E52.06731
G1 X-10.771 Y33.567 E52.10246
G1 X-11.42 Y33.295 E52.13756
G1 X-12.034 Y32.95 E52.1727
G1 X-12.605 Y32.539 E52.2078
G1 X-13.083 Y32.108 E52.23991
G1 X-13.2 Y31.991 E52.24817
G1 X-13.669 Y31.466 E52.28329
G1 X-14.075 Y30.891 E52.31841
G1 X-14.413 Y30.273 E52.35355
G1 X-14.68 Y29.622 E52.38865
G1 X-14.87 Y28.944 E52.42378
G1 X-14.983 Y28.249 E52.45891
G1 X-15.016 Y27.607 E52.49098
G0 F3600 X-14.616 Y27.607
G1 F900 X-14.616 Y-27.772 E55.25385
G1 X-14.576 Y-28.452 E55.28783
G1 X-14.457 Y-29.122 E55.32178
G1 X-14.26 Y-29.774 E55.35577
G1 X-13.988 Y-30.398 E55.38973
G1 X-13.644 Y-30.986 E55.42371
G1 X-13.234 Y-31.53 E55.4577
G1 X-12.917 Y-31.873 E55.481
G1 X-12.8 Y-31.99 E55.48925
G1 X-12.291 Y-32.443 E55.52325
G1 X-11.733 Y-32.832 E55.55718
G1 X-11.133 Y-33.154 E55.59116
G1 X-10.499 Y-33.403 E55.62514
G1 X-9.84 Y-33.576 E55.65913
G1 X-9.166 Y-33.67 E55.69308
G1 X-8.699 Y-33.689 E55.7164
G1 X18.824 Y-33.689 E57.08953
G1 X19.504 Y-33.649 E57.12351
G1 X20.174 Y-33.53 E57.15746
G1 X20.826 Y-33.333 E57.19144
G1 X21.45 Y-33.061 E57.2254
G1 X22.038 Y-32.717 E57.25939
G1 X22.582 Y-32.307 E57.29338
G1 X22.925 Y-31.99 E57.31668
G1 X23.042 Y-31.873 E57.32493
G1 X23.495 Y-31.364 E57.35893
G1 X23.884 Y-30.806 E57.39286
G1 X24.206 Y-30.206 E57.42683
G1 X24.455 Y-29.572 E57.46082
G1 X24.628 Y-28.913 E57.49481
G1 X24.722 Y-28.239 E57.52876
G1 X24.741 Y-27.772 E57.55208
G1 X24.741 Y27.606 E60.3149
G1 X24.701 Y28.286 E60.34888
G1 X24.582 Y28.956 E60.38283
G1 X24.385 Y29.608 E60.41681
G1 X24.113 Y30.232 E60.45077
G1 X23.769 Y30.82 E60.48476
G1 X23.359 Y31.364 E60.51875
G1 X23.042 Y31.707 E60.54205
G1 X22.925 Y31.824 E60.5503
G1 X22.416 Y32.277 E60.5843
G1 X21.858 Y32.666 E60.61823
G1 X21.258 Y32.988 E60.6522
G1 X20.624 Y33.237 E60.68619
G1 X19.965 Y33.41 E60.72018
G1 X19.291 Y33.504 E60.75413
G1 X18.824 Y33.523 E60.77745
G1 X-8.699 Y33.524 E62.15058
G1 X-9.378 Y33.484 E62.18451
G1 X-10.049 Y33.365 E62.21851
G1 X-10.701 Y33.168 E62.25249
G1 X-11.325 Y32.896 E62.28645
G1 X-11.913 Y32.552 E62.32044
G1 X-12.456 Y32.142 E62.35438
G1 X-12.8 Y31.825 E62.37772
G1 X-12.917 Y31.708 E62.38598
G1 X-13.37 Y31.199 E62.41997
G1 X-13.759 Y30.641 E62.45391
G1 X-14.081 Y30.041 E62.48788
G1 X-14.33 Y29.407 E62.52186
G1 X-14.503 Y28.748 E62.55585
G1 X-14.597 Y28.074 E62.5898
G1 X-14.616 Y27.607 E62.61312
G0 F3600 X-14.216 Y27.607
G1 F900 X-14.216 Y-27.772 E65.37599
G1 X-14.176 Y-28.428 E65.40878
G1 X-14.057 Y-29.074 E65.44155
G1 X-13.86 Y-29.701 E65.47434
G1 X-13.588 Y-30.299 E65.50712
G1 X-13.246 Y-30.86 E65.53989
G1 X-12.634 Y-31.59 E65.58742
G1 X-12.517 Y-31.707 E65.59568
G1 X-12.025 Y-32.143 E65.62847
G1 X-11.484 Y-32.515 E65.66123
G1 X-10.902 Y-32.819 E65.69399
G1 X-10.287 Y-33.05 E65.72676
G1 X-9.648 Y-33.205 E65.75957
G1 X-8.699 Y-33.289 E65.8071
G1 X18.824 Y-33.289 E67.18023
G1 X19.48 Y-33.249 E67.21301
G1 X20.126 Y-33.13 E67.24579
G1 X20.753 Y-32.933 E67.27857
G1 X21.351 Y-32.661 E67.31135
G1 X21.912 Y-32.319 E67.34413
G1 X22.642 Y-31.707 E67.39165
G1 X22.759 Y-31.59 E67.39991
G1 X23.195 Y-31.098 E67.43271
G1 X23.567 Y-30.557 E67.46546
G1 X23.871 Y-29.975 E67.49822
G1 X24.102 Y-29.36 E67.531
G1 X24.257 Y-28.721 E67.5638
G1 X24.341 Y-27.772 E67.61133
G1 X24.341 Y27.606 E70.37415
G1 X24.301 Y28.262 E70.40694
G1 X24.182 Y28.908 E70.43971
G1 X23.985 Y29.535 E70.4725
G1 X23.713 Y30.133 E70.50528
G1 X23.371 Y30.694 E70.53806
G1 X22.759 Y31.424 E70.58558
G1 X22.642 Y31.541 E70.59384
G1 X22.15 Y31.977 E70.62663
G1 X21.609 Y32.349 E70.65939
G1 X21.027 Y32.653 E70.69215
G1 X20.412 Y32.884 E70.72492
G1 X19.773 Y33.039 E70.75773
G1 X18.824 Y33.123 E70.80526
G1 X-8.699 Y33.124 E72.17839
G1 X-9.355 Y33.084 E72.21117
G1 X-10.001 Y32.965 E72.24395
G1 X-10.627 Y32.768 E72.27669
G1 X-11.226 Y32.496 E72.30951
G1 X-11.786 Y32.154 E72.34224
G1 X-12.517 Y31.542 E72.38981
G1 X-12.634 Y31.425 E72.39806
G1 X-13.07 Y30.933 E72.43086
G1 X-13.442 Y30.392 E72.46362
G1 X-13.746 Y29.81 E72.49637
G1 X-13.977 Y29.195 E72.52915
G1 X-14.132 Y28.556 E72.56195
G1 X-14.216 Y27.607 E72.60949
G0 F3600 X-13.816 Y27.607
G1 F900 X-13.816 Y-27.772 E75.37235
G1 X-13.776 Y-28.403 E75.4039
G1 X-13.657 Y-29.024 E75.43544
G1 X-13.46 Y-29.624 E75.46695
G1 X-13.189 Y-30.196 E75.49853
G1 X-12.849 Y-30.728 E75.53003
G1 X-12.352 Y-31.308 E75.56813
G1 X-12.235 Y-31.425 E75.57639
G1 X-11.76 Y-31.842 E75.60792
G1 X-11.237 Y-32.197 E75.63946
G1 X-10.673 Y-32.483 E75.67101
G1 X-10.078 Y-32.695 E75.70252
G1 X-9.46 Y-32.831 E75.73409
G1 X-8.699 Y-32.889 E75.77217
G1 X18.824 Y-32.889 E77.1453
G1 X19.455 Y-32.849 E77.17684
G1 X20.076 Y-32.73 E77.20838
G1 X20.676 Y-32.533 E77.23989
G1 X21.248 Y-32.262 E77.27147
G1 X21.78 Y-31.922 E77.30297
G1 X22.36 Y-31.425 E77.34107
G1 X22.477 Y-31.308 E77.34933
G1 X22.894 Y-30.833 E77.38086
G1 X23.249 Y-30.31 E77.4124
G1 X23.535 Y-29.746 E77.44395
G1 X23.747 Y-29.151 E77.47546
G1 X23.883 Y-28.533 E77.50703
G1 X23.941 Y-27.772 E77.54511
G1 X23.941 Y27.606 E80.30793
G1 X23.901 Y28.237 E80.33947
G1 X23.782 Y28.858 E80.37102
G1 X23.585 Y29.458 E80.40252
G1 X23.314 Y30.03 E80.4341
G1 X22.974 Y30.562 E80.4656
G1 X22.477 Y31.142 E80.50371
G1 X22.36 Y31.259 E80.51196
G1 X21.885 Y31.676 E80.5435
G1 X21.362 Y32.031 E80.57503
G1 X20.798 Y32.317 E80.60658
G1 X20.203 Y32.529 E80.63809
G1 X19.585 Y32.665 E80.66966
G1 X18.824 Y32.723 E80.70774
G1 X-8.699 Y32.724 E82.08087
G1 X-9.33 Y32.684 E82.11241
G1 X-9.95 Y32.565 E82.14391
G1 X-10.551 Y32.368 E82.17546
G1 X-11.122 Y32.097 E82.207
G1 X-11.655 Y31.757 E82.23854
G1 X-12.235 Y31.26 E82.27664
G1 X-12.352 Y31.143 E82.2849
G1 X-12.769 Y30.668 E82.31643
G1 X-13.124 Y30.145 E82.34797
G1 X-13.41 Y29.581 E82.37952
G1 X-13.622 Y28.986 E82.41103
G1 X-13.758 Y28.368 E82.4426
G1 X-13.816 Y27.607 E82.48068
G0 F3600 X-13.416 Y27.607
G1 F900 X-13.416 Y-27.772 E85.24355
G1 X-13.376 Y-28.377 E85.2738
G1 X-13.257 Y-28.971 E85.30402
G1 X-13.061 Y-29.545 E85.33428
G1 X-12.79 Y-30.088 E85.36456
G1 X-12.451 Y-30.591 E85.39482
G1 X-12.069 Y-31.025 E85.42366
G1 X-11.952 Y-31.142 E85.43192
G1 X-11.496 Y-31.541 E85.46215
G1 X-10.991 Y-31.877 E85.49241
G1 X-10.447 Y-32.144 E85.52264
