;FLAVOR:RepRap
;TIME:8385
;Filament used: 4.98889m
;Layer height: 0.2
;Generated with Cura_SteamEngine 2.6.2
M104 S200
M109 S200
G28 ;Home
G1 Z15.0 F6000 ;Move the platform down 15mm
;Prime the extruder
G92 E0
G1 F200 E3
G92 E0
;LAYER_COUNT:65
;LAYER:0
M107
G0 F3600 X21.9 Y36.9 Z0.3
;TYPE:WALL-INNER
G1 F900 X-21.9 Y36.9 E2.18519
G1 X-21.9 Y-36.9 E5.86709
G1 X21.9 Y-36.9 E8.05228
G1 X21.9 Y36.9 E11.73418
G0 F3600 X22.3 Y37.3
;TYPE:WALL-OUTER
G1 F900 X-22.3 Y37.3 E13.95928
G1 X-22.3 Y-37.3 E17.68109
G1 X22.3 Y-37.3 E19.90619
G1 X22.3 Y37.3 E23.628
G0 F3600 X22.1 Y37.3
G0 X21.83 Y36.83
G0 X21.445 Y36.719
;TYPE:SKIN
G1 F900 X-21.72 Y-6.446 E26.67352
G1 X-21.79 Y-6.516
G0 F3600 X-21.72 Y-5.881
G1 F900 X20.88 Y36.719 E29.67918
G1 X20.95 Y36.789
G0 F3600 X20.314 Y36.719
G1 F900 X-21.72 Y-5.315 E32.64491
G1 X-21.79 Y-5.385
G0 F3600 X-21.72 Y-4.749
G1 F900 X19.748 Y36.719 E35.5707
G1 X19.818 Y36.789
G0 F3600 X19.183 Y36.719
G1 F900 X-21.72 Y-4.183 E38.45659
G1 X-21.79 Y-4.253
G0 F3600 X-21.72 Y-3.618
G1 F900 X18.617 Y36.719 E41.30259
G1 X18.687 Y36.789
G0 F3600 X18.051 Y36.719
G1 F900 X-21.72 Y-3.052 E44.10865
G1 X-21.79 Y-3.122
G0 F3600 X-21.72 Y-2.486
G1 F900 X17.486 Y36.719 E46.87481
G1 X17.556 Y36.789
G0 F3600 X16.92 Y36.719
G1 F900 X-21.72 Y-1.921 E49.60107
G1 X-21.79 Y-1.991
G0 F3600 X-21.72 Y-1.355
G1 F900 X16.354 Y36.719 E52.28739
G1 X16.424 Y36.789
G0 F3600 X15.788 Y36.719
G1 F900 X-21.72 Y-.789 E54.93378
G1 X-21.79 Y-.859
G0 F3600 X-21.72 Y-.224
G1 F900 X15.223 Y36.719 E57.54031
G1 X15.293 Y36.789
G0 F3600 X14.657 Y36.719
G1 F900 X-21.72 Y0.341 E60.10694
G1 X-21.79 Y0.271
G0 F3600 X-21.72 Y0.907
G1 F900 X14.091 Y36.719 E62.63364
G1 X14.161 Y36.789
G0 F3600 X13.526 Y36.719
G1 F900 X-21.72 Y1.472 E65.12047
G1 X-21.79 Y1.402
G0 F3600 X-21.72 Y2.038
G1 F900 X12.96 Y36.719 E67.56736
G1 X13.03 Y36.789
G0 F3600 X12.394 Y36.719
G1 F900 X-21.72 Y2.604 E69.97433
G1 X-21.79 Y2.534
G0 F3600 X-21.72 Y3.169
G1 F900 X11.829 Y36.719 E72.34142
G1 X11.899 Y36.789
G0 F3600 X11.263 Y36.719
G1 F900 X-21.72 Y3.735 E74.66859
G1 X-21.79 Y3.665
G0 F3600 X-21.72 Y4.301
G1 F900 X10.697 Y36.719 E76.95582
G1 X10.767 Y36.789
G0 F3600 X10.132 Y36.719
G1 F900 X-21.72 Y4.867 E79.20315
G1 X-21.79 Y4.797
G0 F3600 X-21.72 Y5.432
G1 F900 X9.566 Y36.719 E81.41058
G1 X9.636 Y36.789
G0 F3600 X9 Y36.719
G1 F900 X-21.72 Y5.998 E83.57808
G1 X-21.79 Y5.928
G0 F3600 X-21.72 Y6.564
G1 F900 X8.435 Y36.719 E85.70568
G1 X8.505 Y36.789
G0 F3600 X7.869 Y36.719
G1 F900 X-21.72 Y7.129 E87.79337
G1 X-21.79 Y7.059
G0 F3600 X-21.72 Y7.695
G1 F900 X7.303 Y36.719 E89.84114
G1 X7.373 Y36.789
G0 F3600 X6.738 Y36.719
G1 F900 X-21.72 Y8.261 E91.84901
G1 X-21.79 Y8.191
G0 F3600 X-21.72 Y8.826
G1 F900 X6.172 Y36.719 E93.81697
G1 X6.242 Y36.789
G0 F3600 X5.606 Y36.719
G1 F900 X-21.72 Y9.392 E95.745
G1 X-21.79 Y9.322
G0 F3600 X-21.72 Y9.958
G1 F900 X5.04 Y36.719 E97.6331
G1 X5.11 Y36.789
G0 F3600 X4.475 Y36.719
G1 F900 X-21.72 Y10.523 E99.48134
G1 X-21.79 Y10.453
G0 F3600 X-21.72 Y11.089
G1 F900 X3.909 Y36.719 E101.28964
G1 X3.979 Y36.789
G0 F3600 X3.343 Y36.719
G1 F900 X-21.72 Y11.655 E103.058
G1 X-21.79 Y11.585
G0 F3600 X-21.72 Y12.22
G1 F900 X2.778 Y36.719 E104.7865
G1 X2.848 Y36.789
G0 F3600 X2.212 Y36.719
G1 F900 X-21.72 Y12.786 E106.47507
G1 X-21.79 Y12.716
G0 F3600 X-21.72 Y13.352
G1 F900 X1.646 Y36.719 E108.1237
G1 X1.716 Y36.789
G0 F3600 X1.081 Y36.719
G1 F900 X-21.72 Y13.917 E109.73247
G1 X-21.79 Y13.847
G0 F3600 X-21.72 Y14.483
G1 F900 X0.515 Y36.719 E111.30131
G1 X0.585 Y36.789
G0 F3600 X-0.05 Y36.719
G1 F900 X-21.72 Y15.049 E112.83024
G1 X-21.79 Y14.979
G0 F3600 X-21.72 Y15.615
G1 F900 X-.615 Y36.719 E114.31928
G1 X-.545 Y36.789
G0 F3600 X-1.181 Y36.719
G1 F900 X-21.72 Y16.18 E115.76841
G1 X-21.79 Y16.11
G0 F3600 X-21.72 Y16.746
G1 F900 X-1.747 Y36.719 E117.17762
G1 X-1.677 Y36.789
G0 F3600 X-2.312 Y36.719
G1 F900 X-21.72 Y17.312 E118.54692
G1 X-21.79 Y17.242
G0 F3600 X-21.72 Y17.877
G1 F900 X-2.878 Y36.719 E119.87633
G1 X-2.808 Y36.789
G0 F3600 X-3.444 Y36.719
G1 F900 X-21.72 Y18.443 E121.1658
G1 X-21.79 Y18.373
G0 F3600 X-21.72 Y19.009
G1 F900 X-4.01 Y36.719 E122.41533
G1 X-3.94 Y36.789
G0 F3600 X-4.575 Y36.719
G1 F900 X-21.72 Y19.574 E123.62501
G1 X-21.79 Y19.504
G0 F3600 X-21.72 Y20.14
G1 F900 X-5.141 Y36.719 E124.79474
G1 X-5.071 Y36.789
G0 F3600 X-5.707 Y36.719
G1 F900 X-21.72 Y20.706 E125.92455
G1 X-21.79 Y20.636
G0 F3600 X-21.72 Y21.271
G1 F900 X-6.272 Y36.719 E127.01449
G1 X-6.202 Y36.789
G0 F3600 X-6.838 Y36.719
G1 F900 X-21.72 Y21.837 E128.06449
G1 X-21.79 Y21.767
G0 F3600 X-21.72 Y22.403
G1 F900 X-7.404 Y36.719 E129.07456
G1 X-7.334 Y36.789
G0 F3600 X-7.969 Y36.719
G1 F900 X-21.72 Y22.968 E130.04477
G1 X-21.79 Y22.898
G0 F3600 X-21.72 Y23.534
G1 F900 X-8.535 Y36.719 E130.97504
G1 X-8.465 Y36.789
G0 F3600 X-9.101 Y36.719
G1 F900 X-21.72 Y24.1 E131.86538
G1 X-21.79 Y24.03
G0 F3600 X-21.72 Y24.666
G1 F900 X-9.666 Y36.719 E132.71582
G1 X-9.596 Y36.789
G0 F3600 X-10.232 Y36.719
G1 F900 X-21.72 Y25.231 E133.52636
G1 X-21.79 Y25.161
G0 F3600 X-21.72 Y25.797
G1 F900 X-10.798 Y36.719 E134.29697
G1 X-10.728 Y36.789
G0 F3600 X-11.363 Y36.719
G1 F900 X-21.72 Y26.363 E135.02768
G1 X-21.79 Y26.293
G0 F3600 X-21.72 Y26.928
G1 F900 X-11.929 Y36.719 E135.71848
G1 X-11.859 Y36.789
G0 F3600 X-12.495 Y36.719
G1 F900 X-21.72 Y27.494 E136.36936
G1 X-21.79 Y27.424
G0 F3600 X-21.72 Y28.06
G1 F900 X-13.06 Y36.719 E136.98033
G1 X-12.99 Y36.789
G0 F3600 X-13.626 Y36.719
G1 F900 X-21.72 Y28.625 E137.55141
G1 X-21.79 Y28.555
G0 F3600 X-21.72 Y29.191
G1 F900 X-14.192 Y36.719 E138.08255
G1 X-14.122 Y36.789
G0 F3600 X-14.758 Y36.719
G1 F900 X-21.72 Y29.757 E138.57375
G1 X-21.79 Y29.687
G0 F3600 X-21.72 Y30.322
G1 F900 X-15.323 Y36.719 E139.0251
G1 X-15.253 Y36.789
G0 F3600 X-15.889 Y36.719
G1 F900 X-21.72 Y30.888 E139.43651
G1 X-21.79 Y30.818
G0 F3600 X-21.72 Y31.454
G1 F900 X-16.455 Y36.719 E139.80798
G1 X-16.385 Y36.789
G0 F3600 X-17.02 Y36.719
G1 F900 X-21.72 Y32.019 E140.13959
G1 X-21.79 Y31.949
G0 F3600 X-21.72 Y32.585
G1 F900 X-17.586 Y36.719 E140.43127
G1 X-17.516 Y36.789
G0 F3600 X-18.152 Y36.719
G1 F900 X-21.72 Y33.151 E140.68301
G1 X-21.79 Y33.081
G0 F3600 X-21.72 Y33.716
G1 F900 X-18.717 Y36.719 E140.89489
G1 X-18.647 Y36.789
G0 F3600 X-19.283 Y36.719
G1 F900 X-21.72 Y34.282 E141.06683
G1 X-21.79 Y34.212
G0 F3600 X-21.72 Y34.848
G1 F900 X-19.849 Y36.719 E141.19884
G1 X-19.779 Y36.789
G0 F3600 X-20.414 Y36.719
G1 F900 X-21.72 Y35.414 E141.29095
G1 X-21.79 Y35.344
G0 F3600 X-21.72 Y35.979
G1 F900 X-20.98 Y36.719 E141.34316
G1 X-20.91 Y36.789
G0 F3600 X-21.546 Y36.719
G1 F900 X-21.72 Y36.545 E141.35544
G0 F3600 X21.72 Y36.428
G1 F900 X-21.72 Y-7.012 E144.42036
G1 X-21.79 Y-7.082
G0 F3600 X-21.72 Y-7.578
G1 F900 X21.72 Y35.862 E147.48529
G1 X21.79 Y35.932
G0 F3600 X21.72 Y35.296
G1 F900 X-21.72 Y-8.143 E150.55018
G1 X-21.79 Y-8.213
G0 F3600 X-21.72 Y-8.709
G1 F900 X21.72 Y34.73 E153.61507
G1 X21.79 Y34.8
G0 F3600 X21.72 Y34.165
G1 F900 X-21.72 Y-9.275 E156.68
G1 X-21.79 Y-9.345
G0 F3600 X-21.72 Y-9.84
G1 F900 X21.72 Y33.599 E159.74489
G1 X21.79 Y33.669
G0 F3600 X21.72 Y33.033
G1 F900 X-21.72 Y-10.406 E162.80978
G1 X-21.79 Y-10.476
G0 F3600 X-21.72 Y-10.972
G1 F900 X21.72 Y32.468 E165.87471
G1 X21.79 Y32.538
G0 F3600 X21.72 Y31.902
G1 F900 X-21.72 Y-11.537 E168.9396
G1 X-21.79 Y-11.607
G0 F3600 X-21.72 Y-12.103
G1 F900 X21.72 Y31.336 E172.00449
G1 X21.79 Y31.406
G0 F3600 X21.72 Y30.771
G1 F900 X-21.72 Y-12.669 E175.06942
G1 X-21.79 Y-12.739
G0 F3600 X-21.72 Y-13.234
G1 F900 X21.72 Y30.205 E178.13431
G1 X21.79 Y30.275
G0 F3600 X21.72 Y29.639
G1 F900 X-21.72 Y-13.8 E181.1992
G1 X-21.79 Y-13.87
G0 F3600 X-21.72 Y-14.366
G1 F900 X21.72 Y29.074 E184.26413
G1 X21.79 Y29.144
G0 F3600 X21.72 Y28.508
G1 F900 X-21.72 Y-14.931 E187.32902
G1 X-21.79 Y-15.001
G0 F3600 X-21.72 Y-15.497
G1 F900 X21.72 Y27.942 E190.39391
G1 X21.79 Y28.012
G0 F3600 X21.72 Y27.377
G1 F900 X-21.72 Y-16.063 E193.45884
G1 X-21.79 Y-16.133
G0 F3600 X-21.72 Y-16.629
G1 F900 X21.72 Y26.811 E196.52376
G1 X21.79 Y26.881
G0 F3600 X21.72 Y26.245
G1 F900 X-21.72 Y-17.194 E199.58865
G1 X-21.79 Y-17.264
G0 F3600 X-21.72 Y-17.76
G1 F900 X21.72 Y25.679 E202.65355
G1 X21.79 Y25.749
G0 F3600 X21.72 Y25.114
G1 F900 X-21.72 Y-18.326 E205.71847
G1 X-21.79 Y-18.396
G0 F3600 X-21.72 Y-18.891
G1 F900 X21.72 Y24.548 E208.78336
G1 X21.79 Y24.618
G0 F3600 X21.72 Y23.982
G1 F900 X-21.72 Y-19.457 E211.84826
G1 X-21.79 Y-19.527
G0 F3600 X-21.72 Y-20.023
G1 F900 X21.72 Y23.417 E214.91318
G1 X21.79 Y23.487
G0 F3600 X21.72 Y22.851
G1 F900 X-21.72 Y-20.588 E217.97807
G1 X-21.79 Y-20.658
G0 F3600 X-21.72 Y-21.154
G1 F900 X21.72 Y22.285 E221.04296
G1 X21.79 Y22.355
G0 F3600 X21.72 Y21.72
G1 F900 X-21.72 Y-21.72 E224.10789
G1 X-21.79 Y-21.79
G0 F3600 X-21.72 Y-22.285
G1 F900 X21.72 Y21.154 E227.17278
G1 X21.79 Y21.224
G0 F3600 X21.72 Y20.588
G1 F900 X-21.72 Y-22.851 E230.23767
G1 X-21.79 Y-22.921
G0 F3600 X-21.72 Y-23.417
G1 F900 X21.72 Y20.023 E233.3026
G1 X21.79 Y20.093
G0 F3600 X21.72 Y19.457
G1 F900 X-21.72 Y-23.982 E236.36749
G1 X-21.79 Y-24.052
G0 F3600 X-21.72 Y-24.548
G1 F900 X21.72 Y18.891 E239.43238
G1 X21.79 Y18.961
G0 F3600 X21.72 Y18.326
G1 F900 X-21.72 Y-25.114 E242.49731
G1 X-21.79 Y-25.184
G0 F3600 X-21.72 Y-25.679
G1 F900 X21.72 Y17.76 E245.5622
G1 X21.79 Y17.83
G0 F3600 X21.72 Y17.194
G1 F900 X-21.72 Y-26.245 E248.62709
G1 X-21.79 Y-26.315
G0 F3600 X-21.72 Y-26.811
G1 F900 X21.72 Y16.629 E251.69202
G1 X21.79 Y16.699
G0 F3600 X21.72 Y16.063
G1 F900 X-21.72 Y-27.377 E254.75695
G1 X-21.79 Y-27.447
G0 F3600 X-21.72 Y-27.942
G1 F900 X21.72 Y15.497 E257.82184
G1 X21.79 Y15.567
G0 F3600 X21.72 Y14.931
G1 F900 X-21.72 Y-28.508 E260.88673
G1 X-21.79 Y-28.578
G0 F3600 X-21.72 Y-29.074
G1 F900 X21.72 Y14.366 E263.95166
G1 X21.79 Y14.436
G0 F3600 X21.72 Y13.8
G1 F900 X-21.72 Y-29.639 E267.01655
G1 X-21.79 Y-29.709
G0 F3600 X-21.72 Y-30.205
G1 F900 X21.72 Y13.234 E270.08144
G1 X21.79 Y13.304
G0 F3600 X21.72 Y12.669
G1 F900 X-21.72 Y-30.771 E273.14636
G1 X-21.79 Y-30.841
G0 F3600 X-21.72 Y-31.336
G1 F900 X21.72 Y12.103 E276.21126
G1 X21.79 Y12.173
G0 F3600 X21.72 Y11.537
G1 F900 X-21.72 Y-31.902 E279.27615
G1 X-21.79 Y-31.972
G0 F3600 X-21.72 Y-32.468
G1 F900 X21.72 Y10.972 E282.34107
G1 X21.79 Y11.042
G0 F3600 X21.72 Y10.406
G1 F900 X-21.72 Y-33.033 E285.40597
G1 X-21.79 Y-33.103
G0 F3600 X-21.72 Y-33.599
G1 F900 X21.72 Y9.84 E288.47086
G1 X21.79 Y9.91
G0 F3600 X21.72 Y9.275
G1 F900 X-21.72 Y-34.165 E291.53578
G1 X-21.79 Y-34.235
G0 F3600 X-21.72 Y-34.73
G1 F900 X21.72 Y8.709 E294.60067
G1 X21.79 Y8.779
G0 F3600 X21.72 Y8.143
G1 F900 X-21.72 Y-35.296 E297.66557
G1 X-21.79 Y-35.366
G0 F3600 X-21.72 Y-35.862
G1 F900 X21.72 Y7.578 E300.73049
G1 X21.79 Y7.648
G0 F3600 X21.72 Y7.012
G1 F900 X-21.72 Y-36.428 E303.79542
G1 X-21.79 Y-36.498
G0 F3600 X-21.445 Y-36.719
G1 F900 X21.72 Y6.446 E306.84094
G1 X21.79 Y6.516
G0 F3600 X21.72 Y5.881
G1 F900 X-20.88 Y-36.719 E309.8466
G1 X-20.95 Y-36.789
G0 F3600 X-20.314 Y-36.719
G1 F900 X21.72 Y5.315 E312.81233
G1 X21.79 Y5.385
G0 F3600 X21.72 Y4.749
G1 F900 X-19.748 Y-36.719 E315.73812
G1 X-19.818 Y-36.789
G0 F3600 X-19.183 Y-36.719
G1 F900 X21.72 Y4.183 E318.62401
G1 X21.79 Y4.253
G0 F3600 X21.72 Y3.618
G1 F900 X-18.617 Y-36.719 E321.47001
G1 X-18.687 Y-36.789
G0 F3600 X-18.051 Y-36.719
G1 F900 X21.72 Y3.052 E324.27606
G1 X21.79 Y3.122
G0 F3600 X21.72 Y2.486
G1 F900 X-17.486 Y-36.719 E327.04222
G1 X-17.556 Y-36.789
G0 F3600 X-16.92 Y-36.719
G1 F900 X21.72 Y1.921 E329.76849
G1 X21.79 Y1.991
G0 F3600 X21.72 Y1.355
G1 F900 X-16.354 Y-36.719 E332.45481
G1 X-16.424 Y-36.789
G0 F3600 X-15.788 Y-36.719
G1 F900 X21.72 Y0.789 E335.1012
G1 X21.79 Y0.859
G0 F3600 X21.72 Y0.224
G1 F900 X-15.223 Y-36.719 E337.70773
G1 X-15.293 Y-36.789
G0 F3600 X-14.657 Y-36.719
G1 F900 X21.72 Y-.341 E340.27436
G1 X21.79 Y-.271
G0 F3600 X21.72 Y-.907
G1 F900 X-14.091 Y-36.719 E342.80106
G1 X-14.161 Y-36.789
G0 F3600 X-13.526 Y-36.719
G1 F900 X21.72 Y-1.472 E345.28789
G1 X21.79 Y-1.402
G0 F3600 X21.72 Y-2.038
G1 F900 X-12.96 Y-36.719 E347.73478
G1 X-13.03 Y-36.789
G0 F3600 X-12.394 Y-36.719
G1 F900 X21.72 Y-2.604 E350.14175
G1 X21.79 Y-2.534
G0 F3600 X21.72 Y-3.169
G1 F900 X-11.829 Y-36.719 E352.50884
G1 X-11.899 Y-36.789
G0 F3600 X-11.263 Y-36.719
G1 F900 X21.72 Y-3.735 E354.83601
G1 X21.79 Y-3.665
G0 F3600 X21.72 Y-4.301
G1 F900 X-10.697 Y-36.719 E357.12324
G1 X-10.767 Y-36.789
G0 F3600 X-10.132 Y-36.719
G1 F900 X21.72 Y-4.867 E359.37057
G1 X21.79 Y-4.797
G0 F3600 X21.72 Y-5.432
G1 F900 X-9.566 Y-36.719 E361.578
G1 X-9.636 Y-36.789
G0 F3600 X-9 Y-36.719
G1 F900 X21.72 Y-5.998 E363.7455
G1 X21.79 Y-5.928
G0 F3600 X21.72 Y-6.564
G1 F900 X-8.435 Y-36.719 E365.87309
G1 X-8.505 Y-36.789
G0 F3600 X-7.869 Y-36.719
G1 F900 X21.72 Y-7.129 E367.96079
G1 X21.79 Y-7.059
G0 F3600 X21.72 Y-7.695
G1 F900 X-7.303 Y-36.719 E370.00856
G1 X-7.373 Y-36.789
G0 F3600 X-6.738 Y-36.719
G1 F900 X21.72 Y-8.261 E372.01642
G1 X21.79 Y-8.191
G0 F3600 X21.72 Y-8.826
G1 F900 X-6.172 Y-36.719 E373.98439
G1 X-6.242 Y-36.789
G0 F3600 X-5.606 Y-36.719
G1 F900 X21.72 Y-9.392 E375.91242
G1 X21.79 Y-9.322
G0 F3600 X21.72 Y-9.958
G1 F900 X-5.04 Y-36.719 E377.80052
G1 X-5.11 Y-36.789
G0 F3600 X-4.475 Y-36.719
G1 F900 X21.72 Y-10.523 E379.64875
G1 X21.79 Y-10.453
G0 F3600 X21.72 Y-11.089
G1 F900 X-3.909 Y-36.719 E381.45705
G1 X-3.979 Y-36.789
G0 F3600 X-3.343 Y-36.719
G1 F900 X21.72 Y-11.655 E383.22542
G1 X21.79 Y-11.585
G0 F3600 X21.72 Y-12.22
G1 F900 X-2.778 Y-36.719 E384.95392
G1 X-2.848 Y-36.789
G0 F3600 X-2.212 Y-36.719
G1 F900 X21.72 Y-12.786 E386.64249
G1 X21.79 Y-12.716
G0 F3600 X21.72 Y-13.352
G1 F900 X-1.646 Y-36.719 E388.29112
G1 X-1.716 Y-36.789
G0 F3600 X-1.081 Y-36.719
G1 F900 X21.72 Y-13.917 E389.89989
G1 X21.79 Y-13.847
G0 F3600 X21.72 Y-14.483
G1 F900 X-.515 Y-36.719 E391.46872
G1 X-.585 Y-36.789
G0 F3600 X0.05 Y-36.719
G1 F900 X21.72 Y-15.049 E392.99766
G1 X21.79 Y-14.979
G0 F3600 X21.72 Y-15.615
G1 F900 X0.615 Y-36.719 E394.4867
G1 X0.545 Y-36.789
G0 F3600 X1.181 Y-36.719
G1 F900 X21.72 Y-16.18 E395.93583
G1 X21.79 Y-16.11
G0 F3600 X21.72 Y-16.746
G1 F900 X1.747 Y-36.719 E397.34504
G1 X1.677 Y-36.789
G0 F3600 X2.312 Y-36.719
G1 F900 X21.72 Y-17.312 E398.71434
G1 X21.79 Y-17.242
G0 F3600 X21.72 Y-17.877
G1 F900 X2.878 Y-36.719 E400.04375
G1 X2.808 Y-36.789
G0 F3600 X3.444 Y-36.719
G1 F900 X21.72 Y-18.443 E401.33322
G1 X21.79 Y-18.373
G0 F3600 X21.72 Y-19.009
G1 F900 X4.01 Y-36.719 E402.58275
G1 X3.94 Y-36.789
G0 F3600 X4.575 Y-36.719
G1 F900 X21.72 Y-19.574 E403.79242
G1 X21.79 Y-19.504
G0 F3600 X21.72 Y-20.14
G1 F900 X5.141 Y-36.719 E404.96216
G1 X5.071 Y-36.789
G0 F3600 X5.707 Y-36.719
G1 F900 X21.72 Y-20.706 E406.09197
G1 X21.79 Y-20.636
G0 F3600 X21.72 Y-21.271
G1 F900 X6.272 Y-36.719 E407.18191
G1 X6.202 Y-36.789
G0 F3600 X6.838 Y-36.719
G1 F900 X21.72 Y-21.837 E408.23191
G1 X21.79 Y-21.767
G0 F3600 X21.72 Y-22.403
G1 F900 X7.404 Y-36.719 E409.24198
G1 X7.334 Y-36.789
G0 F3600 X7.969 Y-36.719
G1 F900 X21.72 Y-22.968 E410.21219
G1 X21.79 Y-22.898
G0 F3600 X21.72 Y-23.534
G1 F900 X8.535 Y-36.719 E411.14246
G1 X8.465 Y-36.789
G0 F3600 X9.101 Y-36.719
G1 F900 X21.72 Y-24.1 E412.0328
G1 X21.79 Y-24.03
G0 F3600 X21.72 Y-24.666
G1 F900 X9.666 Y-36.719 E412.88324
G1 X9.596 Y-36.789
G0 F3600 X10.232 Y-36.719
G1 F900 X21.72 Y-25.231 E413.69378
G1 X21.79 Y-25.161
G0 F3600 X21.72 Y-25.797
G1 F900 X10.798 Y-36.719 E414.46439
G1 X10.728 Y-36.789
G0 F3600 X11.363 Y-36.719
G1 F900 X21.72 Y-26.363 E415.1951
G1 X21.79 Y-26.293
G0 F3600 X21.72 Y-26.928
G1 F900 X11.929 Y-36.719 E415.8859
G1 X11.859 Y-36.789
G0 F3600 X12.495 Y-36.719
G1 F900 X21.72 Y-27.494 E416.53678
G1 X21.79 Y-27.424
G0 F3600 X21.72 Y-28.06
G1 F900 X13.06 Y-36.719 E417.14775
G1 X12.99 Y-36.789
G0 F3600 X13.626 Y-36.719
G1 F900 X21.72 Y-28.625 E417.71883
G1 X21.79 Y-28.555
G0 F3600 X21.72 Y-29.191
G1 F900 X14.192 Y-36.719 E418.24997
G1 X14.122 Y-36.789
G0 F3600 X14.758 Y-36.719
G1 F900 X21.72 Y-29.757 E418.74117
G1 X21.79 Y-29.687
G0 F3600 X21.72 Y-30.322
G1 F900 X15.323 Y-36.719 E419.19252
G1 X15.253 Y-36.789
G0 F3600 X15.889 Y-36.719
G1 F900 X21.72 Y-30.888 E419.60393
