;FLAVOR:RepRap
;TIME:16122
;Filament used: 7.63471m
;Layer height: 0.15
;Generated with Cura_SteamEngine 2.6.2
M104 S200
M109 S200
G28 ;Home
G1 Z15.0 F6000 ;Move the platform down 15mm
;Prime the extruder
G92 E0
G1 F200 E3
G92 E0
;LAYER_COUNT:76
;LAYER:-7
M107
G0 F3600 X-32.589 Y20.642 Z0.36
G1 F675 X-33.398 Y19.936 E0.12857
G1 X-34.149 Y19.175 E0.25658
G1 X-34.841 Y18.365 E0.38415
G1 X-35.698 Y17.162 E0.561
G1 X-35.715 Y17.136 E0.56472
G1 X-36.26 Y16.214 E0.69296
G1 X-36.738 Y15.252 E0.82158
G1 X-37.14 Y14.266 E0.94908
G1 X-37.534 Y13.023 E1.10521
G1 X-48.98 Y-29.697 E6.40077
G1 X-49.23 Y-30.783 E6.53421
G1 X-49.383 Y-31.792 E6.6564
G1 X-49.469 Y-32.877 E6.78672
G1 X-49.476 Y-33.936 E6.91353
G1 X-49.404 Y-35.007 E7.04205
G1 X-49.257 Y-36.05 E7.16817
G1 X-49.029 Y-37.108 E7.29776
G1 X-48.73 Y-38.125 E7.42469
G1 X-48.357 Y-39.117 E7.55159
G1 X-47.908 Y-40.09 E7.6799
G1 X-47.538 Y-40.775 E7.77312
G1 X-47.439 Y-40.947 E7.79688
G1 X-46.88 Y-41.842 E7.92323
G1 X-46.257 Y-42.69 E8.04922
G1 X-45.567 Y-43.5 E8.17663
G1 X-44.815 Y-44.263 E8.3049
G1 X-44.008 Y-44.969 E8.43328
G1 X-43.155 Y-45.614 E8.56133
G1 X-42.269 Y-46.183 E8.68741
G1 X-41.329 Y-46.698 E8.81575
G1 X-40.362 Y-47.139 E8.94301
G1 X-39.344 Y-47.515 E9.07295
G1 X-38.591 Y-47.739 E9.16701
G1 X9.519 Y-60.63 E15.13074
G1 X10.6 Y-60.879 E15.26357
G1 X11.614 Y-61.033 E15.38637
G1 X12.699 Y-61.119 E15.51669
G1 X13.758 Y-61.126 E15.6435
G1 X14.829 Y-61.054 E15.77203
G1 X15.872 Y-60.907 E15.89814
G1 X16.93 Y-60.679 E16.02773
G1 X17.947 Y-60.38 E16.15466
G1 X18.939 Y-60.007 E16.28156
G1 X19.912 Y-59.558 E16.40987
G1 X20.598 Y-59.188 E16.50319
G1 X20.762 Y-59.094 E16.52583
G1 X21.664 Y-58.53 E16.6532
G1 X22.512 Y-57.907 E16.7792
G1 X23.322 Y-57.217 E16.9066
G1 X24.085 Y-56.465 E17.03487
G1 X24.791 Y-55.658 E17.16326
G1 X25.436 Y-54.805 E17.29131
G1 X26.003 Y-53.924 E17.41675
G1 X26.52 Y-52.979 E17.54573
G1 X26.961 Y-52.012 E17.67299
G1 X27.337 Y-50.994 E17.80293
G1 X27.561 Y-50.241 E17.897
G1 X48.978 Y29.687 E27.80491
G1 X49.23 Y30.783 E27.93956
G1 X49.383 Y31.786 E28.06105
G1 X49.469 Y32.877 E28.19209
G1 X49.476 Y33.936 E28.31889
G1 X49.404 Y35.007 E28.44742
G1 X49.257 Y36.05 E28.57354
G1 X49.029 Y37.108 E28.70313
G1 X48.73 Y38.125 E28.83005
G1 X48.357 Y39.117 E28.95695
G1 X47.908 Y40.09 E29.08526
G1 X47.538 Y40.776 E29.17858
G1 X47.445 Y40.937 E29.20085
G1 X46.88 Y41.842 E29.32859
G1 X46.257 Y42.69 E29.45458
G1 X45.567 Y43.5 E29.58199
G1 X44.815 Y44.263 E29.71026
G1 X44.008 Y44.969 E29.83865
G1 X43.155 Y45.614 E29.9667
G1 X42.269 Y46.183 E30.09278
G1 X41.329 Y46.698 E30.22111
G1 X40.362 Y47.139 E30.34837
G1 X39.344 Y47.515 E30.47831
G1 X38.591 Y47.739 E30.57238
G1 X17.434 Y53.408 E33.19501
G1 X16.353 Y53.657 E33.32783
G1 X15.339 Y53.811 E33.45064
G1 X14.254 Y53.897 E33.58096
G1 X13.193 Y53.904 E33.708
G1 X12.132 Y53.833 E33.83532
G1 X10.577 Y53.588 E34.02381
G1 X10.532 Y53.579 E34.02931
G1 X9.466 Y53.311 E34.16092
G1 X8.465 Y52.98 E34.28716
G1 X7.461 Y52.564 E34.41728
G1 X6.513 Y52.088 E34.5443
G1 X5.618 Y51.552 E34.66921
G1 X4.322 Y50.612 E34.86091
G1 X-32.589 Y20.642 E40.5539
G0 F3600 X-32 Y21.12
G1 F675 X-32 Y-49.506 E49.01041
G0 F3600 X-30.4 Y-49.934
G1 F675 X-30.4 Y22.419 E57.6737
G0 F3600 X-28.8 Y23.718
G1 F675 X-28.8 Y-50.363 E66.5439
G0 F3600 X-27.2 Y-50.792
G1 F675 X-27.2 Y25.017 E75.62101
G0 F3600 X-25.6 Y26.316
G1 F675 X-25.6 Y-51.22 E84.90489
G0 F3600 X-24 Y-51.649
G1 F675 X-24 Y27.615 E94.39569
G0 F3600 X-22.4 Y28.914
G1 F675 X-22.4 Y-52.078 E104.09338
G0 F3600 X-20.8 Y-52.507
G1 F675 X-20.8 Y30.214 E113.99811
G0 F3600 X-19.2 Y31.513
G1 F675 X-19.2 Y-52.935 E124.10961
G0 F3600 X-17.6 Y-53.364
G1 F675 X-17.6 Y32.812 E134.42802
G0 F3600 X-16 Y34.111
G1 F675 X-16 Y-53.793 E144.95334
G0 F3600 X-14.4 Y-54.221
G1 F675 X-14.4 Y35.41 E155.68544
G0 F3600 X-12.8 Y36.709
G1 F675 X-12.8 Y-54.65 E166.62445
G0 F3600 X-11.2 Y-55.079
G1 F675 X-11.2 Y38.008 E177.77036
G0 F3600 X-9.6 Y39.307
G1 F675 X-9.6 Y-55.508 E189.12317
G0 F3600 X-8 Y-55.936
G1 F675 X-8 Y40.607 E200.68289
G0 F3600 X-6.4 Y41.906
G1 F675 X-6.4 Y-56.365 E212.44952
G0 F3600 X-4.8 Y-56.794
G1 F675 X-4.8 Y43.205 E224.42305
G0 F3600 X-3.2 Y44.504
G1 F675 X-3.2 Y-57.222 E236.60336
G0 F3600 X-1.6 Y-57.651
G1 F675 X-1.6 Y45.803 E248.99058
G0 F3600 X0.00 Y47.102
G1 F675 X0.00 Y-58.08 E261.5847
G0 F3600 X1.6 Y-58.509
G1 F675 X1.6 Y48.401 E274.38573
G0 F3600 X3.2 Y49.7
G1 F675 X3.2 Y-58.937 E287.39354
G0 F3600 X4.8 Y-59.366
G1 F675 X4.8 Y50.958 E300.60335
G0 F3600 X6.4 Y52.02
G1 F675 X6.4 Y-59.795 E313.99168
G0 F3600 X8 Y-60.223
G1 F675 X8 Y52.787 E327.5231
G0 F3600 X9.6 Y53.344
G1 F675 X9.6 Y-60.649 E341.17223
G0 F3600 X11.2 Y-60.971
G1 F675 X11.2 Y53.686 E354.90085
G0 F3600 X12.8 Y53.877
G1 F675 X12.8 Y-61.12 E368.67019
G0 F3600 X14.4 Y-61.082
G1 F675 X14.4 Y53.886 E382.43605
G0 F3600 X16 Y53.711
G1 F675 X16 Y-60.879 E396.15666
G0 F3600 X17.6 Y-60.482
G1 F675 X17.6 Y53.364 E409.78818
G0 F3600 X19.2 Y52.935
G1 F675 X19.2 Y-59.886 E423.29697
G0 F3600 X20.8 Y-59.07
G1 F675 X20.8 Y52.507 E436.65681
G0 F3600 X22.4 Y52.078
G1 F675 X22.4 Y-57.989 E449.83584
G0 F3600 X24 Y-56.548
G1 F675 X24 Y51.649 E462.79097
G0 F3600 X25.6 Y51.22
G1 F675 X25.6 Y-54.55 E475.4555
G0 F3600 X27.2 Y-51.364
G1 F675 X27.2 Y50.792 E487.6873
G0 F3600 X28.8 Y50.363
G1 F675 X28.8 Y-45.617 E499.17961
G0 F3600 X30.4 Y-39.645
G1 F675 X30.4 Y49.934 E509.90548
G0 F3600 X32 Y49.506
G1 F675 X32 Y-33.674 E519.86516
G0 F3600 X33.6 Y-27.703
G1 F675 X33.6 Y49.077 E529.05853
G0 F3600 X35.2 Y48.648
G1 F675 X35.2 Y-21.732 E537.48558
G0 F3600 X36.8 Y-15.761
G1 F675 X36.8 Y48.219 E545.14632
G0 F3600 X38.4 Y47.791
G1 F675 X38.4 Y-9.789 E552.04075
G0 F3600 X40 Y-3.818
G1 F675 X40 Y47.273 E558.15821
G0 F3600 X41.6 Y46.55
G1 F675 X41.6 Y2.153 E563.47415
G0 F3600 X43.2 Y8.124
G1 F675 X43.2 Y45.58 E567.959
G0 F3600 X44.8 Y44.277
G1 F675 X44.8 Y14.095 E571.57288
G0 F3600 X46.4 Y20.066
G1 F675 X46.4 Y42.496 E574.25857
G0 F3600 X48 Y39.891
G1 F675 X48 Y26.038 E575.91728
G0 F3600 X-33.6 Y19.731
G1 F675 X-33.6 Y-49.077 E584.15611
G0 F3600 X-35.2 Y-48.648
G1 F675 X-35.2 Y17.861 E592.11967
G0 F3600 X-36.8 Y15.099
G1 F675 X-36.8 Y-48.219 E599.70114
G0 F3600 X-38.4 Y-47.791
G1 F675 X-38.4 Y9.79 E606.59569
G0 F3600 X-40 Y3.819
G1 F675 X-40 Y-47.273 E612.71326
G0 F3600 X-41.6 Y-46.55
G1 F675 X-41.6 Y-2.153 E618.0292
G0 F3600 X-43.2 Y-8.125
G1 F675 X-43.2 Y-45.58 E622.51393
G0 F3600 X-44.8 Y-44.277
G1 F675 X-44.8 Y-14.096 E626.1277
G0 F3600 X-46.4 Y-20.068
G1 F675 X-46.4 Y-42.496 E628.81315
G0 F3600 X-48 Y-39.891
G1 F675 X-48 Y-26.04 E630.47162
G0 F3600 X-20.257 Y30.653
;TIME_ELAPSED:474.398428
;LAYER:-6
M107
G0 X-20.257 Y30.653 Z0.584
;TYPE:SUPPORT
G1 F675 X-27.776 Y24.549 E631.19316
G1 X-36.404 Y15.921 E632.10223
G0 F3600 X-37.368 Y13.543
G1 F675 X-20.257 Y30.653 E633.90504
G0 F3600 X-12.738 Y36.758
G1 F675 X-37.921 Y11.576 E636.55834
G1 X-37.533 Y13.023 E636.66995
G1 X-37.368 Y13.543 E636.71059
G0 F3600 X-38.439 Y9.644
G1 F675 X-5.219 Y42.864 E640.21074
G1 X-12.738 Y36.758 E640.93238
G0 F3600 X2.299 Y48.968
G1 F675 X4.322 Y50.611 E641.12654
G1 X5.617 Y51.551 E641.24576
G1 X6.513 Y52.087 E641.32355
G1 X7.154 Y52.409 E641.37699
G1 X-39.474 Y5.78 E646.2899
G1 X-39.991 Y3.848 E646.4389
G1 X9.471 Y53.312 E651.65046
G1 X10.532 Y53.578 E651.73195
G1 X10.576 Y53.587 E651.7353
G1 X11.269 Y53.696 E651.78756
G1 X-40.509 Y1.916 E657.24314
G1 X-41.027 Y-0.014 E657.39202
G1 X12.869 Y53.881 E663.0706
G1 X13.192 Y53.903 E663.09472
G1 X14.254 Y53.896 E663.17384
G1 X14.294 Y53.892 E663.17684
G1 X-41.544 Y-1.946 E669.06008
G1 X-42.062 Y-3.878 E669.2091
G1 X15.588 Y53.771 E675.28321
G1 X16.353 Y53.655 E675.34086
G1 X16.786 Y53.555 E675.37397
G1 X-42.579 Y-5.81 E681.62882
G1 X-43.097 Y-7.742 E681.77785
G1 X17.92 Y53.276 E688.20682
G1 X19.036 Y52.977 E688.2929
G1 X-43.615 Y-9.673 E694.89392
G1 X-44.132 Y-11.605 E695.04293
G1 X20.151 Y52.678 E701.81596
G1 X21.266 Y52.379 E701.90197
G1 X-44.65 Y-13.537 E708.84706
G1 X-45.167 Y-15.469 E708.99606
G1 X22.382 Y52.08 E716.11321
G1 X23.497 Y51.782 E716.19919
G1 X-45.685 Y-17.401 E723.48845
G1 X-46.203 Y-19.333 E723.63747
G1 X24.612 Y51.483 E731.09879
G1 X25.728 Y51.183 E731.18488
G1 X-46.72 Y-21.264 E738.81815
G1 X-47.238 Y-23.196 E738.96717
G1 X26.843 Y50.885 E746.77255
G1 X27.959 Y50.586 E746.85863
G1 X-47.755 Y-25.128 E754.83606
G1 X-48.273 Y-27.06 E754.98508
G1 X29.074 Y50.287 E763.13458
G1 X30.189 Y49.988 E763.22058
G1 X-48.791 Y-28.992 E771.54213
G1 X-48.979 Y-29.697 E771.59649
G1 X-49.228 Y-30.783 E771.6795
G1 X-49.24 Y-30.855 E771.68494
G1 X31.305 Y49.689 E780.17133
G1 X32.42 Y49.391 E780.25731
G1 X-49.435 Y-32.465 E788.88183
G1 X-49.468 Y-32.876 E788.91255
G1 X-49.475 Y-33.919 E788.99026
G1 X33.535 Y49.092 E797.73647
G1 X34.651 Y48.793 E797.82255
G1 X-49.372 Y-35.23 E806.67544
G1 X-49.256 Y-36.05 E806.73714
G1 X-49.172 Y-36.444 E806.76716
G1 X35.766 Y48.494 E815.71646
G1 X36.881 Y48.195 E815.80246
G1 X-48.89 Y-37.577 E824.83958
G1 X-48.728 Y-38.125 E824.88216
G1 X-48.537 Y-38.637 E824.92287
G1 X37.997 Y47.896 E834.04027
G1 X38.591 Y47.738 E834.08607
G1 X39.1 Y47.586 E834.12564
G1 X-48.118 Y-39.633 E843.31522
G1 X-47.907 Y-40.089 E843.35266
G1 X-47.645 Y-40.574 E843.39373
G1 X40.146 Y47.217 E852.64363
G1 X40.361 Y47.138 E852.66069
G1 X41.13 Y46.787 E852.72367
G1 X-47.118 Y-41.461 E862.02172
G1 X-46.879 Y-41.841 E862.05517
G1 X-46.543 Y-42.3 E862.09755
G1 X42.055 Y46.298 E871.43247
G1 X42.269 Y46.182 E871.45061
G1 X42.929 Y45.757 E871.50909
G1 X-45.917 Y-43.088 E880.8701
G1 X-45.565 Y-43.499 E880.91041
G1 X-45.242 Y-43.828 E880.94476
G1 X43.749 Y45.163 E890.3211
G1 X44.008 Y44.968 E890.34525
G1 X44.52 Y44.52 E890.39594
G1 X-44.52 Y-44.52 E899.77744
G1 X-44.008 Y-44.968 E899.82812
G1 X-43.749 Y-45.163 E899.85228
G1 X45.242 Y43.828 E909.22861
G1 X45.565 Y43.499 E909.26296
G1 X45.917 Y43.088 E909.30328
G1 X-42.929 Y-45.757 E918.66428
G1 X-42.269 Y-46.182 E918.72277
G1 X-42.055 Y-46.298 E918.7409
G1 X46.543 Y42.3 E928.07583
G1 X46.879 Y41.841 E928.11821
G1 X47.117 Y41.46 E928.15168
G1 X-41.13 Y-46.787 E937.44962
G1 X-40.361 Y-47.138 E937.5126
G1 X-40.146 Y-47.217 E937.52967
G1 X47.646 Y40.575 E946.77967
G1 X47.907 Y40.089 E946.82077
G1 X48.118 Y39.633 E946.8582
G1 X-39.1 Y-47.586 E956.04778
G1 X-38.591 Y-47.738 E956.08736
G1 X-37.997 Y-47.896 E956.13315
G1 X48.537 Y38.637 E965.25056
G1 X48.728 Y38.125 E965.29127
G1 X48.89 Y37.577 E965.33385
G1 X-36.881 Y-48.195 E974.37097
G1 X-35.766 Y-48.494 E974.45697
G1 X49.172 Y36.444 E983.40627
G1 X49.256 Y36.05 E983.43629
G1 X49.372 Y35.23 E983.49799
G1 X-34.651 Y-48.793 E992.35088
G1 X-33.535 Y-49.092 E992.43696
G1 X49.475 Y33.919 E1001.18317
G1 X49.468 Y32.876 E1001.26088
G1 X49.435 Y32.465 E1001.2916
G1 X-32.42 Y-49.391 E1009.91612
G1 X-31.305 Y-49.689 E1010.0021
G1 X49.24 Y30.855 E1018.48849
G1 X49.228 Y30.783 E1018.49393
G1 X48.977 Y29.687 E1018.5777
G1 X48.791 Y28.992 E1018.6313
G1 X-30.189 Y-49.988 E1026.95285
G1 X-29.074 Y-50.287 E1027.03885
G1 X48.273 Y27.06 E1035.18834
G1 X47.755 Y25.128 E1035.33737
G1 X-27.959 Y-50.586 E1043.3148
G1 X-26.843 Y-50.885 E1043.40088
G1 X47.238 Y23.196 E1051.20626
G1 X46.72 Y21.264 E1051.35528
G1 X-25.728 Y-51.183 E1058.98855
G1 X-24.612 Y-51.483 E1059.07464
G1 X46.203 Y19.333 E1066.53596
G1 X45.685 Y17.401 E1066.68498
G1 X-23.497 Y-51.782 E1073.97424
G1 X-22.382 Y-52.08 E1074.06022
G1 X45.167 Y15.469 E1081.17737
G1 X44.65 Y13.537 E1081.32637
G1 X-21.266 Y-52.379 E1088.27146
G1 X-20.151 Y-52.678 E1088.35747
G1 X44.132 Y11.605 E1095.1305
G1 X43.615 Y9.673 E1095.27951
G1 X-19.036 Y-52.977 E1101.88053
G1 X-17.92 Y-53.276 E1101.96661
G1 X43.097 Y7.742 E1108.39558
G1 X42.579 Y5.81 E1108.5446
G1 X-16.805 Y-53.574 E1114.80147
G1 X-15.689 Y-53.873 E1114.88754
G1 X42.062 Y3.878 E1120.97235
G1 X41.544 Y1.946 E1121.12137
G1 X-14.574 Y-54.172 E1127.03411
G1 X-13.459 Y-54.471 E1127.12012
G1 X41.027 Y0.014 E1132.86086
G1 X40.508 Y-1.917 E1133.00983
G1 X-12.343 Y-54.77 E1138.57846
G1 X-11.228 Y-55.069 E1138.66447
G1 X39.991 Y-3.849 E1144.0611
G1 X39.473 Y-5.781 E1144.21012
G1 X-10.113 Y-55.367 E1149.43463
G1 X-8.997 Y-55.666 E1149.52071
G1 X38.955 Y-7.713 E1154.57312
G1 X38.438 Y-9.644 E1154.72205
G1 X-7.882 Y-55.966 E1159.60256
G1 X-6.767 Y-56.264 E1159.68854
G1 X37.92 Y-11.576 E1164.39694
G1 X37.403 Y-13.508 E1164.54594
G1 X-5.651 Y-56.563 E1169.08228
G1 X-4.536 Y-56.861 E1169.16827
G1 X36.885 Y-15.44 E1173.5325
G1 X36.367 Y-17.372 E1173.68152
G1 X-3.42 Y-57.161 E1177.8737
G1 X-2.305 Y-57.46 E1177.9597
G1 X35.85 Y-19.304 E1181.97987
G1 X35.332 Y-21.235 E1182.12882
G1 X-1.19 Y-57.758 E1185.97693
G1 X-0.074 Y-58.057 E1186.06301
G1 X34.815 Y-23.167 E1189.73906
G1 X34.297 Y-25.099 E1189.88808
G1 X1.04 Y-58.356 E1193.39213
G1 X2.155 Y-58.655 E1193.47814
G1 X33.779 Y-27.031 E1196.81013
G1 X33.262 Y-28.963 E1196.95913
G1 X3.271 Y-58.954 E1200.11907
G1 X4.386 Y-59.253 E1200.20507
G1 X32.744 Y-30.894 E1203.193
G1 X32.227 Y-32.826 E1203.342
G1 X5.501 Y-59.551 E1206.15788
G1 X6.617 Y-59.85 E1206.24395
G1 X31.709 Y-34.758 E1208.88772
G1 X31.191 Y-36.69 E1209.03674
G1 X7.732 Y-60.149 E1211.50844
G1 X8.848 Y-60.448 E1211.59452
G1 X30.674 Y-38.622 E1213.89417
G1 X30.156 Y-40.553 E1214.04312
G1 X9.976 Y-60.734 E1216.16939
G1 X10.6 Y-60.878 E1216.2171
G1 X11.161 Y-60.963 E1216.25938
G1 X29.639 Y-42.485 E1218.20627
G1 X29.121 Y-44.417 E1218.35529
G1 X12.441 Y-61.097 E1220.11274
G0 F3600 X13.757 Y-61.125
G1 F675 X13.833 Y-61.119 E1220.11842
G1 X28.603 Y-46.349 E1221.67463
G1 X28.086 Y-48.281 E1221.82363
G1 X15.394 Y-60.973 E1223.1609
G1 X15.871 Y-60.905 E1223.19679
G1 X16.929 Y-60.678 E1223.27741
G1 X17.176 Y-60.605 E1223.2966
G1 X27.568 Y-50.213 E1224.39153
G1 X27.56 Y-50.24 E1224.39363
G1 X27.336 Y-50.993 E1224.45216
G1 X26.961 Y-52.011 E1224.53298
G1 X26.773 Y-52.422 E1224.56666
G1 X19.405 Y-59.79 E1225.34297
G0 F3600 X-38.956 Y7.712
G1 F675 X-38.439 Y9.644 E1225.49197
G0 F3600 X-38.956 Y7.712
G1 F675 X2.299 Y48.968 E1229.83876
G0 F3600 X-23.353 Y28.4
;TIME_ELAPSED:1192.370081
;LAYER:-5
M107
G0 X-23.353 Y28.4 Z0.734
G1 F900 X-22.86 Y28.8 E1229.8546
G1 X48.948 Y28.8 E1231.64586
G1 X49.055 Y29.2 E1231.65619
G1 X-22.368 Y29.2 E1233.43784
G1 X-21.875 Y29.6 E1233.45368
G1 X49.163 Y29.6 E1235.22573
G1 X49.173 Y29.641 E1235.22678
G1 X49.256 Y30 E1235.23597
G1 X-21.382 Y30 E1236.99805
G1 X-20.89 Y30.4 E1237.01386
G1 X49.348 Y30.4 E1238.76596
G1 X49.422 Y30.722 E1238.7742
G1 X49.434 Y30.8 E1238.77617
G1 X-20.397 Y30.8 E1240.51811
G1 X-19.904 Y31.2 E1240.53394
G1 X49.495 Y31.2 E1242.26511
G1 X49.556 Y31.6 E1242.2752
G1 X-19.412 Y31.6 E1243.99562
G1 X-18.919 Y32 E1244.01145
G1 X49.602 Y32 E1245.72072
G1 X49.633 Y32.4 E1245.73072
G1 X-18.427 Y32.4 E1247.42849
G1 X-17.934 Y32.8 E1247.44433
G1 X49.665 Y32.8 E1249.13059
G1 X49.669 Y32.858 E1249.13204
G1 X49.672 Y33.2 E1249.14057
G1 X-17.441 Y33.2 E1250.81471
G1 X-16.949 Y33.6 E1250.83053
G1 X49.674 Y33.6 E1252.49245
G1 X49.676 Y33.934 E1252.50078
G1 X49.671 Y34 E1252.50243
G1 X-16.456 Y34 E1254.15197
G1 X-15.963 Y34.4 E1254.16781
G1 X49.644 Y34.4 E1255.80438
G1 X49.617 Y34.8 E1255.81438
G1 X-15.471 Y34.8 E1257.43801
G1 X-14.978 Y35.2 E1257.45385
G1 X49.578 Y35.2 E1259.0642
G1 X49.522 Y35.6 E1259.07428
G1 X-14.485 Y35.6 E1260.67094
G1 X-13.993 Y36 E1260.68676
G1 X49.465 Y36 E1262.26972
G1 X49.455 Y36.078 E1262.27169
G1 X49.385 Y36.4 E1262.27991
G1 X-13.5 Y36.4 E1263.84858
G1 X-13.007 Y36.8 E1263.86441
G1 X49.299 Y36.8 E1265.41864
G1 X49.22 Y37.167 E1265.42801
G1 X49.21 Y37.2 E1265.42887
G1 X-12.515 Y37.2 E1266.96861
G1 X-12.022 Y37.6 E1266.98444
G1 X49.092 Y37.6 E1268.50894
G1 X48.975 Y38 E1268.51933
G1 X-11.529 Y38 E1270.02861
G1 X-11.037 Y38.4 E1270.04443
G1 X48.84 Y38.4 E1271.53807
G1 X48.689 Y38.8 E1271.54873
G1 X-10.544 Y38.8 E1273.02631
G1 X-10.052 Y39.2 E1273.04212
G1 X48.538 Y39.2 E1274.50366
G1 X48.354 Y39.6 E1274.51464
G1 X-9.559 Y39.6 E1275.95928
G1 X-9.066 Y40 E1275.97512
G1 X48.169 Y40 E1277.40285
G1 X48.084 Y40.185 E1277.40793
G1 X47.967 Y40.4 E1277.41404
G1 X-8.574 Y40.4 E1278.82446
G1 X-8.081 Y40.8 E1278.8403
G1 X47.752 Y40.8 E1280.23306
G1 X47.711 Y40.876 E1280.23521
G1 X47.621 Y41.033 E1280.23972
G1 X47.516 Y41.2 E1280.24465
