;FLAVOR:RepRap
;TIME:15812
;Filament used: 7.46483m
;Layer height: 0.15
;Generated with Cura_SteamEngine 2.6.2
M104 S200
M109 S200
G28 ;Home
G1 Z15.0 F6000 ;Move the platform down 15mm
;Prime the extruder
G92 E0
G1 F200 E3
G92 E0
;LAYER_COUNT:70
;LAYER:-7
M107
G0 F3600 X-38.55 Y-1.564 Z0.36
G1 F675 X-21.549 Y-46.028 E5.69986
G1 X-21.142 Y-46.985 E5.82438
G1 X-20.647 Y-47.949 E5.95413
G1 X-20.099 Y-48.846 E6.08
G1 X-19.481 Y-49.71 E6.20719
G1 X-18.794 Y-50.536 E6.33583
G1 X-17.689 Y-51.646 E6.52336
G1 X-17.656 Y-51.676 E6.5287
G1 X-16.805 Y-52.389 E6.66164
G1 X-15.943 Y-53.01 E6.78885
G1 X-15.05 Y-53.56 E6.91442
G1 X-14.083 Y-54.062 E7.04488
G1 X-13.127 Y-54.473 E7.16948
G1 X-11.609 Y-54.968 E7.36066
G1 X9.522 Y-60.632 E9.98012
G1 X10.59 Y-60.876 E10.1113
G1 X11.616 Y-61.033 E10.23558
G1 X12.699 Y-61.119 E10.36566
G1 X13.757 Y-61.126 E10.49234
G1 X14.83 Y-61.054 E10.62111
G1 X15.87 Y-60.908 E10.74686
G1 X16.928 Y-60.679 E10.87647
G1 X17.938 Y-60.382 E11.00253
G1 X18.957 Y-60 E11.13283
G1 X19.893 Y-59.568 E11.25626
G1 X20.621 Y-59.175 E11.35532
G1 X20.762 Y-59.094 E11.37479
G1 X21.664 Y-58.53 E11.50217
G1 X22.512 Y-57.907 E11.62816
G1 X23.322 Y-57.217 E11.75557
G1 X24.085 Y-56.465 E11.88384
G1 X24.791 Y-55.658 E12.01223
G1 X25.436 Y-54.805 E12.14027
G1 X26.003 Y-53.924 E12.26572
G1 X26.52 Y-52.979 E12.3947
G1 X26.961 Y-52.012 E12.52196
G1 X27.337 Y-50.994 E12.6519
G1 X27.561 Y-50.241 E12.74596
G1 X48.978 Y29.687 E22.65387
G1 X49.23 Y30.783 E22.78853
G1 X49.383 Y31.786 E22.91002
G1 X49.469 Y32.877 E23.04105
G1 X49.476 Y33.936 E23.16786
G1 X49.404 Y35.007 E23.29638
G1 X49.257 Y36.05 E23.4225
G1 X49.029 Y37.108 E23.55209
G1 X48.73 Y38.125 E23.67902
G1 X48.357 Y39.117 E23.80592
G1 X47.908 Y40.09 E23.93423
G1 X47.538 Y40.776 E24.02755
G1 X47.445 Y40.937 E24.04981
G1 X46.88 Y41.842 E24.17756
G1 X46.257 Y42.69 E24.30355
G1 X45.567 Y43.5 E24.43096
G1 X44.815 Y44.263 E24.55923
G1 X44.008 Y44.969 E24.68762
G1 X43.155 Y45.614 E24.81566
G1 X42.269 Y46.183 E24.94174
G1 X41.329 Y46.698 E25.07008
G1 X40.362 Y47.139 E25.19734
G1 X39.344 Y47.515 E25.32728
G1 X38.591 Y47.739 E25.42134
G1 X-9.519 Y60.63 E31.38507
G1 X-10.6 Y60.879 E31.5179
G1 X-11.614 Y61.033 E31.6407
G1 X-12.699 Y61.119 E31.77103
G1 X-13.758 Y61.126 E31.89783
G1 X-14.829 Y61.054 E32.02636
G1 X-15.872 Y60.907 E32.15248
G1 X-16.93 Y60.679 E32.28207
G1 X-17.947 Y60.38 E32.40899
G1 X-18.939 Y60.007 E32.53589
G1 X-19.912 Y59.558 E32.6642
G1 X-20.608 Y59.182 E32.75892
G1 X-20.749 Y59.102 E32.77833
G1 X-21.664 Y58.53 E32.90753
G1 X-22.512 Y57.907 E33.03353
G1 X-23.322 Y57.217 E33.16093
G1 X-24.085 Y56.465 E33.28921
G1 X-24.791 Y55.658 E33.41759
G1 X-25.436 Y54.805 E33.54564
G1 X-26.005 Y53.919 E33.67172
G1 X-26.52 Y52.979 E33.80006
G1 X-26.961 Y52.012 E33.92731
G1 X-27.337 Y50.994 E34.05725
G1 X-27.564 Y50.231 E34.15257
G1 X-39.013 Y7.501 E39.44938
G1 X-39.258 Y6.432 E39.5807
G1 X-39.414 Y5.409 E39.7046
G1 X-39.5 Y4.327 E39.83457
G1 X-39.497 Y3.016 E39.99154
G1 X-39.494 Y2.947 E39.99981
G1 X-39.404 Y1.883 E40.12767
G1 X-39.238 Y0.83 E40.25531
G1 X-38.995 Y-.207 E40.38284
G1 X-38.55 Y-1.564 E40.55383
G0 F3600 X-38.4 Y-1.957
G1 F675 X-38.4 Y9.788 E41.96014
G0 F3600 X-36.8 Y15.76
G1 F675 X-36.8 Y-6.141 E44.58249
G0 F3600 X-35.2 Y-10.326
G1 F675 X-35.2 Y21.731 E48.42088
G0 F3600 X-33.6 Y27.703
G1 F675 X-33.6 Y-14.511 E53.47543
G0 F3600 X-32 Y-18.695
G1 F675 X-32 Y33.674 E59.74591
G0 F3600 X-30.4 Y39.646
G1 F675 X-30.4 Y-22.88 E67.23256
G0 F3600 X-28.8 Y-27.064
G1 F675 X-28.8 Y45.617 E75.93513
G0 F3600 X-27.2 Y51.364
G1 F675 X-27.2 Y-31.249 E85.82692
G0 F3600 X-25.6 Y-35.434
G1 F675 X-25.6 Y54.549 E96.60116
G0 F3600 X-24 Y56.548
G1 F675 X-24 Y-39.618 E108.11574
G0 F3600 X-22.4 Y-43.803
G1 F675 X-22.4 Y57.989 E120.30396
G0 F3600 X-20.8 Y59.07
G1 F675 X-20.8 Y-47.652 E133.08248
G0 F3600 X-19.2 Y-50.048
G1 F675 X-19.2 Y59.886 E146.24559
G0 F3600 X-17.6 Y60.482
G1 F675 X-17.6 Y-51.723 E159.68062
G0 F3600 X-16 Y-52.969
G1 F675 X-16 Y60.879 E173.31238
G0 F3600 X-14.4 Y61.082
G1 F675 X-14.4 Y-53.898 E187.07968
G0 F3600 X-12.8 Y-54.58
G1 F675 X-12.8 Y61.12 E200.93319
G0 F3600 X-11.2 Y60.971
G1 F675 X-11.2 Y-55.078 E214.82849
G0 F3600 X-9.6 Y-55.507
G1 F675 X-9.6 Y60.649 E228.7366
G0 F3600 X-8 Y60.223
G1 F675 X-8 Y-55.936 E242.64507
G0 F3600 X-6.4 Y-56.365
G1 F675 X-6.4 Y59.795 E256.55366
G0 F3600 X-4.8 Y59.366
G1 F675 X-4.8 Y-56.794 E270.46225
G0 F3600 X-3.2 Y-57.222
G1 F675 X-3.2 Y58.937 E284.37072
G0 F3600 X-1.6 Y58.509
G1 F675 X-1.6 Y-57.651 E298.27931
G0 F3600 X0.00 Y-58.08
G1 F675 X0.00 Y58.08 E312.1879
G0 F3600 X1.6 Y57.651
G1 F675 X1.6 Y-58.509 E326.0965
G0 F3600 X3.2 Y-58.938
G1 F675 X3.2 Y57.222 E340.00509
G0 F3600 X4.8 Y56.794
G1 F675 X4.8 Y-59.367 E353.9138
G0 F3600 X6.4 Y-59.796
G1 F675 X6.4 Y56.365 E367.82251
G0 F3600 X8 Y55.936
G1 F675 X8 Y-60.225 E381.73122
G0 F3600 X9.6 Y-60.65
G1 F675 X9.6 Y55.508 E395.63957
G0 F3600 X11.2 Y55.079
G1 F675 X11.2 Y-60.97 E409.53487
G0 F3600 X12.8 Y-61.12
G1 F675 X12.8 Y54.65 E423.39676
G0 F3600 X14.4 Y54.221
G1 F675 X14.4 Y-61.082 E437.20273
G0 F3600 X16 Y-60.879
G1 F675 X16 Y53.793 E450.93316
G0 F3600 X17.6 Y53.364
G1 F675 X17.6 Y-60.481 E464.56456
G0 F3600 X19.2 Y-59.887
G1 F675 X19.2 Y52.935 E478.07347
G0 F3600 X20.8 Y52.507
G1 F675 X20.8 Y-59.07 E491.4333
G0 F3600 X22.4 Y-57.989
G1 F675 X22.4 Y52.078 E504.61234
G0 F3600 X24 Y51.649
G1 F675 X24 Y-56.548 E517.56747
G0 F3600 X25.6 Y-54.55
G1 F675 X25.6 Y51.22 E530.232
G0 F3600 X27.2 Y50.792
G1 F675 X27.2 Y-51.364 E542.4638
G0 F3600 X28.8 Y-45.617
G1 F675 X28.8 Y50.363 E553.95611
G0 F3600 X30.4 Y49.934
G1 F675 X30.4 Y-39.645 E564.68198
G0 F3600 X32 Y-33.674
G1 F675 X32 Y49.506 E574.64166
G0 F3600 X33.6 Y49.077
G1 F675 X33.6 Y-27.703 E583.83503
G0 F3600 X35.2 Y-21.732
G1 F675 X35.2 Y48.648 E592.26208
G0 F3600 X36.8 Y48.219
G1 F675 X36.8 Y-15.761 E599.92282
G0 F3600 X38.4 Y-9.789
G1 F675 X38.4 Y47.791 E606.81725
G0 F3600 X40 Y47.273
G1 F675 X40 Y-3.818 E612.93471
G0 F3600 X41.6 Y2.153
G1 F675 X41.6 Y46.55 E618.25065
G0 F3600 X43.2 Y45.58
G1 F675 X43.2 Y8.124 E622.7355
G0 F3600 X44.8 Y14.095
G1 F675 X44.8 Y44.277 E626.34938
G0 F3600 X46.4 Y42.496
G1 F675 X46.4 Y20.066 E629.03507
G0 F3600 X48 Y26.038
G1 F675 X48 Y39.891 E630.69378
G0 F3600 X-34.187 Y-12.973
;TIME_ELAPSED:473.813450
;LAYER:-6
M107
G0 X-34.187 Y-12.973 Z0.584
;TYPE:SUPPORT
G1 F675 X-34.578 Y-11.95 E630.77538
G1 X27.959 Y50.586 E637.36439
G1 X26.843 Y50.885 E637.45047
G1 X-34.969 Y-10.927 E643.96315
G1 X-35.36 Y-9.904 E644.04475
G1 X25.728 Y51.183 E650.48109
G1 X24.612 Y51.483 E650.56719
G1 X-35.752 Y-8.881 E656.9273
G1 X-36.143 Y-7.858 E657.0089
G1 X23.497 Y51.782 E663.29273
G1 X22.382 Y52.08 E663.37872
G1 X-36.534 Y-6.835 E669.58622
G1 X-36.925 Y-5.812 E669.66781
G1 X21.266 Y52.379 E675.79897
G1 X20.151 Y52.678 E675.88498
G1 X-37.316 Y-4.789 E681.93986
G1 X-37.707 Y-3.766 E682.02145
G1 X19.036 Y52.977 E688.00005
G1 X17.92 Y53.276 E688.08613
G1 X-38.098 Y-2.743 E693.98839
G1 X-38.489 Y-1.72 E694.06998
G1 X16.805 Y53.574 E699.89591
G1 X15.689 Y53.873 E699.98199
G1 X-38.845 Y-.661 E705.72784
G1 X-38.994 Y-.207 E705.76344
G1 X-39.148 Y0.449 E705.81364
G1 X14.574 Y54.172 E711.47399
G1 X13.459 Y54.471 E711.55999
G1 X-39.366 Y1.645 E717.12583
G1 X-39.403 Y1.883 E717.14378
G1 X-39.492 Y2.933 E717.22229
G1 X12.343 Y54.77 E722.68387
G1 X11.228 Y55.069 E722.76987
G1 X-39.498 Y4.341 E728.11461
G1 X-39.413 Y5.408 E728.19436
G1 X-39.335 Y5.919 E728.23287
G1 X10.113 Y55.367 E733.44284
G1 X8.997 Y55.666 E733.52892
G1 X-38.955 Y7.713 E738.58133
G1 X-38.438 Y9.644 E738.73026
G1 X7.882 Y55.966 E743.61077
G1 X6.767 Y56.264 E743.69675
G1 X-37.92 Y11.576 E748.40515
G1 X-37.403 Y13.508 E748.55415
G1 X5.651 Y56.563 E753.09049
G1 X4.536 Y56.861 E753.17648
G1 X-36.885 Y15.44 E757.54071
G1 X-36.367 Y17.372 E757.68973
G1 X3.42 Y57.161 E761.8819
G1 X2.305 Y57.46 E761.96791
G1 X-35.85 Y19.304 E765.98808
G1 X-35.332 Y21.235 E766.13703
G1 X1.19 Y57.758 E769.98514
G1 X0.074 Y58.057 E770.07122
G1 X-34.815 Y23.167 E773.74727
G1 X-34.297 Y25.099 E773.89629
G1 X-1.04 Y58.356 E777.40034
G1 X-2.155 Y58.655 E777.48635
G1 X-33.779 Y27.031 E780.81834
G1 X-33.263 Y28.962 E780.96725
G1 X-3.271 Y58.954 E784.12729
G1 X-4.386 Y59.253 E784.21329
G1 X-32.745 Y30.894 E787.20128
G1 X-32.227 Y32.826 E787.3503
G1 X-5.501 Y59.551 E790.16617
G1 X-6.617 Y59.85 E790.25225
G1 X-31.71 Y34.757 E792.89612
G1 X-31.192 Y36.689 E793.04514
G1 X-7.732 Y60.149 E795.51695
G1 X-8.848 Y60.448 E795.60303
G1 X-30.674 Y38.621 E797.90273
G1 X-30.157 Y40.553 E798.05173
G1 X-9.976 Y60.734 E800.17805
G1 X-10.6 Y60.878 E800.22577
G1 X-11.161 Y60.963 E800.26804
G1 X-29.639 Y42.485 E802.21493
G1 X-29.122 Y44.416 E802.36386
G1 X-12.441 Y61.097 E804.12142
G1 X-12.698 Y61.118 E804.14063
G1 X-13.757 Y61.125 E804.21953
G1 X-13.833 Y61.119 E804.22521
G1 X-28.604 Y46.348 E805.78152
G1 X-28.086 Y48.28 E805.93055
G1 X-15.394 Y60.973 E807.26786
G1 X-15.871 Y60.905 E807.30376
G1 X-16.929 Y60.678 E807.38438
G1 X-17.176 Y60.605 E807.40357
G1 X-27.569 Y50.212 E808.4986
G1 X-27.564 Y50.23 E808.49999
G1 X-27.336 Y50.993 E808.55932
G1 X-26.961 Y52.011 E808.64015
G1 X-26.773 Y52.422 E808.67382
G1 X-19.405 Y59.79 E809.45013
G0 F3600 X29.074 Y50.287
G1 F675 X30.189 Y49.988 E809.53614
G1 X-33.796 Y-13.997 E816.27777
G1 X-33.405 Y-15.02 E816.35937
G1 X31.305 Y49.689 E823.17734
G1 X32.42 Y49.391 E823.26332
G1 X-33.013 Y-16.042 E830.15752
G1 X-32.622 Y-17.066 E830.23919
G1 X33.535 Y49.092 E837.20972
G1 X34.651 Y48.793 E837.2958
G1 X-32.231 Y-18.089 E844.34267
G1 X-31.84 Y-19.112 E844.42426
G1 X35.766 Y48.494 E851.54741
G1 X36.881 Y48.195 E851.63342
G1 X-31.449 Y-20.135 E858.83286
G1 X-31.058 Y-21.158 E858.91445
G1 X37.997 Y47.896 E866.19022
G1 X38.591 Y47.738 E866.23601
G1 X39.1 Y47.586 E866.27559
G1 X-30.666 Y-22.181 E873.62638
G1 X-30.275 Y-23.204 E873.70797
G1 X40.146 Y47.217 E881.12772
G1 X40.361 Y47.138 E881.14479
G1 X41.13 Y46.787 E881.20777
G1 X-29.884 Y-24.227 E888.68999
G1 X-29.493 Y-25.25 E888.77159
G1 X42.055 Y46.298 E896.31008
G1 X42.269 Y46.182 E896.32822
G1 X42.929 Y45.757 E896.3867
G1 X-29.102 Y-26.273 E903.97603
G1 X-28.711 Y-27.297 E904.05769
G1 X43.749 Y45.163 E911.69228
G1 X44.008 Y44.968 E911.71643
G1 X44.52 Y44.52 E911.76712
G1 X-28.319 Y-28.319 E919.44163
G1 X-27.928 Y-29.342 E919.52323
G1 X45.242 Y43.828 E927.23262
G1 X45.565 Y43.499 E927.26697
G1 X45.917 Y43.088 E927.30728
G1 X-27.537 Y-30.365 E935.04655
G1 X-27.146 Y-31.389 E935.12821
G1 X46.543 Y42.3 E942.89228
G1 X46.879 Y41.841 E942.93466
G1 X47.117 Y41.46 E942.96813
G1 X-26.755 Y-32.412 E950.75149
G1 X-26.364 Y-33.435 E950.83308
G1 X47.646 Y40.575 E958.63098
G1 X47.907 Y40.089 E958.67208
G1 X48.118 Y39.633 E958.70951
G1 X-25.972 Y-34.458 E966.51589
G1 X-25.581 Y-35.481 E966.59748
G1 X48.537 Y38.637 E974.40676
G1 X48.728 Y38.125 E974.44747
G1 X48.89 Y37.577 E974.49004
G1 X-25.19 Y-36.504 E982.29537
G1 X-24.799 Y-37.527 E982.37696
G1 X49.172 Y36.444 E990.17075
G1 X49.256 Y36.05 E990.20076
G1 X49.372 Y35.23 E990.26246
G1 X-24.408 Y-38.55 E998.03612
G1 X-24.016 Y-39.573 E998.11774
G1 X49.475 Y33.919 E1005.86101
G1 X49.468 Y32.876 E1005.93872
G1 X49.435 Y32.465 E1005.96944
G1 X-23.625 Y-40.596 E1013.66729
G1 X-23.234 Y-41.619 E1013.74888
G1 X49.24 Y30.855 E1021.38494
G1 X49.228 Y30.783 E1021.39038
G1 X48.977 Y29.687 E1021.47415
G1 X48.791 Y28.992 E1021.52775
G1 X-22.843 Y-42.642 E1029.07531
G1 X-22.452 Y-43.665 E1029.1569
G1 X48.273 Y27.06 E1036.60868
G1 X47.755 Y25.128 E1036.7577
G1 X-22.061 Y-44.689 E1044.11376
G1 X-21.669 Y-45.711 E1044.19531
G1 X47.238 Y23.196 E1051.45554
G1 X46.72 Y21.264 E1051.60456
G1 X-21.257 Y-46.713 E1058.7668
G1 X-21.142 Y-46.984 E1058.78874
G1 X-20.793 Y-47.663 E1058.84562
G1 X46.203 Y19.333 E1065.9045
G1 X45.685 Y17.401 E1066.05352
G1 X-20.274 Y-48.558 E1073.00314
G1 X-20.098 Y-48.845 E1073.02822
G1 X-19.702 Y-49.4 E1073.07902
G1 X45.167 Y15.469 E1079.91379
G1 X44.65 Y13.537 E1080.0628
G1 X-19.079 Y-50.192 E1086.77746
G1 X-18.794 Y-50.534 E1086.81063
G1 X-18.402 Y-50.929 E1086.85209
G1 X44.132 Y11.605 E1093.44084
G1 X43.615 Y9.673 E1093.58984
G1 X-17.696 Y-51.637 E1100.04969
G1 X-17.688 Y-51.645 E1100.05053
G1 X-17.656 Y-51.675 E1100.0538
G1 X-16.928 Y-52.284 E1100.12451
G1 X43.097 Y7.742 E1106.44896
G1 X42.579 Y5.81 E1106.59798
G1 X-16.115 Y-52.885 E1112.7822
G1 X-15.943 Y-53.009 E1112.79799
G1 X-15.25 Y-53.434 E1112.85856
G1 X42.062 Y3.878 E1118.89711
G1 X41.544 Y1.946 E1119.04613
G1 X-14.333 Y-53.931 E1124.93349
G1 X-14.082 Y-54.061 E1124.95455
G1 X-13.359 Y-54.371 E1125.01315
G1 X41.027 Y0.014 E1130.74336
G1 X40.508 Y-1.917 E1130.89233
G1 X-12.311 Y-54.737 E1136.45754
G1 X-11.609 Y-54.967 E1136.51257
G1 X-11.228 Y-55.069 E1136.54196
G1 X39.991 Y-3.849 E1141.93858
G1 X39.473 Y-5.781 E1142.08761
G1 X-10.113 Y-55.367 E1147.31212
G1 X-8.997 Y-55.666 E1147.3982
G1 X38.955 Y-7.713 E1152.45061
G1 X38.438 Y-9.644 E1152.59954
G1 X-7.882 Y-55.966 E1157.48005
G1 X-6.767 Y-56.265 E1157.56605
G1 X37.92 Y-11.576 E1162.2745
G1 X37.403 Y-13.508 E1162.42351
G1 X-5.651 Y-56.563 E1166.95985
G1 X-4.536 Y-56.862 E1167.04585
G1 X36.885 Y-15.44 E1171.41013
G1 X36.367 Y-17.372 E1171.55916
G1 X-3.421 Y-57.161 E1175.75138
G1 X-2.306 Y-57.46 E1175.83739
G1 X35.85 Y-19.304 E1179.85761
G1 X35.332 Y-21.235 E1180.00656
G1 X-1.19 Y-57.759 E1183.85472
G1 X-0.075 Y-58.058 E1183.94073
G1 X34.815 Y-23.167 E1187.61689
G1 X34.297 Y-25.099 E1187.76591
G1 X1.039 Y-58.357 E1191.27006
G1 X2.154 Y-58.656 E1191.35607
G1 X33.779 Y-27.031 E1194.68816
G1 X33.262 Y-28.963 E1194.83717
G1 X3.269 Y-58.955 E1197.99726
G1 X4.385 Y-59.254 E1198.08334
G1 X32.744 Y-30.894 E1201.07137
G1 X32.227 Y-32.826 E1201.22038
G1 X5.5 Y-59.553 E1204.0364
G1 X6.615 Y-59.852 E1204.12241
G1 X31.709 Y-34.758 E1206.76638
G1 X31.191 Y-36.69 E1206.91541
G1 X7.73 Y-60.151 E1209.38732
G1 X8.846 Y-60.449 E1209.47338
G1 X30.674 Y-38.622 E1211.77318
G1 X30.156 Y-40.553 E1211.92214
G1 X9.975 Y-60.734 E1214.04846
G1 X10.59 Y-60.875 E1214.09547
G1 X11.162 Y-60.962 E1214.13857
G1 X29.639 Y-42.485 E1216.08536
G1 X29.121 Y-44.417 E1216.23438
G1 X12.441 Y-61.097 E1217.99183
G0 F3600 X13.757 Y-61.125
G1 F675 X13.833 Y-61.119 E1217.99751
G1 X28.603 Y-46.349 E1219.55372
G1 X28.086 Y-48.281 E1219.70273
G1 X15.393 Y-60.973 E1221.04004
G1 X15.87 Y-60.907 E1221.07592
G1 X16.928 Y-60.678 E1221.15657
G1 X17.177 Y-60.604 E1221.17592
G1 X27.568 Y-50.213 E1222.27075
G1 X27.56 Y-50.24 E1222.27284
G1 X27.336 Y-50.993 E1222.33137
G1 X26.961 Y-52.011 E1222.4122
G1 X26.773 Y-52.422 E1222.44587
G1 X19.402 Y-59.793 E1223.2225
G0 F3600 X-34.187 Y-12.973
G1 F675 X29.074 Y50.287 E1229.8878
G0 F3600 X-34.315 Y-13.2
;TIME_ELAPSED:1192.370798
;LAYER:-5
M107
G0 X-34.315 Y-13.2 Z0.734
G1 F900 X-34.468 Y-12.8 E1229.89848
G1 X37.801 Y-12.799 E1231.70124
G1 X37.908 Y-12.399 E1231.71157
G1 X-34.621 Y-12.4 E1233.52081
G1 X-34.774 Y-12 E1233.53149
G1 X38.015 Y-11.999 E1235.34722
G1 X38.122 Y-11.599 E1235.35755
G1 X-34.926 Y-11.6 E1237.17974
G1 X-35.079 Y-11.2 E1237.19043
G1 X38.229 Y-11.199 E1239.0191
G1 X38.336 Y-10.799 E1239.02943
G1 X-35.232 Y-10.8 E1240.86459
G1 X-35.385 Y-10.4 E1240.87527
G1 X38.444 Y-10.399 E1242.71695
G1 X38.551 Y-9.999 E1242.72728
G1 X-35.538 Y-10 E1244.57543
G1 X-35.691 Y-9.6 E1244.58612
G1 X38.658 Y-9.599 E1246.44076
G1 X38.765 Y-9.199 E1246.45109
G1 X-35.844 Y-9.2 E1248.31222
G1 X-35.997 Y-8.8 E1248.3229
G1 X38.872 Y-8.799 E1250.19051
G1 X38.98 Y-8.399 E1250.20085
G1 X-36.15 Y-8.4 E1252.07498
G1 X-36.303 Y-8 E1252.08566
G1 X39.087 Y-7.999 E1253.96627
G1 X39.194 Y-7.599 E1253.9766
G1 X-36.456 Y-7.6 E1255.8637
G1 X-36.609 Y-7.2 E1255.87438
G1 X39.301 Y-7.199 E1257.76796
G1 X39.408 Y-6.799 E1257.77829
G1 X-36.762 Y-6.8 E1259.67836
G1 X-36.915 Y-6.4 E1259.68904
G1 X39.516 Y-6.399 E1261.59562
G1 X39.623 Y-5.999 E1261.60595
G1 X-37.068 Y-6 E1263.51901
G1 X-37.221 Y-5.6 E1263.5297
G1 X39.73 Y-5.599 E1265.44925
G1 X39.837 Y-5.199 E1265.45958
G1 X-37.373 Y-5.2 E1267.38559
G1 X-37.526 Y-4.8 E1267.39627
G1 X39.944 Y-4.799 E1269.32877
G1 X40.051 Y-4.399 E1269.3391
G1 X-37.679 Y-4.4 E1271.27808
G1 X-37.832 Y-4 E1271.28876
G1 X40.159 Y-3.999 E1273.23426
G1 X40.266 Y-3.599 E1273.24458
