;FLAVOR:RepRap
;TIME:11934
;Filament used: 7.34691m
;Layer height: 0.2
;Generated with Cura_SteamEngine 2.6.2
M104 S200
M109 S200
G28 ;Home
G1 Z15.0 F6000 ;Move the platform down 15mm
;Prime the extruder
G92 E0
G1 F200 E3
G92 E0
;LAYER_COUNT:240
;LAYER:0
M107
G0 F3600 X-4.997 Y28.3 Z0.3
;TYPE:SKIRT
G1 F900 X-25.877 Y28.3 E1.04171
G1 X-26.666 Y28.26 E1.08112
G1 X-27.446 Y28.141 E1.12049
G1 X-28.211 Y27.943 E1.15991
G1 X-28.951 Y27.669 E1.19928
G1 X-29.66 Y27.321 E1.23868
G1 X-30.331 Y26.903 E1.27812
G1 X-30.955 Y26.42 E1.31749
G1 X-31.392 Y26.015 E1.34721
G1 X-31.509 Y25.898 E1.35547
G1 X-32.039 Y25.312 E1.39489
G1 X-32.506 Y24.676 E1.43425
G1 X-32.907 Y23.996 E1.47364
G1 X-33.237 Y23.278 E1.51306
G1 X-33.492 Y22.531 E1.55244
G1 X-33.671 Y21.762 E1.59183
G1 X-33.771 Y20.978 E1.63126
G1 X-33.794 Y20.383 E1.66097
G1 X-33.794 Y-20.683 E3.70976
G1 X-33.754 Y-21.472 E3.74918
G1 X-33.635 Y-22.252 E3.78854
G1 X-33.437 Y-23.017 E3.82796
G1 X-33.163 Y-23.757 E3.86733
G1 X-32.815 Y-24.466 E3.90674
G1 X-32.397 Y-25.137 E3.94618
G1 X-31.914 Y-25.761 E3.98554
G1 X-31.509 Y-26.198 E4.01527
G1 X-31.392 Y-26.315 E4.02353
G1 X-30.806 Y-26.845 E4.06294
G1 X-30.17 Y-27.312 E4.10231
G1 X-29.49 Y-27.713 E4.14169
G1 X-28.772 Y-28.043 E4.18112
G1 X-28.025 Y-28.298 E4.2205
G1 X-27.256 Y-28.477 E4.25989
G1 X-26.472 Y-28.577 E4.29932
G1 X-25.877 Y-28.6 E4.32903
G1 X25.878 Y-28.6 E6.91109
G1 X26.667 Y-28.56 E6.95051
G1 X27.447 Y-28.441 E6.98987
G1 X28.212 Y-28.243 E7.0293
G1 X28.952 Y-27.969 E7.06866
G1 X29.661 Y-27.621 E7.10807
G1 X30.332 Y-27.203 E7.14751
G1 X30.956 Y-26.72 E7.18688
G1 X31.393 Y-26.315 E7.2166
G1 X31.51 Y-26.198 E7.22486
G1 X32.04 Y-25.612 E7.26428
G1 X32.507 Y-24.976 E7.30364
G1 X32.908 Y-24.296 E7.34303
G1 X33.238 Y-23.578 E7.38245
G1 X33.493 Y-22.831 E7.42183
G1 X33.672 Y-22.062 E7.46122
G1 X33.772 Y-21.278 E7.50065
G1 X33.795 Y-20.684 E7.53031
G1 X33.8 Y20.682 E9.59407
G1 X33.76 Y21.471 E9.63348
G1 X33.641 Y22.251 E9.67285
G1 X33.443 Y23.016 E9.71227
G1 X33.169 Y23.756 E9.75164
G1 X32.821 Y24.466 E9.79109
G1 X32.404 Y25.136 E9.83046
G1 X31.921 Y25.761 E9.86986
G1 X31.515 Y26.198 E9.89962
G1 X31.398 Y26.315 E9.90788
G1 X30.812 Y26.845 E9.9473
G1 X30.176 Y27.312 E9.98666
G1 X29.496 Y27.713 E10.02605
G1 X28.778 Y28.043 E10.06547
G1 X28.031 Y28.298 E10.10485
G1 X27.262 Y28.477 E10.14424
G1 X26.478 Y28.577 E10.18367
G1 X25.883 Y28.6 E10.21338
G1 X-2.883 Y28.6 E11.64852
G1 X-3.672 Y28.56 E11.68794
G1 X-4.452 Y28.441 E11.7273
G1 X-4.997 Y28.3 E11.75539
G0 F3600 X-4.94 Y27.9
G1 F900 X-25.877 Y27.9 E12.79994
G1 X-26.645 Y27.86 E12.8383
G1 X-27.405 Y27.741 E12.87668
G1 X-28.148 Y27.543 E12.91505
G1 X-28.867 Y27.269 E12.95343
G1 X-29.553 Y26.922 E12.99179
G1 X-30.2 Y26.506 E13.03016
G1 X-30.8 Y26.025 E13.06853
G1 X-31.11 Y25.733 E13.08977
G1 X-31.227 Y25.616 E13.09803
G1 X-31.741 Y25.044 E13.1364
G1 X-32.194 Y24.422 E13.17478
G1 X-32.58 Y23.757 E13.21315
G1 X-32.895 Y23.055 E13.25153
G1 X-33.135 Y22.324 E13.28992
G1 X-33.298 Y21.573 E13.32826
G1 X-33.382 Y20.808 E13.36665
G1 X-33.394 Y20.383 E13.38787
G1 X-33.394 Y-20.683 E15.43666
G1 X-33.354 Y-21.451 E15.47502
G1 X-33.235 Y-22.211 E15.5134
G1 X-33.037 Y-22.954 E15.55176
G1 X-32.763 Y-23.673 E15.59015
G1 X-32.416 Y-24.359 E15.62851
G1 X-32 Y-25.006 E15.66688
G1 X-31.519 Y-25.606 E15.70525
G1 X-31.227 Y-25.916 E15.72649
G1 X-31.11 Y-26.033 E15.73475
G1 X-30.538 Y-26.547 E15.77311
G1 X-29.916 Y-27 E15.8115
G1 X-29.251 Y-27.386 E15.84987
G1 X-28.549 Y-27.701 E15.88825
G1 X-27.818 Y-27.941 E15.92664
G1 X-27.067 Y-28.104 E15.96498
G1 X-26.302 Y-28.188 E16.00337
G1 X-25.877 Y-28.2 E16.02458
G1 X25.878 Y-28.2 E18.60665
G1 X26.646 Y-28.16 E18.64502
G1 X27.406 Y-28.041 E18.6834
G1 X28.149 Y-27.843 E18.72176
G1 X28.868 Y-27.569 E18.76015
G1 X29.554 Y-27.222 E18.7985
G1 X30.201 Y-26.806 E18.83688
G1 X30.801 Y-26.325 E18.87524
G1 X31.111 Y-26.033 E18.89649
G1 X31.228 Y-25.916 E18.90474
G1 X31.742 Y-25.344 E18.94311
G1 X32.195 Y-24.722 E18.9815
G1 X32.581 Y-24.057 E19.01986
G1 X32.896 Y-23.355 E19.05825
G1 X33.136 Y-22.624 E19.09663
G1 X33.299 Y-21.873 E19.13497
G1 X33.383 Y-21.108 E19.17337
G1 X33.395 Y-20.684 E19.19453
G1 X33.4 Y20.682 E21.25829
G1 X33.36 Y21.45 E21.29666
G1 X33.241 Y22.21 E21.33503
G1 X33.043 Y22.953 E21.3734
G1 X32.769 Y23.672 E21.41178
G1 X32.423 Y24.359 E21.45016
G1 X32.006 Y25.006 E21.48856
G1 X31.525 Y25.606 E21.52693
G1 X31.233 Y25.916 E21.54817
G1 X31.116 Y26.033 E21.55643
G1 X30.544 Y26.547 E21.5948
G1 X29.922 Y27 E21.63319
G1 X29.257 Y27.386 E21.67155
G1 X28.555 Y27.701 E21.70993
G1 X27.824 Y27.941 E21.74832
G1 X27.073 Y28.104 E21.78666
G1 X26.308 Y28.188 E21.82505
G1 X25.883 Y28.2 E21.84627
G1 X-2.883 Y28.2 E23.28141
G1 X-3.651 Y28.16 E23.31977
G1 X-4.411 Y28.041 E23.35815
G1 X-4.94 Y27.9 E23.38547
G0 F3600 X-4.882 Y27.5
G1 F900 X-25.877 Y27.5 E24.43291
G1 X-26.624 Y27.46 E24.47023
G1 X-27.362 Y27.341 E24.50753
G1 X-28.084 Y27.143 E24.54488
G1 X-28.78 Y26.87 E24.58218
G1 X-29.443 Y26.523 E24.61951
G1 X-30.066 Y26.108 E24.65686
G1 X-30.827 Y25.45 E24.70705
G1 X-30.944 Y25.333 E24.7153
G1 X-31.444 Y24.776 E24.75265
G1 X-31.881 Y24.17 E24.78992
G1 X-32.252 Y23.52 E24.82726
G1 X-32.551 Y22.834 E24.86459
G1 X-32.775 Y22.12 E24.90193
G1 X-32.922 Y21.387 E24.93922
G1 X-32.994 Y20.383 E24.98944
G1 X-32.994 Y-20.683 E27.03823
G1 X-32.954 Y-21.43 E27.07556
G1 X-32.835 Y-22.168 E27.11285
G1 X-32.637 Y-22.89 E27.1502
G1 X-32.364 Y-23.586 E27.1875
G1 X-32.017 Y-24.249 E27.22483
G1 X-31.602 Y-24.872 E27.26218
G1 X-30.944 Y-25.633 E27.31237
G1 X-30.827 Y-25.75 E27.32063
G1 X-30.27 Y-26.25 E27.35797
G1 X-29.664 Y-26.687 E27.39524
G1 X-29.014 Y-27.058 E27.43258
G1 X-28.328 Y-27.357 E27.46992
G1 X-27.614 Y-27.581 E27.50725
G1 X-26.881 Y-27.728 E27.54455
G1 X-25.877 Y-27.8 E27.59477
G1 X25.878 Y-27.8 E30.17683
G1 X26.625 Y-27.76 E30.21415
G1 X27.363 Y-27.641 E30.25145
G1 X28.085 Y-27.443 E30.2888
G1 X28.781 Y-27.17 E30.3261
G1 X29.444 Y-26.823 E30.36343
G1 X30.067 Y-26.408 E30.40078
G1 X30.828 Y-25.75 E30.45097
G1 X30.945 Y-25.633 E30.45922
G1 X31.445 Y-25.076 E30.49657
G1 X31.882 Y-24.47 E30.53384
G1 X32.253 Y-23.82 E30.57118
G1 X32.552 Y-23.134 E30.60852
G1 X32.776 Y-22.42 E30.64585
G1 X32.923 Y-21.687 E30.68315
G1 X32.995 Y-20.684 E30.73332
G1 X33 Y20.682 E32.79707
G1 X32.96 Y21.429 E32.83439
G1 X32.841 Y22.168 E32.87174
G1 X32.643 Y22.889 E32.90904
G1 X32.37 Y23.585 E32.94634
G1 X32.024 Y24.249 E32.9837
G1 X31.609 Y24.871 E33.021
G1 X30.95 Y25.633 E33.07126
G1 X30.833 Y25.75 E33.07952
G1 X30.276 Y26.25 E33.11686
G1 X29.67 Y26.687 E33.15413
G1 X29.02 Y27.058 E33.19147
G1 X28.334 Y27.357 E33.22881
G1 X27.62 Y27.581 E33.26614
G1 X26.887 Y27.728 E33.30344
G1 X25.883 Y27.8 E33.35366
G1 X-2.883 Y27.8 E34.7888
G1 X-3.63 Y27.76 E34.82612
G1 X-4.368 Y27.641 E34.86341
G1 X-4.882 Y27.5 E34.89
G0 F3600 X-4.823 Y27.1
G1 F900 X-25.877 Y27.1 E35.94039
G1 X-26.602 Y27.06 E35.97662
G1 X-27.319 Y26.941 E36.01288
G1 X-28.018 Y26.743 E36.04912
G1 X-28.691 Y26.47 E36.08536
G1 X-29.33 Y26.125 E36.12159
G1 X-29.927 Y25.711 E36.15783
G1 X-30.544 Y25.167 E36.19887
G1 X-30.661 Y25.05 E36.20713
G1 X-31.145 Y24.509 E36.24334
G1 X-31.568 Y23.918 E36.2796
G1 X-31.922 Y23.284 E36.31583
G1 X-32.205 Y22.615 E36.35207
G1 X-32.413 Y21.919 E36.38831
G1 X-32.543 Y21.204 E36.42456
G1 X-32.594 Y20.383 E36.4656
G1 X-32.594 Y-20.683 E38.51439
G1 X-32.554 Y-21.408 E38.55062
G1 X-32.435 Y-22.125 E38.58688
G1 X-32.237 Y-22.824 E38.62313
G1 X-31.964 Y-23.497 E38.65936
G1 X-31.619 Y-24.136 E38.69559
G1 X-31.205 Y-24.733 E38.73183
G1 X-30.661 Y-25.35 E38.77287
G1 X-30.544 Y-25.467 E38.78113
G1 X-30.003 Y-25.951 E38.81734
G1 X-29.412 Y-26.374 E38.8536
G1 X-28.778 Y-26.728 E38.88983
G1 X-28.109 Y-27.011 E38.92607
G1 X-27.413 Y-27.219 E38.96231
G1 X-26.698 Y-27.349 E38.99857
G1 X-25.877 Y-27.4 E39.03961
G1 X25.878 Y-27.4 E41.62167
G1 X26.603 Y-27.36 E41.6579
G1 X27.32 Y-27.241 E41.69416
G1 X28.019 Y-27.043 E41.7304
G1 X28.692 Y-26.77 E41.76664
G1 X29.331 Y-26.425 E41.80287
G1 X29.928 Y-26.011 E41.83911
G1 X30.545 Y-25.467 E41.88015
G1 X30.662 Y-25.35 E41.88841
G1 X31.146 Y-24.809 E41.92462
G1 X31.569 Y-24.218 E41.96088
G1 X31.923 Y-23.584 E41.99711
G1 X32.206 Y-22.915 E42.03335
G1 X32.414 Y-22.219 E42.06959
G1 X32.544 Y-21.504 E42.10584
G1 X32.595 Y-20.684 E42.14683
G1 X32.6 Y20.682 E44.21059
G1 X32.56 Y21.407 E44.24682
G1 X32.441 Y22.124 E44.28308
G1 X32.243 Y22.823 E44.31932
G1 X31.97 Y23.496 E44.35556
G1 X31.625 Y24.135 E44.39179
G1 X31.212 Y24.732 E44.428
G1 X30.667 Y25.35 E44.46911
G1 X30.55 Y25.467 E44.47737
G1 X30.009 Y25.951 E44.51358
G1 X29.418 Y26.374 E44.54984
G1 X28.784 Y26.728 E44.58607
G1 X28.115 Y27.011 E44.62231
G1 X27.419 Y27.219 E44.65855
G1 X26.704 Y27.349 E44.69481
G1 X25.883 Y27.4 E44.73584
G1 X-2.883 Y27.4 E46.17099
G1 X-3.608 Y27.36 E46.20721
G1 X-4.325 Y27.241 E46.24347
G1 X-4.823 Y27.1 E46.26929
G0 F3600 X-4.761 Y26.7
G1 F900 X-25.877 Y26.7 E47.32278
G1 X-26.58 Y26.66 E47.35791
G1 X-27.274 Y26.541 E47.39303
G1 X-27.949 Y26.343 E47.42813
G1 X-28.598 Y26.071 E47.46324
G1 X-29.212 Y25.726 E47.49837
G1 X-29.783 Y25.315 E47.53347
G1 X-30.261 Y24.884 E47.56558
G1 X-30.378 Y24.767 E47.57384
G1 X-30.847 Y24.242 E47.60896
G1 X-31.253 Y23.667 E47.64408
G1 X-31.591 Y23.049 E47.67922
G1 X-31.858 Y22.398 E47.71432
G1 X-32.048 Y21.72 E47.74945
G1 X-32.161 Y21.025 E47.78458
G1 X-32.194 Y20.383 E47.81665
G1 X-32.194 Y-20.683 E49.86544
G1 X-32.154 Y-21.386 E49.90057
G1 X-32.035 Y-22.08 E49.9357
G1 X-31.837 Y-22.755 E49.9708
G1 X-31.565 Y-23.404 E50.00591
G1 X-31.22 Y-24.018 E50.04104
G1 X-30.809 Y-24.589 E50.07614
G1 X-30.378 Y-25.067 E50.10825
G1 X-30.261 Y-25.184 E50.11651
G1 X-29.736 Y-25.653 E50.15163
G1 X-29.161 Y-26.059 E50.18675
G1 X-28.543 Y-26.397 E50.22189
G1 X-27.892 Y-26.664 E50.25699
G1 X-27.214 Y-26.854 E50.29212
G1 X-26.519 Y-26.967 E50.32725
G1 X-25.877 Y-27 E50.35932
G1 X25.878 Y-27 E52.94139
G1 X26.581 Y-26.96 E52.97652
G1 X27.275 Y-26.841 E53.01165
G1 X27.95 Y-26.643 E53.04674
G1 X28.599 Y-26.371 E53.08185
G1 X29.213 Y-26.026 E53.11699
G1 X29.784 Y-25.615 E53.15209
G1 X30.262 Y-25.184 E53.1842
G1 X30.379 Y-25.067 E53.19245
G1 X30.848 Y-24.542 E53.22757
G1 X31.254 Y-23.967 E53.26269
G1 X31.592 Y-23.349 E53.29783
G1 X31.859 Y-22.698 E53.33294
G1 X32.049 Y-22.02 E53.36807
G1 X32.162 Y-21.325 E53.40319
G1 X32.195 Y-20.684 E53.43522
G1 X32.2 Y20.682 E55.49897
G1 X32.16 Y21.385 E55.5341
G1 X32.041 Y22.079 E55.56923
G1 X31.844 Y22.755 E55.60436
G1 X31.571 Y23.404 E55.63949
G1 X31.227 Y24.018 E55.6746
G1 X30.815 Y24.589 E55.70973
G1 X30.384 Y25.067 E55.74184
G1 X30.267 Y25.184 E55.7501
G1 X29.742 Y25.653 E55.78522
G1 X29.167 Y26.059 E55.82033
G1 X28.549 Y26.397 E55.85548
G1 X27.898 Y26.664 E55.89058
G1 X27.22 Y26.854 E55.92571
G1 X26.525 Y26.967 E55.96084
G1 X25.883 Y27 E55.99291
G1 X-2.883 Y27 E57.42805
G1 X-3.586 Y26.96 E57.46318
G1 X-4.28 Y26.841 E57.49831
G1 X-4.761 Y26.7 E57.52332
G0 F3600 X-4.7 Y26.3
G1 F900 X-25.877 Y26.3 E58.57984
G1 X-26.557 Y26.26 E58.61383
G1 X-27.227 Y26.141 E58.64778
G1 X-27.879 Y25.944 E58.68176
G1 X-28.503 Y25.672 E58.71572
G1 X-29.091 Y25.328 E58.7497
G1 X-29.635 Y24.918 E58.78369
G1 X-29.978 Y24.601 E58.80699
G1 X-30.095 Y24.484 E58.81525
G1 X-30.548 Y23.975 E58.84924
G1 X-30.937 Y23.417 E58.88318
G1 X-31.259 Y22.817 E58.91715
G1 X-31.508 Y22.183 E58.95113
G1 X-31.681 Y21.524 E58.98512
G1 X-31.775 Y20.85 E59.01907
G1 X-31.794 Y20.383 E59.04239
G1 X-31.794 Y-20.683 E61.09118
G1 X-31.754 Y-21.363 E61.12517
G1 X-31.635 Y-22.033 E61.15912
G1 X-31.438 Y-22.685 E61.1931
G1 X-31.166 Y-23.309 E61.22706
G1 X-30.822 Y-23.897 E61.26104
G1 X-30.412 Y-24.441 E61.29503
G1 X-30.095 Y-24.784 E61.31833
G1 X-29.978 Y-24.901 E61.32659
G1 X-29.469 Y-25.354 E61.36058
G1 X-28.911 Y-25.743 E61.39452
G1 X-28.311 Y-26.065 E61.42849
G1 X-27.677 Y-26.314 E61.46247
G1 X-27.018 Y-26.487 E61.49646
G1 X-26.344 Y-26.581 E61.53041
G1 X-25.877 Y-26.6 E61.55373
G1 X25.878 Y-26.6 E64.1358
G1 X26.558 Y-26.56 E64.16978
G1 X27.228 Y-26.441 E64.20373
G1 X27.88 Y-26.244 E64.23771
G1 X28.504 Y-25.972 E64.27167
G1 X29.092 Y-25.628 E64.30566
G1 X29.636 Y-25.218 E64.33965
G1 X29.979 Y-24.901 E64.36295
G1 X30.096 Y-24.784 E64.3712
G1 X30.549 Y-24.275 E64.4052
G1 X30.938 Y-23.717 E64.43913
G1 X31.26 Y-23.117 E64.47311
G1 X31.509 Y-22.483 E64.50709
G1 X31.682 Y-21.824 E64.54108
G1 X31.776 Y-21.15 E64.57503
G1 X31.795 Y-20.684 E64.5983
G1 X31.8 Y20.682 E66.66206
G1 X31.76 Y21.362 E66.69604
G1 X31.641 Y22.032 E66.72999
G1 X31.444 Y22.684 E66.76397
G1 X31.172 Y23.308 E66.79793
G1 X30.829 Y23.896 E66.83189
G1 X30.419 Y24.44 E66.86588
G1 X30.101 Y24.784 E66.88925
G1 X29.984 Y24.901 E66.89751
G1 X29.475 Y25.354 E66.9315
G1 X28.917 Y25.743 E66.96544
G1 X28.317 Y26.065 E66.99941
G1 X27.683 Y26.314 E67.03339
G1 X27.024 Y26.487 E67.06738
G1 X26.35 Y26.581 E67.10134
G1 X25.883 Y26.6 E67.12465
G1 X-2.883 Y26.6 E68.55979
G1 X-3.563 Y26.56 E68.59378
G1 X-4.233 Y26.441 E68.62773
G1 X-4.7 Y26.3 E68.65207
G0 F3600 X-4.634 Y25.9
G1 F900 X-25.877 Y25.9 E69.71188
G1 X-26.533 Y25.86 E69.74467
G1 X-27.179 Y25.741 E69.77744
G1 X-27.806 Y25.544 E69.81023
G1 X-28.404 Y25.272 E69.84301
G1 X-28.965 Y24.93 E69.87579
G1 X-29.695 Y24.318 E69.92331
G1 X-29.812 Y24.201 E69.93157
G1 X-30.248 Y23.709 E69.96436
G1 X-30.62 Y23.168 E69.99712
G1 X-30.924 Y22.586 E70.02988
G1 X-31.155 Y21.971 E70.06265
G1 X-31.31 Y21.332 E70.09546
G1 X-31.394 Y20.383 E70.14299
G1 X-31.394 Y-20.683 E72.19178
G1 X-31.354 Y-21.339 E72.22457
G1 X-31.235 Y-21.985 E72.25734
G1 X-31.038 Y-22.612 E72.29013
G1 X-30.766 Y-23.21 E72.32291
G1 X-30.424 Y-23.771 E72.35568
G1 X-29.812 Y-24.501 E72.40321
G1 X-29.695 Y-24.618 E72.41146
G1 X-29.203 Y-25.054 E72.44426
G1 X-28.662 Y-25.426 E72.47702
G1 X-28.08 Y-25.73 E72.50978
G1 X-27.465 Y-25.961 E72.54255
G1 X-26.826 Y-26.116 E72.57536
G1 X-25.877 Y-26.2 E72.62289
G1 X25.878 Y-26.2 E75.20495
G1 X26.534 Y-26.16 E75.23774
G1 X27.18 Y-26.041 E75.27051
G1 X27.807 Y-25.844 E75.3033
G1 X28.405 Y-25.572 E75.33608
G1 X28.966 Y-25.23 E75.36886
G1 X29.696 Y-24.618 E75.41638
G1 X29.813 Y-24.501 E75.42464
G1 X30.249 Y-24.009 E75.45744
G1 X30.621 Y-23.468 E75.49019
G1 X30.925 Y-22.886 E75.52295
G1 X31.156 Y-22.271 E75.55573
G1 X31.311 Y-21.632 E75.58853
G1 X31.395 Y-20.684 E75.63601
G1 X31.4 Y20.682 E77.69977
G1 X31.36 Y21.338 E77.73256
G1 X31.241 Y21.984 E77.76533
G1 X31.044 Y22.611 E77.79812
G1 X30.773 Y23.209 E77.83087
G1 X30.431 Y23.77 E77.86365
G1 X29.818 Y24.501 E77.91125
G1 X29.701 Y24.618 E77.9195
G1 X29.209 Y25.054 E77.9523
G1 X28.668 Y25.426 E77.98506
G1 X28.086 Y25.73 E78.01781
G1 X27.471 Y25.961 E78.05059
G1 X26.832 Y26.116 E78.08339
G1 X25.883 Y26.2 E78.13092
G1 X-2.883 Y26.2 E79.56607
G1 X-3.539 Y26.16 E79.59886
G1 X-4.185 Y26.041 E79.63163
G1 X-4.634 Y25.9 E79.65511
G0 F3600 X-4.564 Y25.5
G1 F900 X-25.877 Y25.5 E80.71842
G1 X-26.508 Y25.46 E80.74996
G1 X-27.129 Y25.341 E80.78151
G1 X-27.729 Y25.144 E80.81301
G1 X-28.301 Y24.873 E80.84459
G1 X-28.833 Y24.533 E80.87609
G1 X-29.413 Y24.036 E80.9142
G1 X-29.53 Y23.919 E80.92245
G1 X-29.947 Y23.444 E80.95398
G1 X-30.302 Y22.921 E80.98552
G1 X-30.588 Y22.357 E81.01707
G1 X-30.8 Y21.762 E81.04858
G1 X-30.936 Y21.144 E81.08015
G1 X-30.994 Y20.383 E81.11823
G1 X-30.994 Y-20.683 E83.16702
G1 X-30.954 Y-21.314 E83.19856
G1 X-30.835 Y-21.935 E83.23011
G1 X-30.638 Y-22.535 E83.26161
G1 X-30.367 Y-23.107 E83.29319
G1 X-30.027 Y-23.639 E83.32469
G1 X-29.53 Y-24.219 E83.3628
G1 X-29.413 Y-24.336 E83.37105
G1 X-28.938 Y-24.753 E83.40259
G1 X-28.415 Y-25.108 E83.43412
G1 X-27.851 Y-25.394 E83.46567
G1 X-27.256 Y-25.606 E83.49719
G1 X-26.638 Y-25.742 E83.52876
G1 X-25.877 Y-25.8 E83.56683
G1 X25.878 Y-25.8 E86.1489
G1 X26.509 Y-25.76 E86.18044
G1 X27.13 Y-25.641 E86.21199
G1 X27.73 Y-25.444 E86.24349
G1 X28.302 Y-25.173 E86.27507
G1 X28.834 Y-24.833 E86.30657
G1 X29.414 Y-24.336 E86.34468
G1 X29.531 Y-24.219 E86.35293
G1 X29.948 Y-23.744 E86.38447
G1 X30.303 Y-23.221 E86.416
G1 X30.589 Y-22.657 E86.44755
G1 X30.801 Y-22.062 E86.47907
G1 X30.937 Y-21.444 E86.51064
G1 X30.995 Y-20.684 E86.54866
G1 X31 Y20.682 E88.61242
G1 X30.96 Y21.313 E88.64396
G1 X30.841 Y21.934 E88.67551
