;FLAVOR:RepRap
;TIME:20014
;Filament used: 12.497m
;Layer height: 0.2
;Generated with Cura_SteamEngine 2.6.2
M104 S200
M109 S200
G28 ;Home
G1 Z15.0 F6000 ;Move the platform down 15mm
;Prime the extruder
G92 E0
G1 F200 E3
G92 E0
;LAYER_COUNT:100
;LAYER:0
M107
G0 F3600 X37.6 Y-49.883 Z0.3
;TYPE:SKIRT
G1 F900 X37.6 Y49.883 E4.97735
G1 X37.56 Y50.672 E5.01676
G1 X37.441 Y51.452 E5.05612
G1 X37.243 Y52.217 E5.09555
G1 X36.969 Y52.957 E5.13492
G1 X36.621 Y53.666 E5.17432
G1 X36.203 Y54.337 E5.21376
G1 X35.72 Y54.961 E5.25313
G1 X35.315 Y55.398 E5.28285
G1 X35.198 Y55.515 E5.29111
G1 X34.612 Y56.045 E5.33053
G1 X33.976 Y56.512 E5.36989
G1 X33.296 Y56.913 E5.40928
G1 X32.578 Y57.243 E5.4487
G1 X31.831 Y57.498 E5.48808
G1 X31.062 Y57.677 E5.52747
G1 X30.278 Y57.777 E5.5669
G1 X29.683 Y57.8 E5.59661
G1 X-29.683 Y57.8 E8.55839
G1 X-30.472 Y57.76 E8.59781
G1 X-31.252 Y57.641 E8.63717
G1 X-32.017 Y57.443 E8.67659
G1 X-32.757 Y57.169 E8.71596
G1 X-33.466 Y56.821 E8.75537
G1 X-34.137 Y56.403 E8.79481
G1 X-34.761 Y55.92 E8.83417
G1 X-35.198 Y55.515 E8.8639
G1 X-35.315 Y55.398 E8.87215
G1 X-35.845 Y54.812 E8.91157
G1 X-36.312 Y54.176 E8.95094
G1 X-36.713 Y53.496 E8.99032
G1 X-37.043 Y52.778 E9.02975
G1 X-37.298 Y52.031 E9.06913
G1 X-37.477 Y51.262 E9.10852
G1 X-37.577 Y50.478 E9.14795
G1 X-37.6 Y49.883 E9.17766
G1 X-37.6 Y-49.883 E14.155
G1 X-37.56 Y-50.672 E14.19442
G1 X-37.441 Y-51.452 E14.23378
G1 X-37.243 Y-52.217 E14.2732
G1 X-36.969 Y-52.957 E14.31257
G1 X-36.621 Y-53.666 E14.35198
G1 X-36.203 Y-54.337 E14.39142
G1 X-35.72 Y-54.961 E14.43078
G1 X-35.315 Y-55.398 E14.46051
G1 X-35.198 Y-55.515 E14.46876
G1 X-34.612 Y-56.045 E14.50818
G1 X-33.976 Y-56.512 E14.54755
G1 X-33.296 Y-56.913 E14.58693
G1 X-32.578 Y-57.243 E14.62636
G1 X-31.831 Y-57.498 E14.66574
G1 X-31.062 Y-57.677 E14.70513
G1 X-30.278 Y-57.777 E14.74456
G1 X-29.683 Y-57.8 E14.77427
G1 X29.683 Y-57.8 E17.73605
G1 X30.472 Y-57.76 E17.77546
G1 X31.252 Y-57.641 E17.81483
G1 X32.017 Y-57.443 E17.85425
G1 X32.757 Y-57.169 E17.89362
G1 X33.466 Y-56.821 E17.93302
G1 X34.137 Y-56.403 E17.97246
G1 X34.761 Y-55.92 E18.01183
G1 X35.198 Y-55.515 E18.04156
G1 X35.315 Y-55.398 E18.04981
G1 X35.845 Y-54.812 E18.08923
G1 X36.312 Y-54.176 E18.1286
G1 X36.713 Y-53.496 E18.16798
G1 X37.043 Y-52.778 E18.2074
G1 X37.298 Y-52.031 E18.24678
G1 X37.477 Y-51.262 E18.28617
G1 X37.577 Y-50.478 E18.32561
G1 X37.6 Y-49.883 E18.35531
G0 F3600 X37.2 Y-49.883
G1 F900 X37.2 Y49.883 E23.33266
G1 X37.16 Y50.651 E23.37103
G1 X37.041 Y51.411 E23.4094
G1 X36.843 Y52.154 E23.44777
G1 X36.569 Y52.873 E23.48615
G1 X36.222 Y53.559 E23.52451
G1 X35.806 Y54.206 E23.56288
G1 X35.325 Y54.806 E23.60125
G1 X35.033 Y55.116 E23.6225
G1 X34.916 Y55.233 E23.63075
G1 X34.344 Y55.747 E23.66912
G1 X33.722 Y56.2 E23.70751
G1 X33.057 Y56.586 E23.74587
G1 X32.355 Y56.901 E23.78425
G1 X31.624 Y57.141 E23.82264
G1 X30.873 Y57.304 E23.86098
G1 X30.108 Y57.388 E23.89937
G1 X29.683 Y57.4 E23.92059
G1 X-29.683 Y57.4 E26.88237
G1 X-30.451 Y57.36 E26.92074
G1 X-31.211 Y57.241 E26.95911
G1 X-31.954 Y57.043 E26.99748
G1 X-32.673 Y56.769 E27.03586
G1 X-33.359 Y56.422 E27.07422
G1 X-34.006 Y56.006 E27.11259
G1 X-34.606 Y55.525 E27.15096
G1 X-34.916 Y55.233 E27.17221
G1 X-35.033 Y55.116 E27.18046
G1 X-35.547 Y54.544 E27.21883
G1 X-36 Y53.922 E27.25722
G1 X-36.386 Y53.257 E27.29558
G1 X-36.701 Y52.555 E27.33396
G1 X-36.941 Y51.824 E27.37235
G1 X-37.104 Y51.073 E27.41069
G1 X-37.188 Y50.308 E27.44908
G1 X-37.2 Y49.883 E27.4703
G1 X-37.2 Y-49.883 E32.44764
G1 X-37.16 Y-50.651 E32.48601
G1 X-37.041 Y-51.411 E32.52439
G1 X-36.843 Y-52.154 E32.56275
G1 X-36.569 Y-52.873 E32.60114
G1 X-36.222 Y-53.559 E32.63949
G1 X-35.806 Y-54.206 E32.67787
G1 X-35.325 Y-54.806 E32.71623
G1 X-35.033 Y-55.116 E32.73748
G1 X-34.916 Y-55.233 E32.74573
G1 X-34.344 Y-55.747 E32.7841
G1 X-33.722 Y-56.2 E32.82249
G1 X-33.057 Y-56.586 E32.86085
G1 X-32.355 Y-56.901 E32.89924
G1 X-31.624 Y-57.141 E32.93762
G1 X-30.873 Y-57.304 E32.97596
G1 X-30.108 Y-57.388 E33.01436
G1 X-29.683 Y-57.4 E33.03557
G1 X29.683 Y-57.4 E35.99735
G1 X30.451 Y-57.36 E36.03572
G1 X31.211 Y-57.241 E36.0741
G1 X31.954 Y-57.043 E36.11246
G1 X32.673 Y-56.769 E36.15085
G1 X33.359 Y-56.422 E36.1892
G1 X34.006 Y-56.006 E36.22758
G1 X34.606 Y-55.525 E36.26594
G1 X34.916 Y-55.233 E36.28719
G1 X35.033 Y-55.116 E36.29544
G1 X35.547 Y-54.544 E36.33381
G1 X36 Y-53.922 E36.3722
G1 X36.386 Y-53.257 E36.41056
G1 X36.701 Y-52.555 E36.44895
G1 X36.941 Y-51.824 E36.48733
G1 X37.104 Y-51.073 E36.52567
G1 X37.188 Y-50.308 E36.56407
G1 X37.2 Y-49.883 E36.58528
G0 F3600 X36.8 Y-49.883
G1 F900 X36.8 Y49.883 E41.56263
G1 X36.76 Y50.63 E41.59995
G1 X36.641 Y51.368 E41.63724
G1 X36.443 Y52.09 E41.67459
G1 X36.17 Y52.786 E41.71189
G1 X35.823 Y53.449 E41.74923
G1 X35.408 Y54.072 E41.78657
G1 X34.75 Y54.833 E41.83676
G1 X34.633 Y54.95 E41.84502
G1 X34.076 Y55.45 E41.88236
G1 X33.47 Y55.887 E41.91963
G1 X32.82 Y56.258 E41.95697
G1 X32.134 Y56.557 E41.99431
G1 X31.42 Y56.781 E42.03164
G1 X30.687 Y56.928 E42.06894
G1 X29.683 Y57 E42.11916
G1 X-29.683 Y57 E45.08094
G1 X-30.43 Y56.96 E45.11826
G1 X-31.168 Y56.841 E45.15556
G1 X-31.89 Y56.643 E45.19291
G1 X-32.586 Y56.37 E45.23021
G1 X-33.249 Y56.023 E45.26754
G1 X-33.872 Y55.608 E45.30489
G1 X-34.633 Y54.95 E45.35508
G1 X-34.75 Y54.833 E45.36333
G1 X-35.25 Y54.276 E45.40067
G1 X-35.687 Y53.67 E45.43795
G1 X-36.058 Y53.02 E45.47529
G1 X-36.357 Y52.334 E45.51262
G1 X-36.581 Y51.62 E45.54996
G1 X-36.728 Y50.887 E45.58725
G1 X-36.8 Y49.883 E45.63747
G1 X-36.8 Y-49.883 E50.61482
G1 X-36.76 Y-50.63 E50.65214
G1 X-36.641 Y-51.368 E50.68943
G1 X-36.443 Y-52.09 E50.72678
G1 X-36.17 Y-52.786 E50.76408
G1 X-35.823 Y-53.449 E50.80142
G1 X-35.408 Y-54.072 E50.83876
G1 X-34.75 Y-54.833 E50.88895
G1 X-34.633 Y-54.95 E50.89721
G1 X-34.076 Y-55.45 E50.93455
G1 X-33.47 Y-55.887 E50.97183
G1 X-32.82 Y-56.258 E51.00917
G1 X-32.134 Y-56.557 E51.0465
G1 X-31.42 Y-56.781 E51.08383
G1 X-30.687 Y-56.928 E51.12113
G1 X-29.683 Y-57 E51.17135
G1 X29.683 Y-57 E54.13313
G1 X30.43 Y-56.96 E54.17045
G1 X31.168 Y-56.841 E54.20775
G1 X31.89 Y-56.643 E54.2451
G1 X32.586 Y-56.37 E54.2824
G1 X33.249 Y-56.023 E54.31973
G1 X33.872 Y-55.608 E54.35708
G1 X34.633 Y-54.95 E54.40727
G1 X34.75 Y-54.833 E54.41552
G1 X35.25 Y-54.276 E54.45286
G1 X35.687 Y-53.67 E54.49014
G1 X36.058 Y-53.02 E54.52748
G1 X36.357 Y-52.334 E54.56481
G1 X36.581 Y-51.62 E54.60215
G1 X36.728 Y-50.887 E54.63944
G1 X36.8 Y-49.883 E54.68966
G0 F3600 X36.4 Y-49.883
G1 F900 X36.4 Y49.883 E59.66701
G1 X36.36 Y50.608 E59.70323
G1 X36.241 Y51.325 E59.73949
G1 X36.043 Y52.024 E59.77574
G1 X35.77 Y52.697 E59.81197
G1 X35.425 Y53.336 E59.8482
G1 X35.011 Y53.933 E59.88445
G1 X34.467 Y54.55 E59.92549
G1 X34.35 Y54.667 E59.93374
G1 X33.809 Y55.151 E59.96996
G1 X33.218 Y55.574 E60.00622
G1 X32.584 Y55.928 E60.04244
G1 X31.915 Y56.211 E60.07868
G1 X31.219 Y56.419 E60.11492
G1 X30.504 Y56.549 E60.15118
G1 X29.683 Y56.6 E60.19222
G1 X-29.683 Y56.6 E63.154
G1 X-30.408 Y56.56 E63.19023
G1 X-31.125 Y56.441 E63.22649
G1 X-31.824 Y56.243 E63.26273
G1 X-32.497 Y55.97 E63.29897
G1 X-33.136 Y55.625 E63.3352
G1 X-33.733 Y55.211 E63.37144
G1 X-34.35 Y54.667 E63.41248
G1 X-34.467 Y54.55 E63.42073
G1 X-34.951 Y54.009 E63.45695
G1 X-35.374 Y53.418 E63.49321
G1 X-35.728 Y52.784 E63.52944
G1 X-36.011 Y52.115 E63.56568
G1 X-36.219 Y51.419 E63.60192
G1 X-36.349 Y50.704 E63.63817
G1 X-36.4 Y49.883 E63.67921
G1 X-36.4 Y-49.883 E68.65656
G1 X-36.36 Y-50.608 E68.69278
G1 X-36.241 Y-51.325 E68.72904
G1 X-36.043 Y-52.024 E68.76529
G1 X-35.77 Y-52.697 E68.80152
G1 X-35.425 Y-53.336 E68.83775
G1 X-35.011 Y-53.933 E68.874
G1 X-34.467 Y-54.55 E68.91504
G1 X-34.35 Y-54.667 E68.92329
G1 X-33.809 Y-55.151 E68.95951
G1 X-33.218 Y-55.574 E68.99577
G1 X-32.584 Y-55.928 E69.03199
G1 X-31.915 Y-56.211 E69.06823
G1 X-31.219 Y-56.419 E69.10447
G1 X-30.504 Y-56.549 E69.14073
G1 X-29.683 Y-56.6 E69.18177
G1 X29.683 Y-56.6 E72.14355
G1 X30.408 Y-56.56 E72.17978
G1 X31.125 Y-56.441 E72.21604
G1 X31.824 Y-56.243 E72.25228
G1 X32.497 Y-55.97 E72.28851
G1 X33.136 Y-55.625 E72.32474
G1 X33.733 Y-55.211 E72.36099
G1 X34.35 Y-54.667 E72.40203
G1 X34.467 Y-54.55 E72.41028
G1 X34.951 Y-54.009 E72.4465
G1 X35.374 Y-53.418 E72.48276
G1 X35.728 Y-52.784 E72.51898
G1 X36.011 Y-52.115 E72.55522
G1 X36.219 Y-51.419 E72.59147
G1 X36.349 Y-50.704 E72.62772
G1 X36.4 Y-49.883 E72.66876
G0 F3600 X36 Y-49.883
G1 F900 X36 Y49.883 E77.64611
G1 X35.96 Y50.586 E77.68124
G1 X35.841 Y51.28 E77.71637
G1 X35.643 Y51.955 E77.75146
G1 X35.371 Y52.604 E77.78657
G1 X35.026 Y53.218 E77.8217
G1 X34.615 Y53.789 E77.8568
G1 X34.184 Y54.267 E77.88891
G1 X34.067 Y54.384 E77.89717
G1 X33.542 Y54.853 E77.93229
G1 X32.967 Y55.259 E77.96741
G1 X32.349 Y55.597 E78.00255
G1 X31.698 Y55.864 E78.03765
G1 X31.02 Y56.054 E78.07278
G1 X30.325 Y56.167 E78.10791
G1 X29.683 Y56.2 E78.13998
G1 X-29.683 Y56.2 E81.10177
G1 X-30.386 Y56.16 E81.1369
G1 X-31.08 Y56.041 E81.17202
G1 X-31.755 Y55.843 E81.20712
G1 X-32.404 Y55.571 E81.24223
G1 X-33.018 Y55.226 E81.27736
G1 X-33.589 Y54.815 E81.31246
G1 X-34.067 Y54.384 E81.34457
G1 X-34.184 Y54.267 E81.35283
G1 X-34.653 Y53.742 E81.38795
G1 X-35.059 Y53.167 E81.42307
G1 X-35.397 Y52.549 E81.45821
G1 X-35.664 Y51.898 E81.49331
G1 X-35.854 Y51.22 E81.52844
G1 X-35.967 Y50.525 E81.56357
G1 X-36 Y49.883 E81.59564
G1 X-36 Y-49.883 E86.57299
G1 X-35.96 Y-50.586 E86.60812
G1 X-35.841 Y-51.28 E86.64325
G1 X-35.643 Y-51.955 E86.67834
G1 X-35.371 Y-52.604 E86.71345
G1 X-35.026 Y-53.218 E86.74859
G1 X-34.615 Y-53.789 E86.78369
G1 X-34.184 Y-54.267 E86.8158
G1 X-34.067 Y-54.384 E86.82405
G1 X-33.542 Y-54.853 E86.85917
G1 X-32.967 Y-55.259 E86.89429
G1 X-32.349 Y-55.597 E86.92943
G1 X-31.698 Y-55.864 E86.96454
G1 X-31.02 Y-56.054 E86.99967
G1 X-30.325 Y-56.167 E87.03479
G1 X-29.683 Y-56.2 E87.06687
G1 X29.683 Y-56.2 E90.02865
G1 X30.386 Y-56.16 E90.06378
G1 X31.08 Y-56.041 E90.09891
G1 X31.755 Y-55.843 E90.134
G1 X32.404 Y-55.571 E90.16911
G1 X33.018 Y-55.226 E90.20425
G1 X33.589 Y-54.815 E90.23935
G1 X34.067 Y-54.384 E90.27146
G1 X34.184 Y-54.267 E90.27971
G1 X34.653 Y-53.742 E90.31483
G1 X35.059 Y-53.167 E90.34995
G1 X35.397 Y-52.549 E90.38509
G1 X35.664 Y-51.898 E90.4202
G1 X35.854 Y-51.22 E90.45533
G1 X35.967 Y-50.525 E90.49045
G1 X36 Y-49.883 E90.52253
G0 F3600 X35.6 Y-49.883
G1 F900 X35.6 Y49.883 E95.49987
G1 X35.56 Y50.563 E95.53386
G1 X35.441 Y51.233 E95.56781
G1 X35.244 Y51.885 E95.60179
G1 X34.972 Y52.509 E95.63575
G1 X34.628 Y53.097 E95.66973
G1 X34.218 Y53.641 E95.70372
G1 X33.901 Y53.984 E95.72702
G1 X33.784 Y54.101 E95.73528
G1 X33.275 Y54.554 E95.76927
G1 X32.717 Y54.943 E95.80321
G1 X32.117 Y55.265 E95.83718
G1 X31.483 Y55.514 E95.87116
G1 X30.824 Y55.687 E95.90515
G1 X30.15 Y55.781 E95.9391
G1 X29.683 Y55.8 E95.96242
G1 X-29.683 Y55.8 E98.9242
G1 X-30.363 Y55.76 E98.95819
G1 X-31.033 Y55.641 E98.99214
G1 X-31.685 Y55.444 E99.02612
G1 X-32.309 Y55.172 E99.06008
G1 X-32.897 Y54.828 E99.09407
G1 X-33.441 Y54.418 E99.12805
G1 X-33.784 Y54.101 E99.15135
G1 X-33.901 Y53.984 E99.15961
G1 X-34.354 Y53.475 E99.1936
G1 X-34.743 Y52.917 E99.22754
G1 X-35.065 Y52.317 E99.26151
G1 X-35.314 Y51.683 E99.29549
G1 X-35.487 Y51.024 E99.32948
G1 X-35.581 Y50.35 E99.36344
G1 X-35.6 Y49.883 E99.38675
G1 X-35.6 Y-49.883 E104.3641
G1 X-35.56 Y-50.563 E104.39808
G1 X-35.441 Y-51.233 E104.43203
G1 X-35.244 Y-51.885 E104.46601
G1 X-34.972 Y-52.509 E104.49997
G1 X-34.628 Y-53.097 E104.53396
G1 X-34.218 Y-53.641 E104.56795
G1 X-33.901 Y-53.984 E104.59125
G1 X-33.784 Y-54.101 E104.5995
G1 X-33.275 Y-54.554 E104.6335
G1 X-32.717 Y-54.943 E104.66743
G1 X-32.117 Y-55.265 E104.70141
G1 X-31.483 Y-55.514 E104.73539
G1 X-30.824 Y-55.687 E104.76938
G1 X-30.15 Y-55.781 E104.80333
G1 X-29.683 Y-55.8 E104.82665
G1 X29.683 Y-55.8 E107.78843
G1 X30.363 Y-55.76 E107.82241
G1 X31.033 Y-55.641 E107.85636
G1 X31.685 Y-55.444 E107.89034
G1 X32.309 Y-55.172 E107.92431
G1 X32.897 Y-54.828 E107.95829
G1 X33.441 Y-54.418 E107.99228
G1 X33.784 Y-54.101 E108.01558
G1 X33.901 Y-53.984 E108.02383
G1 X34.354 Y-53.475 E108.05783
G1 X34.743 Y-52.917 E108.09176
G1 X35.065 Y-52.317 E108.12574
G1 X35.314 Y-51.683 E108.15972
G1 X35.487 Y-51.024 E108.19371
G1 X35.581 Y-50.35 E108.22766
G1 X35.6 Y-49.883 E108.25098
G0 F3600 X35.2 Y-49.883
G1 F900 X35.2 Y49.883 E113.22833
G1 X35.16 Y50.539 E113.26111
G1 X35.041 Y51.185 E113.29389
G1 X34.844 Y51.812 E113.32668
G1 X34.572 Y52.41 E113.35945
G1 X34.23 Y52.971 E113.39223
G1 X33.618 Y53.701 E113.43976
G1 X33.501 Y53.818 E113.44801
G1 X33.009 Y54.254 E113.48081
G1 X32.468 Y54.626 E113.51356
G1 X31.886 Y54.93 E113.54632
G1 X31.271 Y55.161 E113.5791
G1 X30.632 Y55.316 E113.6119
G1 X29.683 Y55.4 E113.65943
G1 X-29.683 Y55.4 E116.62121
G1 X-30.339 Y55.36 E116.654
G1 X-30.985 Y55.241 E116.68677
G1 X-31.612 Y55.044 E116.71956
G1 X-32.21 Y54.772 E116.75234
G1 X-32.771 Y54.43 E116.78512
G1 X-33.501 Y53.818 E116.83264
G1 X-33.618 Y53.701 E116.8409
G1 X-34.054 Y53.209 E116.8737
G1 X-34.426 Y52.668 E116.90645
G1 X-34.73 Y52.086 E116.93921
G1 X-34.961 Y51.471 E116.97199
G1 X-35.116 Y50.832 E117.00479
G1 X-35.2 Y49.883 E117.05232
G1 X-35.2 Y-49.883 E122.02967
G1 X-35.16 Y-50.539 E122.06246
G1 X-35.041 Y-51.185 E122.09523
G1 X-34.844 Y-51.812 E122.12802
G1 X-34.572 Y-52.41 E122.16079
G1 X-34.23 Y-52.971 E122.19357
G1 X-33.618 Y-53.701 E122.2411
G1 X-33.501 Y-53.818 E122.24935
G1 X-33.009 Y-54.254 E122.28215
G1 X-32.468 Y-54.626 E122.3149
G1 X-31.886 Y-54.93 E122.34766
G1 X-31.271 Y-55.161 E122.38044
G1 X-30.632 Y-55.316 E122.41324
G1 X-29.683 Y-55.4 E122.46077
G1 X29.683 Y-55.4 E125.42255
G1 X30.339 Y-55.36 E125.45534
G1 X30.985 Y-55.241 E125.48811
G1 X31.612 Y-55.044 E125.5209
G1 X32.21 Y-54.772 E125.55368
G1 X32.771 Y-54.43 E125.58646
G1 X33.501 Y-53.818 E125.63398
G1 X33.618 Y-53.701 E125.64224
G1 X34.054 Y-53.209 E125.67504
G1 X34.426 Y-52.668 E125.70779
G1 X34.73 Y-52.086 E125.74055
G1 X34.961 Y-51.471 E125.77333
G1 X35.116 Y-50.832 E125.80613
G1 X35.2 Y-49.883 E125.85366
G0 F3600 X34.8 Y-49.883
G1 F900 X34.8 Y49.883 E130.83101
G1 X34.76 Y50.514 E130.86255
G1 X34.641 Y51.135 E130.8941
G1 X34.444 Y51.735 E130.9256
G1 X34.173 Y52.307 E130.95718
G1 X33.833 Y52.839 E130.98868
G1 X33.336 Y53.419 E131.02679
G1 X33.219 Y53.536 E131.03504
G1 X32.744 Y53.953 E131.06657
G1 X32.221 Y54.308 E131.09811
G1 X31.657 Y54.594 E131.12966
G1 X31.062 Y54.806 E131.16117
G1 X30.444 Y54.942 E131.19274
G1 X29.683 Y55 E131.23082
G1 X-29.683 Y55 E134.1926
G1 X-30.314 Y54.96 E134.22414
G1 X-30.935 Y54.841 E134.25569
G1 X-31.535 Y54.644 E134.2872
G1 X-32.107 Y54.373 E134.31877
G1 X-32.639 Y54.033 E134.35027
G1 X-33.219 Y53.536 E134.38838
G1 X-33.336 Y53.419 E134.39664
G1 X-33.753 Y52.944 E134.42817
G1 X-34.108 Y52.421 E134.45971
G1 X-34.394 Y51.857 E134.49125
G1 X-34.606 Y51.262 E134.52277
G1 X-34.742 Y50.644 E134.55434
G1 X-34.8 Y49.883 E134.59241
G1 X-34.8 Y-49.883 E139.56976
G1 X-34.76 Y-50.514 E139.6013
G1 X-34.641 Y-51.135 E139.63285
G1 X-34.444 Y-51.735 E139.66435
G1 X-34.173 Y-52.307 E139.69593
G1 X-33.833 Y-52.839 E139.72743
G1 X-33.336 Y-53.419 E139.76554
G1 X-33.219 Y-53.536 E139.77379
G1 X-32.744 Y-53.953 E139.80533
G1 X-32.221 Y-54.308 E139.83686
G1 X-31.657 Y-54.594 E139.86841
G1 X-31.062 Y-54.806 E139.89993
G1 X-30.444 Y-54.942 E139.9315
G1 X-29.683 Y-55 E139.96957
G1 X29.683 Y-55 E142.93135
G1 X30.314 Y-54.96 E142.9629
G1 X30.935 Y-54.841 E142.99444
G1 X31.535 Y-54.644 E143.02595
G1 X32.107 Y-54.373 E143.05753
G1 X32.639 Y-54.033 E143.08903
G1 X33.219 Y-53.536 E143.12713
G1 X33.336 Y-53.419 E143.13539
G1 X33.753 Y-52.944 E143.16692
G1 X34.108 Y-52.421 E143.19846
G1 X34.394 Y-51.857 E143.23001
G1 X34.606 Y-51.262 E143.26152
G1 X34.742 Y-50.644 E143.29309
G1 X34.8 Y-49.883 E143.33117
G0 F3600 X34.4 Y-49.883
G1 F900 X34.4 Y49.883 E148.30851
G1 X34.36 Y50.488 E148.33876
G1 X34.241 Y51.082 E148.36899
G1 X34.045 Y51.656 E148.39925
G1 X33.774 Y52.199 E148.42952
G1 X33.435 Y52.702 E148.45978
G1 X33.053 Y53.136 E148.48863
G1 X32.936 Y53.253 E148.49688
G1 X32.48 Y53.652 E148.52711
G1 X31.975 Y53.988 E148.55738
