;FLAVOR:RepRap
;TIME:7871
;Filament used: 2.25206m
;Layer height: 0.1
;Generated with Cura_SteamEngine 2.6.2
M104 S200
M109 S200
G28 ;Home
G1 Z15.0 F6000 ;Move the platform down 15mm
;Prime the extruder
G92 E0
G1 F200 E3
G92 E0
;LAYER_COUNT:208
;LAYER:0
M107
G0 F3600 X18 Y10.95 Z0.3
;TYPE:WALL-INNER
G1 F900 X-18 Y10.95 E1.79605
G1 X-18 Y-10.95 E2.88864
G1 X18 Y-10.95 E4.68469
G1 X18 Y10.95 E5.77729
G0 F3600 X18.4 Y11.35
;TYPE:WALL-OUTER
G1 F900 X-18.4 Y11.35 E7.61324
G1 X-18.4 Y-11.35 E8.74575
G1 X18.4 Y-11.35 E10.58171
G1 X18.4 Y11.35 E11.71422
G0 F3600 X18.2 Y11.35
G0 X17.93 Y10.88
G0 X17.558 Y10.769
;TYPE:SKIN
G1 F900 X-3.981 Y-10.769 E13.23388
G1 X-4.051 Y-10.839
G0 F3600 X-3.416 Y-10.769
G1 F900 X17.819 Y10.465 E14.73209
G1 X17.889 Y10.535
G0 F3600 X17.819 Y9.9
G1 F900 X-2.85 Y-10.769 E16.1904
G1 X-2.92 Y-10.839
G0 F3600 X-2.284 Y-10.769
G1 F900 X17.819 Y9.334 E17.60877
G1 X17.889 Y9.404
G0 F3600 X17.819 Y8.768
G1 F900 X-1.718 Y-10.769 E18.98721
G1 X-1.788 Y-10.839
G0 F3600 X-1.153 Y-10.769
G1 F900 X17.819 Y8.203 E20.32579
G1 X17.889 Y8.273
G0 F3600 X17.819 Y7.637
G1 F900 X-.587 Y-10.769 E21.62443
G1 X-.657 Y-10.839
G0 F3600 X-0.021 Y-10.769
G1 F900 X17.819 Y7.071 E22.88314
G1 X17.889 Y7.141
G0 F3600 X17.819 Y6.506
G1 F900 X0.543 Y-10.769 E24.10202
G1 X0.473 Y-10.839
G0 F3600 X1.109 Y-10.769
G1 F900 X17.819 Y5.94 E25.28096
G1 X17.889 Y6.01
G0 F3600 X17.819 Y5.374
G1 F900 X1.675 Y-10.769 E26.41998
G1 X1.605 Y-10.839
G0 F3600 X2.24 Y-10.769
G1 F900 X17.819 Y4.809 E27.51912
G1 X17.889 Y4.879
G0 F3600 X17.819 Y4.243
G1 F900 X2.806 Y-10.769 E28.57834
G1 X2.736 Y-10.839
G0 F3600 X3.372 Y-10.769
G1 F900 X17.819 Y3.677 E29.59761
G1 X17.889 Y3.747
G0 F3600 X17.819 Y3.111
G1 F900 X3.937 Y-10.769 E30.57699
G1 X3.867 Y-10.839
G0 F3600 X4.503 Y-10.769
G1 F900 X17.819 Y2.546 E31.51647
G1 X17.889 Y2.616
G0 F3600 X17.819 Y1.98
G1 F900 X5.069 Y-10.769 E32.41602
G1 X4.999 Y-10.839
G0 F3600 X5.634 Y-10.769
G1 F900 X17.819 Y1.414 E33.27567
G1 X17.889 Y1.484
G0 F3600 X17.819 Y0.849
G1 F900 X6.2 Y-10.769 E34.09542
G1 X6.13 Y-10.839
G0 F3600 X6.766 Y-10.769
G1 F900 X17.819 Y0.283 E34.87523
G1 X17.889 Y0.353
G0 F3600 X17.819 Y-.282
G1 F900 X7.331 Y-10.769 E35.61518
G1 X7.261 Y-10.839
G0 F3600 X7.897 Y-10.769
G1 F900 X17.819 Y-.847 E36.31523
G1 X17.889 Y-.777
G0 F3600 X17.819 Y-1.413
G1 F900 X8.463 Y-10.769 E36.97535
G1 X8.393 Y-10.839
G0 F3600 X9.029 Y-10.769
G1 F900 X17.819 Y-1.979 E37.59553
G1 X17.889 Y-1.909
G0 F3600 X17.819 Y-2.544
G1 F900 X9.594 Y-10.769 E38.17585
G1 X9.524 Y-10.839
G0 F3600 X10.16 Y-10.769
G1 F900 X17.819 Y-3.11 E38.71623
G1 X17.889 Y-3.04
G0 F3600 X17.819 Y-3.676
G1 F900 X10.726 Y-10.769 E39.21668
G1 X10.656 Y-10.839
G0 F3600 X11.291 Y-10.769
G1 F900 X17.819 Y-4.241 E39.67727
G1 X17.889 Y-4.171
G0 F3600 X17.819 Y-4.807
G1 F900 X11.857 Y-10.769 E40.09792
G1 X11.787 Y-10.839
G0 F3600 X12.423 Y-10.769
G1 F900 X17.819 Y-5.373 E40.47863
G1 X17.889 Y-5.303
G0 F3600 X17.819 Y-5.938
G1 F900 X12.988 Y-10.769 E40.81949
G1 X12.918 Y-10.839
G0 F3600 X13.554 Y-10.769
G1 F900 X17.819 Y-6.504 E41.12041
G1 X17.889 Y-6.434
G0 F3600 X17.819 Y-7.07
G1 F900 X14.12 Y-10.769 E41.38139
G1 X14.05 Y-10.839
G0 F3600 X14.685 Y-10.769
G1 F900 X17.819 Y-7.636 E41.60248
G1 X17.889 Y-7.566
G0 F3600 X17.819 Y-8.201
G1 F900 X15.251 Y-10.769 E41.78366
G1 X15.181 Y-10.839
G0 F3600 X15.817 Y-10.769
G1 F900 X17.819 Y-8.767 E41.92491
G1 X17.889 Y-8.697
G0 F3600 X17.819 Y-9.333
G1 F900 X16.382 Y-10.769 E42.02627
G1 X16.312 Y-10.839
G0 F3600 X16.948 Y-10.769
G1 F900 X17.819 Y-9.898 E42.08772
G1 X17.889 Y-9.828
G0 F3600 X17.819 Y-10.464
G1 F900 X17.514 Y-10.769 E42.10924
G0 F3600 X16.992 Y10.769
G1 F900 X-4.547 Y-10.769 E43.6289
G1 X-4.617 Y-10.839
G0 F3600 X-5.113 Y-10.769
G1 F900 X16.426 Y10.769 E45.14855
G1 X16.496 Y10.839
G0 F3600 X15.861 Y10.769
G1 F900 X-5.678 Y-10.769 E46.66821
G1 X-5.748 Y-10.839
G0 F3600 X-6.244 Y-10.769
G1 F900 X15.295 Y10.769 E48.18787
G1 X15.365 Y10.839
G0 F3600 X14.729 Y10.769
G1 F900 X-6.81 Y-10.769 E49.70753
G1 X-6.88 Y-10.839
G0 F3600 X-7.375 Y-10.769
G1 F900 X14.164 Y10.769 E51.22718
G1 X14.234 Y10.839
G0 F3600 X13.598 Y10.769
G1 F900 X-7.941 Y-10.769 E52.74684
G1 X-8.011 Y-10.839
G0 F3600 X-8.507 Y-10.769
G1 F900 X13.032 Y10.769 E54.2665
G1 X13.102 Y10.839
G0 F3600 X12.466 Y10.769
G1 F900 X-9.072 Y-10.769 E55.78612
G1 X-9.142 Y-10.839
G0 F3600 X-9.638 Y-10.769
G1 F900 X11.901 Y10.769 E57.30578
G1 X11.971 Y10.839
G0 F3600 X11.335 Y10.769
G1 F900 X-10.204 Y-10.769 E58.82544
G1 X-10.274 Y-10.839
G0 F3600 X-10.769 Y-10.769
G1 F900 X10.769 Y10.769 E60.34506
G1 X10.839 Y10.839
G0 F3600 X10.204 Y10.769
G1 F900 X-11.335 Y-10.769 E61.86472
G1 X-11.405 Y-10.839
G0 F3600 X-11.901 Y-10.769
G1 F900 X9.638 Y10.769 E63.38437
G1 X9.708 Y10.839
G0 F3600 X9.072 Y10.769
G1 F900 X-12.466 Y-10.769 E64.904
G1 X-12.536 Y-10.839
G0 F3600 X-13.032 Y-10.769
G1 F900 X8.507 Y10.769 E66.42365
G1 X8.577 Y10.839
G0 F3600 X7.941 Y10.769
G1 F900 X-13.598 Y-10.769 E67.94331
G1 X-13.668 Y-10.839
G0 F3600 X-14.164 Y-10.769
G1 F900 X7.375 Y10.769 E69.46297
G1 X7.445 Y10.839
G0 F3600 X6.81 Y10.769
G1 F900 X-14.729 Y-10.769 E70.98263
G1 X-14.799 Y-10.839
G0 F3600 X-15.295 Y-10.769
G1 F900 X6.244 Y10.769 E72.50228
G1 X6.314 Y10.839
G0 F3600 X5.678 Y10.769
G1 F900 X-15.861 Y-10.769 E74.02194
G1 X-15.931 Y-10.839
G0 F3600 X-16.426 Y-10.769
G1 F900 X5.113 Y10.769 E75.5416
G1 X5.183 Y10.839
G0 F3600 X4.547 Y10.769
G1 F900 X-16.992 Y-10.769 E77.06126
G1 X-17.062 Y-10.839
G0 F3600 X-17.558 Y-10.769
G1 F900 X3.981 Y10.769 E78.58091
G1 X4.051 Y10.839
G0 F3600 X3.416 Y10.769
G1 F900 X-17.819 Y-10.465 E80.07912
G1 X-17.889 Y-10.535
G0 F3600 X-17.819 Y-9.9
G1 F900 X2.85 Y10.769 E81.53743
G1 X2.92 Y10.839
G0 F3600 X2.284 Y10.769
G1 F900 X-17.819 Y-9.334 E82.95581
G1 X-17.889 Y-9.404
G0 F3600 X-17.819 Y-8.768
G1 F900 X1.718 Y10.769 E84.33425
G1 X1.788 Y10.839
G0 F3600 X1.153 Y10.769
G1 F900 X-17.819 Y-8.203 E85.67283
G1 X-17.889 Y-8.273
G0 F3600 X-17.819 Y-7.637
G1 F900 X0.587 Y10.769 E86.97147
G1 X0.657 Y10.839
G0 F3600 X0.021 Y10.769
G1 F900 X-17.819 Y-7.071 E88.23018
G1 X-17.889 Y-7.141
G0 F3600 X-17.819 Y-6.506
G1 F900 X-.543 Y10.769 E89.44906
G1 X-.473 Y10.839
G0 F3600 X-1.109 Y10.769
G1 F900 X-17.819 Y-5.94 E90.628
G1 X-17.889 Y-6.01
G0 F3600 X-17.819 Y-5.374
G1 F900 X-1.675 Y10.769 E91.76701
G1 X-1.605 Y10.839
G0 F3600 X-2.24 Y10.769
G1 F900 X-17.819 Y-4.809 E92.86616
G1 X-17.889 Y-4.879
G0 F3600 X-17.819 Y-4.243
G1 F900 X-2.806 Y10.769 E93.92537
G1 X-2.736 Y10.839
G0 F3600 X-3.372 Y10.769
G1 F900 X-17.819 Y-3.677 E94.94465
G1 X-17.889 Y-3.747
G0 F3600 X-17.819 Y-3.111
G1 F900 X-3.937 Y10.769 E95.92403
G1 X-3.867 Y10.839
G0 F3600 X-4.503 Y10.769
G1 F900 X-17.819 Y-2.546 E96.86351
G1 X-17.889 Y-2.616
G0 F3600 X-17.819 Y-1.98
G1 F900 X-5.069 Y10.769 E97.76306
G1 X-4.999 Y10.839
G0 F3600 X-5.634 Y10.769
G1 F900 X-17.819 Y-1.414 E98.6227
G1 X-17.889 Y-1.484
G0 F3600 X-17.819 Y-.849
G1 F900 X-6.2 Y10.769 E99.44245
G1 X-6.13 Y10.839
G0 F3600 X-6.766 Y10.769
G1 F900 X-17.819 Y-.283 E100.22227
G1 X-17.889 Y-.353
G0 F3600 X-17.819 Y0.282
G1 F900 X-7.331 Y10.769 E100.96222
G1 X-7.261 Y10.839
G0 F3600 X-7.897 Y10.769
G1 F900 X-17.819 Y0.847 E101.66227
G1 X-17.889 Y0.777
G0 F3600 X-17.819 Y1.413
G1 F900 X-8.463 Y10.769 E102.32238
G1 X-8.393 Y10.839
G0 F3600 X-9.029 Y10.769
G1 F900 X-17.819 Y1.979 E102.94256
G1 X-17.889 Y1.909
G0 F3600 X-17.819 Y2.544
G1 F900 X-9.594 Y10.769 E103.52288
G1 X-9.524 Y10.839
G0 F3600 X-10.16 Y10.769
G1 F900 X-17.819 Y3.11 E104.06327
G1 X-17.889 Y3.04
G0 F3600 X-17.819 Y3.676
G1 F900 X-10.726 Y10.769 E104.56372
G1 X-10.656 Y10.839
G0 F3600 X-11.291 Y10.769
G1 F900 X-17.819 Y4.241 E105.0243
G1 X-17.889 Y4.171
G0 F3600 X-17.819 Y4.807
G1 F900 X-11.857 Y10.769 E105.44495
G1 X-11.787 Y10.839
G0 F3600 X-12.423 Y10.769
G1 F900 X-17.819 Y5.373 E105.82567
G1 X-17.889 Y5.303
G0 F3600 X-17.819 Y5.938
G1 F900 X-12.988 Y10.769 E106.16652
G1 X-12.918 Y10.839
G0 F3600 X-13.554 Y10.769
G1 F900 X-17.819 Y6.504 E106.46744
G1 X-17.889 Y6.434
G0 F3600 X-17.819 Y7.07
G1 F900 X-14.12 Y10.769 E106.72843
G1 X-14.05 Y10.839
G0 F3600 X-14.685 Y10.769
G1 F900 X-17.819 Y7.636 E106.94951
G1 X-17.889 Y7.566
G0 F3600 X-17.819 Y8.201
G1 F900 X-15.251 Y10.769 E107.1307
G1 X-15.181 Y10.839
G0 F3600 X-15.817 Y10.769
G1 F900 X-17.819 Y8.767 E107.27195
G1 X-17.889 Y8.697
G0 F3600 X-17.819 Y9.333
G1 F900 X-16.382 Y10.769 E107.3733
G1 X-16.312 Y10.839
G0 F3600 X-16.948 Y10.769
G1 F900 X-17.819 Y9.898 E107.43476
G1 X-17.889 Y9.828
G0 F3600 X-17.819 Y10.464
G1 F900 X-17.514 Y10.769 E107.45628
G0 F3600 X-17.514 Y10.55
G0 X17.93 Y10.88
G0 X18 Y10.95
;TIME_ELAPSED:147.736170
;LAYER:1
M106 S255
G0 F5400 X18 Y10.95 Z0.4
;TYPE:WALL-INNER
G1 F1350 X-18 Y10.95 E108.05496
G1 X-18 Y-10.95 E108.41916
G1 X18 Y-10.95 E109.01784
G1 X18 Y10.95 E109.38204
G0 F5400 X18.4 Y11.35
;TYPE:WALL-OUTER
G1 F900 X-18.4 Y11.35 E109.99402
G1 X-18.4 Y-11.35 E110.37153
G1 X18.4 Y-11.35 E110.98351
G1 X18.4 Y11.35 E111.36102
G0 F5400 X18.2 Y11.35
G0 X17.93 Y10.88
G0 X17.514 Y10.769
;TYPE:SKIN
G1 F900 X17.819 Y10.464 E111.36819
G0 F5400 X17.819 Y9.898
G1 F900 X16.948 Y10.769 E111.38867
G1 X16.878 Y10.839
G0 F5400 X16.382 Y10.769
G1 F900 X17.819 Y9.333 E111.42246
G1 X17.889 Y9.263
G0 F5400 X17.819 Y8.767
G1 F900 X15.817 Y10.769 E111.46954
G1 X15.747 Y10.839
G0 F5400 X15.251 Y10.769
G1 F900 X17.819 Y8.201 E111.52994
G1 X17.889 Y8.131
G0 F5400 X17.819 Y7.636
G1 F900 X14.685 Y10.769 E111.60363
G1 X14.615 Y10.839
G0 F5400 X14.12 Y10.769
G1 F900 X17.819 Y7.07 E111.69063
G1 X17.889 Y7
G0 F5400 X17.819 Y6.504
G1 F900 X13.554 Y10.769 E111.79093
G1 X13.484 Y10.839
G0 F5400 X12.988 Y10.769
G1 F900 X17.819 Y5.938 E111.90455
G1 X17.889 Y5.868
G0 F5400 X17.819 Y5.373
G1 F900 X12.423 Y10.769 E112.03146
G1 X12.353 Y10.839
G0 F5400 X11.857 Y10.769
G1 F900 X17.819 Y4.807 E112.17167
G1 X17.889 Y4.737
G0 F5400 X17.819 Y4.241
G1 F900 X11.291 Y10.769 E112.3252
G1 X11.221 Y10.839
G0 F5400 X10.726 Y10.769
G1 F900 X17.819 Y3.676 E112.49202
G1 X17.889 Y3.606
G0 F5400 X17.819 Y3.11
G1 F900 X10.16 Y10.769 E112.67215
G1 X10.09 Y10.839
G0 F5400 X9.594 Y10.769
G1 F900 X17.819 Y2.544 E112.86559
G1 X17.889 Y2.474
G0 F5400 X17.819 Y1.979
G1 F900 X9.029 Y10.769 E113.07231
G1 X8.959 Y10.839
G0 F5400 X8.463 Y10.769
G1 F900 X17.819 Y1.413 E113.29235
G1 X17.889 Y1.343
G0 F5400 X17.819 Y0.847
G1 F900 X7.897 Y10.769 E113.5257
G1 X7.827 Y10.839
G0 F5400 X7.331 Y10.769
G1 F900 X17.819 Y0.282 E113.77235
G1 X17.889 Y0.212
G0 F5400 X17.819 Y-.283
G1 F900 X6.766 Y10.769 E114.03229
G1 X6.696 Y10.839
G0 F5400 X6.2 Y10.769
G1 F900 X17.819 Y-.849 E114.30554
G1 X17.889 Y-.919
G0 F5400 X17.819 Y-1.414
G1 F900 X5.634 Y10.769 E114.59209
G1 X5.564 Y10.839
G0 F5400 X5.069 Y10.769
G1 F900 X17.819 Y-1.98 E114.89194
G1 X17.889 Y-2.05
G0 F5400 X17.819 Y-2.546
G1 F900 X4.503 Y10.769 E115.2051
G1 X4.433 Y10.839
G0 F5400 X3.937 Y10.769
G1 F900 X17.819 Y-3.111 E115.53156
G1 X17.889 Y-3.181
G0 F5400 X17.819 Y-3.677
G1 F900 X3.372 Y10.769 E115.87132
G1 X3.302 Y10.839
G0 F5400 X2.806 Y10.769
G1 F900 X17.819 Y-4.243 E116.22439
G1 X17.889 Y-4.313
G0 F5400 X17.819 Y-4.809
G1 F900 X2.24 Y10.769 E116.59077
G1 X2.17 Y10.839
G0 F5400 X1.675 Y10.769
G1 F900 X17.819 Y-5.374 E116.97044
G1 X17.889 Y-5.444
G0 F5400 X17.819 Y-5.94
G1 F900 X1.109 Y10.769 E117.36342
G1 X1.039 Y10.839
G0 F5400 X0.543 Y10.769
G1 F900 X17.819 Y-6.506 E117.76972
G1 X17.889 Y-6.576
G0 F5400 X17.819 Y-7.071
G1 F900 X-0.021 Y10.769 E118.18929
G1 X-0.091 Y10.839
G0 F5400 X-.587 Y10.769
G1 F900 X17.819 Y-7.637 E118.62217
G1 X17.889 Y-7.707
G0 F5400 X17.819 Y-8.203
G1 F900 X-1.153 Y10.769 E119.06836
G1 X-1.223 Y10.839
G0 F5400 X-1.718 Y10.769
G1 F900 X17.819 Y-8.768 E119.52784
G1 X17.889 Y-8.838
G0 F5400 X17.819 Y-9.334
G1 F900 X-2.284 Y10.769 E120.00063
G1 X-2.354 Y10.839
G0 F5400 X-2.85 Y10.769
G1 F900 X17.819 Y-9.9 E120.48673
G1 X17.889 Y-9.97
G0 F5400 X17.819 Y-10.465
G1 F900 X-3.416 Y10.769 E120.98614
G1 X-3.486 Y10.839
G0 F5400 X-3.981 Y10.769
G1 F900 X17.558 Y-10.769 E121.49269
G1 X17.628 Y-10.839
G0 F5400 X16.992 Y-10.769
G1 F900 X-4.547 Y10.769 E121.99924
G1 X-4.617 Y10.839
G0 F5400 X-5.113 Y10.769
G1 F900 X16.426 Y-10.769 E122.50579
G1 X16.496 Y-10.839
G0 F5400 X15.861 Y-10.769
G1 F900 X-5.678 Y10.769 E123.01235
G1 X-5.748 Y10.839
G0 F5400 X-6.244 Y10.769
G1 F900 X15.295 Y-10.769 E123.5189
G1 X15.365 Y-10.839
G0 F5400 X14.729 Y-10.769
G1 F900 X-6.81 Y10.769 E124.02545
G1 X-6.88 Y10.839
G0 F5400 X-7.375 Y10.769
G1 F900 X14.164 Y-10.769 E124.532
G1 X14.234 Y-10.839
G0 F5400 X13.598 Y-10.769
G1 F900 X-7.941 Y10.769 E125.03856
G1 X-8.011 Y10.839
G0 F5400 X-8.507 Y10.769
G1 F900 X13.032 Y-10.769 E125.54511
G1 X13.102 Y-10.839
G0 F5400 X12.466 Y-10.769
G1 F900 X-9.072 Y10.769 E126.05165
G1 X-9.142 Y10.839
G0 F5400 X-9.638 Y10.769
G1 F900 X11.901 Y-10.769 E126.5582
G1 X11.971 Y-10.839
G0 F5400 X11.335 Y-10.769
G1 F900 X-10.204 Y10.769 E127.06476
G1 X-10.274 Y10.839
G0 F5400 X-10.769 Y10.769
G1 F900 X10.769 Y-10.769 E127.5713
G1 X10.839 Y-10.839
G0 F5400 X10.204 Y-10.769
G1 F900 X-11.335 Y10.769 E128.07785
G1 X-11.405 Y10.839
G0 F5400 X-11.901 Y10.769
G1 F900 X9.638 Y-10.769 E128.5844
G1 X9.708 Y-10.839
G0 F5400 X9.072 Y-10.769
G1 F900 X-12.466 Y10.769 E129.09094
G1 X-12.536 Y10.839
G0 F5400 X-13.032 Y10.769
G1 F900 X8.507 Y-10.769 E129.59749
G1 X8.577 Y-10.839
G0 F5400 X7.941 Y-10.769
G1 F900 X-13.598 Y10.769 E130.10405
G1 X-13.668 Y10.839
G0 F5400 X-14.164 Y10.769
G1 F900 X7.375 Y-10.769 E130.6106
G1 X7.445 Y-10.839
G0 F5400 X6.81 Y-10.769
G1 F900 X-14.729 Y10.769 E131.11715
G1 X-14.799 Y10.839
G0 F5400 X-15.295 Y10.769
G1 F900 X6.244 Y-10.769 E131.6237
G1 X6.314 Y-10.839
G0 F5400 X5.678 Y-10.769
G1 F900 X-15.861 Y10.769 E132.13026
G1 X-15.931 Y10.839
G0 F5400 X-16.426 Y10.769
G1 F900 X5.113 Y-10.769 E132.63681
G1 X5.183 Y-10.839
G0 F5400 X4.547 Y-10.769
G1 F900 X-16.992 Y10.769 E133.14336
G1 X-17.062 Y10.839
G0 F5400 X-17.558 Y10.769
G1 F900 X3.981 Y-10.769 E133.64991
G1 X4.051 Y-10.839
G0 F5400 X3.416 Y-10.769
G1 F900 X-17.819 Y10.465 E134.14932
G1 X-17.889 Y10.535
G0 F5400 X-17.819 Y9.9
G1 F900 X2.85 Y-10.769 E134.63542
G1 X2.92 Y-10.839
G0 F5400 X2.284 Y-10.769
G1 F900 X-17.819 Y9.334 E135.10821
G1 X-17.889 Y9.404
G0 F5400 X-17.819 Y8.768
G1 F900 X1.718 Y-10.769 E135.56769
G1 X1.788 Y-10.839
G0 F5400 X1.153 Y-10.769
G1 F900 X-17.819 Y8.203 E136.01388
G1 X-17.889 Y8.273
G0 F5400 X-17.819 Y7.637
G1 F900 X0.587 Y-10.769 E136.44677
G1 X0.657 Y-10.839
G0 F5400 X0.021 Y-10.769
G1 F900 X-17.819 Y7.071 E136.86633
G1 X-17.889 Y7.141
G0 F5400 X-17.819 Y6.506
G1 F900 X-.543 Y-10.769 E137.27263
G1 X-.473 Y-10.839
G0 F5400 X-1.109 Y-10.769
G1 F900 X-17.819 Y5.94 E137.66561
G1 X-17.889 Y6.01
G0 F5400 X-17.819 Y5.374
G1 F900 X-1.675 Y-10.769 E138.04528
G1 X-1.605 Y-10.839
G0 F5400 X-2.24 Y-10.769
G1 F900 X-17.819 Y4.809 E138.41166
G1 X-17.889 Y4.879
G0 F5400 X-17.819 Y4.243
G1 F900 X-2.806 Y-10.769 E138.76473
G1 X-2.736 Y-10.839
G0 F5400 X-3.372 Y-10.769
G1 F900 X-17.819 Y3.677 E139.10449
G1 X-17.889 Y3.747
G0 F5400 X-17.819 Y3.111
G1 F900 X-3.937 Y-10.769 E139.43095
G1 X-3.867 Y-10.839
G0 F5400 X-4.503 Y-10.769
G1 F900 X-17.819 Y2.546 E139.74411
G1 X-17.889 Y2.616
G0 F5400 X-17.819 Y1.98
G1 F900 X-5.069 Y-10.769 E140.04396
G1 X-4.999 Y-10.839
G0 F5400 X-5.634 Y-10.769
G1 F900 X-17.819 Y1.414 E140.33051
G1 X-17.889 Y1.484
G0 F5400 X-17.819 Y0.849
G1 F900 X-6.2 Y-10.769 E140.60376
G1 X-6.13 Y-10.839
G0 F5400 X-6.766 Y-10.769
G1 F900 X-17.819 Y0.283 E140.8637
G1 X-17.889 Y0.353
G0 F5400 X-17.819 Y-.282
G1 F900 X-7.331 Y-10.769 E141.11035
G1 X-7.261 Y-10.839
G0 F5400 X-7.897 Y-10.769
G1 F900 X-17.819 Y-.847 E141.3437
G1 X-17.889 Y-.777
G0 F5400 X-17.819 Y-1.413
G1 F900 X-8.463 Y-10.769 E141.56374
G1 X-8.393 Y-10.839
G0 F5400 X-9.029 Y-10.769
G1 F900 X-17.819 Y-1.979 E141.77046
G1 X-17.889 Y-1.909
G0 F5400 X-17.819 Y-2.544
G1 F900 X-9.594 Y-10.769 E141.9639
G1 X-9.524 Y-10.839
G0 F5400 X-10.16 Y-10.769
G1 F900 X-17.819 Y-3.11 E142.14403
G1 X-17.889 Y-3.04
G0 F5400 X-17.819 Y-3.676
G1 F900 X-10.726 Y-10.769 E142.31085
G1 X-10.656 Y-10.839
G0 F5400 X-11.291 Y-10.769
G1 F900 X-17.819 Y-4.241 E142.46438
