;FLAVOR:RepRap
;TIME:1638
;Filament used: 1.06528m
;Layer height: 0.2
;Generated with Cura_SteamEngine 2.6.2
M104 S200
M109 S200
G28 ;Home
G1 Z15.0 F6000 ;Move the platform down 15mm
;Prime the extruder
G92 E0
G1 F200 E3
G92 E0
;LAYER_COUNT:125
;LAYER:0
M107
G0 F3600 X3.307 Y4.771 Z0.3
;TYPE:WALL-INNER
G1 F900 X-5.371 Y4.771 E0.43295
G1 X-14.326 Y-4.184 E1.06477
G1 X-5.386 Y-13.124 E1.69554
G1 X3.322 Y-13.124 E2.12998
G1 X12.262 Y-4.184 E2.76075
G1 X3.307 Y4.771 E3.39257
G0 F3600 X3.473 Y5.171
;TYPE:WALL-OUTER
G1 F900 X-5.537 Y5.171 E3.84208
G1 X-14.892 Y-4.184 E4.50213
G1 X-5.552 Y-13.524 E5.16111
G1 X3.488 Y-13.524 E5.61212
G1 X12.828 Y-4.184 E6.27111
G1 X3.473 Y5.171 E6.93115
G0 F3600 X3.273 Y5.171
G0 X2.893 Y4.59
;TYPE:SKIN
G1 F900 X-9.975 Y-8.278 E7.83906
G1 X-10.045 Y-8.348
G0 F3600 X-9.693 Y-8.561
G1 F900 X3.346 Y4.477 E8.759
G1 X3.416 Y4.547
G0 F3600 X3.628 Y4.194
G1 F900 X-9.41 Y-8.844 E9.6789
G1 X-9.48 Y-8.914
G0 F3600 X-9.127 Y-9.127
G1 F900 X3.911 Y3.911 E10.5988
G1 X3.981 Y3.981
G0 F3600 X4.194 Y3.628
G1 F900 X-8.844 Y-9.41 E11.5187
G1 X-8.914 Y-9.48
G0 F3600 X-8.561 Y-9.693
G1 F900 X4.477 Y3.346 E12.43864
G1 X4.547 Y3.416
G0 F3600 X4.76 Y3.063
G1 F900 X-8.278 Y-9.975 E13.35854
G1 X-8.348 Y-10.045
G0 F3600 X-7.995 Y-10.258
G1 F900 X5.043 Y2.78 E14.27844
G1 X5.113 Y2.85
G0 F3600 X5.325 Y2.497
G1 F900 X-7.713 Y-10.541 E15.19834
G1 X-7.783 Y-10.611
G0 F3600 X-7.43 Y-10.824
G1 F900 X5.608 Y2.214 E16.11824
G1 X5.678 Y2.284
G0 F3600 X5.891 Y1.931
G1 F900 X-7.147 Y-11.107 E17.03814
G1 X-7.217 Y-11.177
G0 F3600 X-6.864 Y-11.39
G1 F900 X6.174 Y1.648 E17.95805
G1 X6.244 Y1.718
G0 F3600 X6.457 Y1.366
G1 F900 X-6.581 Y-11.672 E18.87795
G1 X-6.651 Y-11.742
G0 F3600 X-6.298 Y-11.955
G1 F900 X6.74 Y1.083 E19.79785
G1 X6.81 Y1.153
G0 F3600 X7.022 Y0.8
G1 F900 X-6.016 Y-12.238 E20.71775
G1 X-6.086 Y-12.308
G0 F3600 X-5.733 Y-12.521
G1 F900 X7.305 Y0.517 E21.63765
G1 X7.375 Y0.587
G0 F3600 X7.588 Y0.234
G1 F900 X-5.45 Y-12.804 E22.55755
G1 X-5.52 Y-12.874
G0 F3600 X-5.023 Y-12.942
G1 F900 X7.871 Y-0.048 E23.46729
G1 X7.941 Y0.022
G0 F3600 X8.154 Y-.33
G1 F900 X-4.457 Y-12.942 E24.3571
G1 X-4.527 Y-13.012
G0 F3600 X-3.891 Y-12.942
G1 F900 X8.437 Y-.613 E25.22695
G1 X8.507 Y-.543
G0 F3600 X8.72 Y-.896
G1 F900 X-3.326 Y-12.942 E26.07686
G1 X-3.396 Y-13.012
G0 F3600 X-2.76 Y-12.942
G1 F900 X9.002 Y-1.179 E26.90676
G1 X9.072 Y-1.109
G0 F3600 X9.285 Y-1.462
G1 F900 X-2.194 Y-12.942 E27.7167
G1 X-2.264 Y-13.012
G0 F3600 X-1.629 Y-12.942
G1 F900 X9.568 Y-1.745 E28.50671
G1 X9.638 Y-1.675
G0 F3600 X9.851 Y-2.027
G1 F900 X-1.063 Y-12.942 E29.27679
G1 X-1.133 Y-13.012
G0 F3600 X-.497 Y-12.942
G1 F900 X10.134 Y-2.31 E30.0269
G1 X10.204 Y-2.24
G0 F3600 X10.417 Y-2.593
G1 F900 X0.067 Y-12.942 E30.75711
G1 X-0.003 Y-13.012
G0 F3600 X0.633 Y-12.942
G1 F900 X10.699 Y-2.876 E31.46732
G1 X10.769 Y-2.806
G0 F3600 X10.982 Y-3.159
G1 F900 X1.199 Y-12.942 E32.15757
G1 X1.129 Y-13.012
G0 F3600 X1.764 Y-12.942
G1 F900 X11.265 Y-3.442 E32.82788
G1 X11.335 Y-3.372
G0 F3600 X11.548 Y-3.725
G1 F900 X2.33 Y-12.942 E33.47822
G1 X2.26 Y-13.012
G0 F3600 X2.896 Y-12.942
G1 F900 X11.831 Y-4.007 E34.10864
G1 X11.901 Y-3.937
G0 F3600 X11.889 Y-3.951
G0 X2.327 Y4.59
G1 F900 X-10.258 Y-7.995 E34.99658
G1 X-10.328 Y-8.065
G0 F3600 X-10.541 Y-7.713
G1 F900 X1.762 Y4.59 E35.86462
G1 X1.832 Y4.66
G0 F3600 X1.196 Y4.59
G1 F900 X-10.824 Y-7.43 E36.71269
G1 X-10.894 Y-7.5
G0 F3600 X-11.107 Y-7.147
G1 F900 X0.63 Y4.59 E37.5408
G1 X0.7 Y4.66
G0 F3600 X0.065 Y4.59
G1 F900 X-11.39 Y-6.864 E38.34898
G1 X-11.46 Y-6.934
G0 F3600 X-11.672 Y-6.581
G1 F900 X-.5 Y4.59 E39.13719
G1 X-.43 Y4.66
G0 F3600 X-1.066 Y4.59
G1 F900 X-11.955 Y-6.298 E39.90543
G1 X-12.025 Y-6.368
G0 F3600 X-12.238 Y-6.016
G1 F900 X-1.632 Y4.59 E40.65374
G1 X-1.562 Y4.66
G0 F3600 X-2.197 Y4.59
G1 F900 X-12.521 Y-5.733 E41.38212
G1 X-12.591 Y-5.803
G0 F3600 X-12.804 Y-5.45
G1 F900 X-2.763 Y4.59 E42.09053
G1 X-2.693 Y4.66
G0 F3600 X-3.329 Y4.59
G1 F900 X-13.087 Y-5.167 E42.77898
G1 X-13.157 Y-5.237
G0 F3600 X-13.369 Y-4.884
G1 F900 X-3.894 Y4.59 E43.44745
G1 X-3.824 Y4.66
G0 F3600 X-4.46 Y4.59
G1 F900 X-13.652 Y-4.601 E44.09596
G1 X-13.722 Y-4.671
G0 F3600 X-13.935 Y-4.319
G1 F900 X-5.026 Y4.59 E44.72454
G1 X-4.956 Y4.66
G0 F3600 X-4.956 Y4.371
G0 X3.269 Y4.679
G0 X3.307 Y4.771
;TIME_ELAPSED:61.767976
;LAYER:1
M106 S255
G0 F5400 X3.307 Y4.771 Z0.5
;TYPE:WALL-INNER
G1 F1350 X-5.371 Y4.771 E45.01317
G1 X-14.326 Y-4.184 E45.43439
G1 X-5.386 Y-13.124 E45.8549
G1 X3.322 Y-13.124 E46.14453
G1 X12.262 Y-4.184 E46.56504
G1 X3.307 Y4.771 E46.98625
G0 F5400 X3.473 Y5.171
;TYPE:WALL-OUTER
G1 F900 X-5.537 Y5.171 E47.28593
G1 X-14.892 Y-4.184 E47.72596
G1 X-5.552 Y-13.524 E48.16528
G1 X3.488 Y-13.524 E48.46596
G1 X12.828 Y-4.184 E48.90528
G1 X3.473 Y5.171 E49.34531
G0 F5400 X3.273 Y5.171
G0 X2.763 Y4.59
;TYPE:SKIN
G1 F900 X11.772 Y-4.418 E49.76904
G1 X11.842 Y-4.488
G0 F5400 X11.489 Y-4.701
G1 F900 X2.197 Y4.59 E50.20609
G1 X2.127 Y4.66
G0 F5400 X1.632 Y4.59
G1 F900 X11.206 Y-4.984 E50.65642
G1 X11.276 Y-5.054
G0 F5400 X10.924 Y-5.267
G1 F900 X1.066 Y4.59 E51.12009
G1 X0.996 Y4.66
G0 F5400 X0.5 Y4.59
G1 F900 X10.641 Y-5.55 E51.59706
G1 X10.711 Y-5.62
G0 F5400 X10.358 Y-5.832
G1 F900 X-0.065 Y4.59 E52.08731
G1 X-.135 Y4.66
G0 F5400 X-.63 Y4.59
G1 F900 X10.075 Y-6.115 E52.59084
G1 X10.145 Y-6.185
G0 F5400 X9.792 Y-6.398
G1 F900 X-1.196 Y4.59 E53.10768
G1 X-1.266 Y4.66
G0 F5400 X-1.762 Y4.59
G1 F900 X9.509 Y-6.681 E53.63783
G1 X9.579 Y-6.751
G0 F5400 X9.227 Y-6.964
G1 F900 X-2.327 Y4.59 E54.1813
G1 X-2.397 Y4.66
G0 F5400 X-2.893 Y4.59
G1 F900 X8.944 Y-7.247 E54.73807
G1 X9.014 Y-7.317
G0 F5400 X8.661 Y-7.529
G1 F900 X-3.459 Y4.59 E55.30814
G1 X-3.529 Y4.66
G0 F5400 X-4.024 Y4.59
G1 F900 X8.378 Y-7.812 E55.89149
G1 X8.448 Y-7.882
G0 F5400 X8.095 Y-8.095
G1 F900 X-4.59 Y4.59 E56.48815
G1 X-4.66 Y4.66
G0 F5400 X-5.156 Y4.59
G1 F900 X7.812 Y-8.378 E57.09813
G1 X7.882 Y-8.448
G0 F5400 X7.529 Y-8.661
G1 F900 X-5.509 Y4.377 E57.71139
G1 X-5.579 Y4.447
G0 F5400 X-5.791 Y4.094
G1 F900 X7.247 Y-8.944 E58.32466
G1 X7.317 Y-9.014
G0 F5400 X6.964 Y-9.227
G1 F900 X-6.074 Y3.812 E58.93795
G1 X-6.144 Y3.882
G0 F5400 X-6.357 Y3.529
G1 F900 X6.681 Y-9.509 E59.55122
G1 X6.751 Y-9.579
G0 F5400 X6.398 Y-9.792
G1 F900 X-6.64 Y3.246 E60.16449
G1 X-6.71 Y3.316
G0 F5400 X-6.923 Y2.963
G1 F900 X6.115 Y-10.075 E60.77776
G1 X6.185 Y-10.145
G0 F5400 X5.832 Y-10.358
G1 F900 X-7.206 Y2.68 E61.39102
G1 X-7.276 Y2.75
G0 F5400 X-7.488 Y2.397
G1 F900 X5.55 Y-10.641 E62.00429
G1 X5.62 Y-10.711
G0 F5400 X5.267 Y-10.924
G1 F900 X-7.771 Y2.114 E62.61756
G1 X-7.841 Y2.184
G0 F5400 X-8.054 Y1.832
G1 F900 X4.984 Y-11.206 E63.23083
G1 X5.054 Y-11.276
G0 F5400 X4.701 Y-11.489
G1 F900 X-8.337 Y1.549 E63.84409
G1 X-8.407 Y1.619
G0 F5400 X-8.62 Y1.266
G1 F900 X4.418 Y-11.772 E64.45736
G1 X4.488 Y-11.842
G0 F5400 X4.135 Y-12.055
G1 F900 X-8.903 Y0.983 E65.07063
G1 X-8.973 Y1.053
G0 F5400 X-9.186 Y0.7
G1 F900 X3.853 Y-12.338 E65.68392
G1 X3.923 Y-12.408
G0 F5400 X3.57 Y-12.621
G1 F900 X-9.468 Y0.417 E66.29719
G1 X-9.538 Y0.487
G0 F5400 X-9.751 Y0.135
G1 F900 X3.287 Y-12.903 E66.91045
G1 X3.357 Y-12.973
G0 F5400 X2.761 Y-12.943
G1 F900 X-10.034 Y-.147 E67.51232
G1 X-10.104 Y-0.077
G0 F5400 X-10.317 Y-.43
G1 F900 X2.195 Y-12.943 E68.10087
G1 X2.265 Y-13.013
G0 F5400 X1.629 Y-12.943
G1 F900 X-10.6 Y-.713 E68.6761
G1 X-10.67 Y-.643
G0 F5400 X-10.883 Y-.996
G1 F900 X1.064 Y-12.943 E69.23805
G1 X1.134 Y-13.013
G0 F5400 X0.498 Y-12.943
G1 F900 X-11.165 Y-1.279 E69.78667
G1 X-11.235 Y-1.209
G0 F5400 X-11.448 Y-1.561
G1 F900 X-0.067 Y-12.943 E70.32202
G1 X0.003 Y-13.013
G0 F5400 X-.632 Y-12.943
G1 F900 X-11.731 Y-1.844 E70.84408
G1 X-11.801 Y-1.774
G0 F5400 X-12.014 Y-2.127
G1 F900 X-1.198 Y-12.943 E71.35283
G1 X-1.128 Y-13.013
G0 F5400 X-1.764 Y-12.943
G1 F900 X-12.297 Y-2.41 E71.84827
G1 X-12.367 Y-2.34
G0 F5400 X-12.58 Y-2.693
G1 F900 X-2.329 Y-12.943 E72.33043
G1 X-2.259 Y-13.013
G0 F5400 X-2.895 Y-12.943
G1 F900 X-12.862 Y-2.976 E72.79924
G1 X-12.932 Y-2.906
G0 F5400 X-13.145 Y-3.259
G1 F900 X-3.461 Y-12.943 E73.25475
G1 X-3.391 Y-13.013
G0 F5400 X-4.026 Y-12.943
G1 F900 X-13.428 Y-3.541 E73.69699
G1 X-13.498 Y-3.471
G0 F5400 X-13.711 Y-3.824
G1 F900 X-4.592 Y-12.943 E74.12592
G1 X-4.522 Y-13.013
G0 F5400 X-5.158 Y-12.943
G1 F900 X-13.994 Y-4.107 E74.54154
G1 X-14.064 Y-4.037
G0 F5400 X-13.763 Y-4.183
G0 X3.269 Y4.679
G0 X3.307 Y4.771
;TIME_ELAPSED:121.534843
;LAYER:2
G0 F7200 X3.307 Y4.771 Z0.7
;TYPE:WALL-INNER
G1 F1800 X-5.371 Y4.771 E74.83017
G1 X-14.326 Y-4.184 E75.25139
G1 X-5.386 Y-13.124 E75.6719
G1 X3.322 Y-13.124 E75.96153
G1 X12.262 Y-4.184 E76.38204
G1 X3.307 Y4.771 E76.80325
G0 F7200 X3.473 Y5.171
;TYPE:WALL-OUTER
G1 F900 X-5.537 Y5.171 E77.10292
G1 X-14.892 Y-4.184 E77.54296
G1 X-5.552 Y-13.524 E77.98228
G1 X3.488 Y-13.524 E78.28295
G1 X12.828 Y-4.184 E78.72228
G1 X3.473 Y5.171 E79.16231
G0 F7200 X3.273 Y5.171
G0 X2.893 Y4.59
;TYPE:SKIN
G1 F900 X-9.975 Y-8.278 E79.76758
G1 X-10.045 Y-8.348
G0 F7200 X-9.693 Y-8.561
G1 F900 X3.346 Y4.477 E80.38087
G1 X3.416 Y4.547
G0 F7200 X3.628 Y4.194
G1 F900 X-9.41 Y-8.844 E80.99414
G1 X-9.48 Y-8.914
G0 F7200 X-9.127 Y-9.127
G1 F900 X3.911 Y3.911 E81.6074
G1 X3.981 Y3.981
G0 F7200 X4.194 Y3.628
G1 F900 X-8.844 Y-9.41 E82.22067
G1 X-8.914 Y-9.48
G0 F7200 X-8.561 Y-9.693
G1 F900 X4.477 Y3.346 E82.83396
G1 X4.547 Y3.416
G0 F7200 X4.76 Y3.063
G1 F900 X-8.278 Y-9.975 E83.44723
G1 X-8.348 Y-10.045
G0 F7200 X-7.995 Y-10.258
G1 F900 X5.043 Y2.78 E84.0605
G1 X5.113 Y2.85
G0 F7200 X5.325 Y2.497
G1 F900 X-7.713 Y-10.541 E84.67377
G1 X-7.783 Y-10.611
G0 F7200 X-7.43 Y-10.824
G1 F900 X5.608 Y2.214 E85.28703
G1 X5.678 Y2.284
G0 F7200 X5.891 Y1.931
G1 F900 X-7.147 Y-11.107 E85.9003
G1 X-7.217 Y-11.177
G0 F7200 X-6.864 Y-11.39
G1 F900 X6.174 Y1.648 E86.51357
G1 X6.244 Y1.718
G0 F7200 X6.457 Y1.366
G1 F900 X-6.581 Y-11.672 E87.12684
G1 X-6.651 Y-11.742
G0 F7200 X-6.298 Y-11.955
G1 F900 X6.74 Y1.083 E87.7401
G1 X6.81 Y1.153
G0 F7200 X7.022 Y0.8
G1 F900 X-6.016 Y-12.238 E88.35337
G1 X-6.086 Y-12.308
G0 F7200 X-5.733 Y-12.521
G1 F900 X7.305 Y0.517 E88.96664
G1 X7.375 Y0.587
G0 F7200 X7.588 Y0.234
G1 F900 X-5.45 Y-12.804 E89.57991
G1 X-5.52 Y-12.874
G0 F7200 X-5.023 Y-12.942
G1 F900 X7.871 Y-0.048 E90.1864
G1 X7.941 Y0.022
G0 F7200 X8.154 Y-.33
G1 F900 X-4.457 Y-12.942 E90.77961
G1 X-4.527 Y-13.012
G0 F7200 X-3.891 Y-12.942
G1 F900 X8.437 Y-.613 E91.3595
G1 X8.507 Y-.543
G0 F7200 X8.72 Y-.896
G1 F900 X-3.326 Y-12.942 E91.92611
G1 X-3.396 Y-13.012
G0 F7200 X-2.76 Y-12.942
G1 F900 X9.002 Y-1.179 E92.47938
G1 X9.072 Y-1.109
G0 F7200 X9.285 Y-1.462
G1 F900 X-2.194 Y-12.942 E93.01934
G1 X-2.264 Y-13.012
G0 F7200 X-1.629 Y-12.942
G1 F900 X9.568 Y-1.745 E93.54601
G1 X9.638 Y-1.675
G0 F7200 X9.851 Y-2.027
G1 F900 X-1.063 Y-12.942 E94.0594
G1 X-1.133 Y-13.012
G0 F7200 X-.497 Y-12.942
G1 F900 X10.134 Y-2.31 E94.55947
G1 X10.204 Y-2.24
G0 F7200 X10.417 Y-2.593
G1 F900 X0.067 Y-12.942 E95.04628
G1 X-0.003 Y-13.012
G0 F7200 X0.633 Y-12.942
G1 F900 X10.699 Y-2.876 E95.51975
G1 X10.769 Y-2.806
G0 F7200 X10.982 Y-3.159
G1 F900 X1.199 Y-12.942 E95.97992
G1 X1.129 Y-13.012
G0 F7200 X1.764 Y-12.942
G1 F900 X11.265 Y-3.442 E96.42679
G1 X11.335 Y-3.372
G0 F7200 X11.548 Y-3.725
G1 F900 X2.33 Y-12.942 E96.86035
G1 X2.26 Y-13.012
G0 F7200 X2.896 Y-12.942
G1 F900 X11.831 Y-4.007 E97.28063
G1 X11.901 Y-3.937
G0 F7200 X11.889 Y-3.951
G0 X2.327 Y4.59
G1 F900 X-10.258 Y-7.995 E97.87259
G1 X-10.328 Y-8.065
G0 F7200 X-10.541 Y-7.713
G1 F900 X1.762 Y4.59 E98.45128
G1 X1.832 Y4.66
G0 F7200 X1.196 Y4.59
G1 F900 X-10.824 Y-7.43 E99.01667
G1 X-10.894 Y-7.5
G0 F7200 X-11.107 Y-7.147
G1 F900 X0.63 Y4.59 E99.56874
G1 X0.7 Y4.66
G0 F7200 X0.065 Y4.59
G1 F900 X-11.39 Y-6.864 E100.10753
G1 X-11.46 Y-6.934
G0 F7200 X-11.672 Y-6.581
G1 F900 X-.5 Y4.59 E100.633
G1 X-.43 Y4.66
G0 F7200 X-1.066 Y4.59
G1 F900 X-11.955 Y-6.298 E101.14516
G1 X-12.025 Y-6.368
G0 F7200 X-12.238 Y-6.016
G1 F900 X-1.632 Y4.59 E101.64403
G1 X-1.562 Y4.66
G0 F7200 X-2.197 Y4.59
G1 F900 X-12.521 Y-5.733 E102.12962
G1 X-12.591 Y-5.803
G0 F7200 X-12.804 Y-5.45
G1 F900 X-2.763 Y4.59 E102.60189
G1 X-2.693 Y4.66
G0 F7200 X-3.329 Y4.59
G1 F900 X-13.087 Y-5.167 E103.06086
G1 X-13.157 Y-5.237
G0 F7200 X-13.369 Y-4.884
G1 F900 X-3.894 Y4.59 E103.50651
G1 X-3.824 Y4.66
G0 F7200 X-4.46 Y4.59
G1 F900 X-13.652 Y-4.601 E103.93885
G1 X-13.722 Y-4.671
G0 F7200 X-13.935 Y-4.319
G1 F900 X-5.026 Y4.59 E104.3579
G1 X-4.956 Y4.66
G0 F7200 X-4.956 Y4.371
G0 X3.269 Y4.679
G0 X3.307 Y4.771
;TIME_ELAPSED:180.558027
;LAYER:3
G0 X3.307 Y4.771 Z0.9
;TYPE:WALL-INNER
G1 F1800 X-5.371 Y4.771 E104.64653
G1 X-14.326 Y-4.184 E105.06775
G1 X-5.386 Y-13.124 E105.48826
G1 X3.322 Y-13.124 E105.77789
G1 X12.262 Y-4.184 E106.1984
G1 X3.307 Y4.771 E106.61961
G0 F7200 X3.473 Y5.171
;TYPE:WALL-OUTER
G1 F900 X-5.537 Y5.171 E106.91929
G1 X-14.892 Y-4.184 E107.35932
G1 X-5.552 Y-13.524 E107.79864
G1 X3.488 Y-13.524 E108.09931
G1 X12.828 Y-4.184 E108.53864
G1 X3.473 Y5.171 E108.97867
G0 F7200 X3.273 Y5.171
G0 X2.763 Y4.59
;TYPE:SKIN
G1 F900 X11.772 Y-4.418 E109.4024
G1 X11.842 Y-4.488
G0 F7200 X11.489 Y-4.701
G1 F900 X2.197 Y4.59 E109.83944
G1 X2.127 Y4.66
G0 F7200 X1.632 Y4.59
G1 F900 X11.206 Y-4.984 E110.28978
G1 X11.276 Y-5.054
G0 F7200 X10.924 Y-5.267
G1 F900 X1.066 Y4.59 E110.75344
G1 X0.996 Y4.66
G0 F7200 X0.5 Y4.59
G1 F900 X10.641 Y-5.55 E111.23042
G1 X10.711 Y-5.62
G0 F7200 X10.358 Y-5.832
G1 F900 X-0.065 Y4.59 E111.72066
G1 X-.135 Y4.66
G0 F7200 X-.63 Y4.59
G1 F900 X10.075 Y-6.115 E112.22419
G1 X10.145 Y-6.185
G0 F7200 X9.792 Y-6.398
G1 F900 X-1.196 Y4.59 E112.74104
G1 X-1.266 Y4.66
G0 F7200 X-1.762 Y4.59
G1 F900 X9.509 Y-6.681 E113.27119
G1 X9.579 Y-6.751
G0 F7200 X9.227 Y-6.964
G1 F900 X-2.327 Y4.59 E113.81465
G1 X-2.397 Y4.66
G0 F7200 X-2.893 Y4.59
G1 F900 X8.944 Y-7.247 E114.37143
G1 X9.014 Y-7.317
G0 F7200 X8.661 Y-7.529
G1 F900 X-3.459 Y4.59 E114.94149
G1 X-3.529 Y4.66
G0 F7200 X-4.024 Y4.59
G1 F900 X8.378 Y-7.812 E115.52485
G1 X8.448 Y-7.882
G0 F7200 X8.095 Y-8.095
G1 F900 X-4.59 Y4.59 E116.12151
G1 X-4.66 Y4.66
G0 F7200 X-5.156 Y4.59
G1 F900 X7.812 Y-8.378 E116.73148
G1 X7.882 Y-8.448
G0 F7200 X7.529 Y-8.661
G1 F900 X-5.509 Y4.377 E117.34475
G1 X-5.579 Y4.447
G0 F7200 X-5.791 Y4.094
G1 F900 X7.247 Y-8.944 E117.95802
G1 X7.317 Y-9.014
G0 F7200 X6.964 Y-9.227
G1 F900 X-6.074 Y3.812 E118.57131
G1 X-6.144 Y3.882
G0 F7200 X-6.357 Y3.529
G1 F900 X6.681 Y-9.509 E119.18458
G1 X6.751 Y-9.579
G0 F7200 X6.398 Y-9.792
G1 F900 X-6.64 Y3.246 E119.79785
G1 X-6.71 Y3.316
G0 F7200 X-6.923 Y2.963
G1 F900 X6.115 Y-10.075 E120.41111
G1 X6.185 Y-10.145
G0 F7200 X5.832 Y-10.358
G1 F900 X-7.206 Y2.68 E121.02438
G1 X-7.276 Y2.75
G0 F7200 X-7.488 Y2.397
G1 F900 X5.55 Y-10.641 E121.63765
G1 X5.62 Y-10.711
G0 F7200 X5.267 Y-10.924
G1 F900 X-7.771 Y2.114 E122.25092
G1 X-7.841 Y2.184
G0 F7200 X-8.054 Y1.832
G1 F900 X4.984 Y-11.206 E122.86418
G1 X5.054 Y-11.276
G0 F7200 X4.701 Y-11.489
G1 F900 X-8.337 Y1.549 E123.47745
G1 X-8.407 Y1.619
G0 F7200 X-8.62 Y1.266
G1 F900 X4.418 Y-11.772 E124.09072
G1 X4.488 Y-11.842
G0 F7200 X4.135 Y-12.055
G1 F900 X-8.903 Y0.983 E124.70399
G1 X-8.973 Y1.053
G0 F7200 X-9.186 Y0.7
G1 F900 X3.853 Y-12.338 E125.31728
G1 X3.923 Y-12.408
G0 F7200 X3.57 Y-12.621
G1 F900 X-9.468 Y0.417 E125.93054
G1 X-9.538 Y0.487
G0 F7200 X-9.751 Y0.135
G1 F900 X3.287 Y-12.903 E126.54381
G1 X3.357 Y-12.973
G0 F7200 X2.761 Y-12.943
G1 F900 X-10.034 Y-.147 E127.14567
G1 X-10.104 Y-0.077
G0 F7200 X-10.317 Y-.43
G1 F900 X2.195 Y-12.943 E127.73422
G1 X2.265 Y-13.013
G0 F7200 X1.629 Y-12.943
G1 F900 X-10.6 Y-.713 E128.30946
G1 X-10.67 Y-.643
G0 F7200 X-10.883 Y-.996
G1 F900 X1.064 Y-12.943 E128.87141
G1 X1.134 Y-13.013
G0 F7200 X0.498 Y-12.943
G1 F900 X-11.165 Y-1.279 E129.42003
G1 X-11.235 Y-1.209
G0 F7200 X-11.448 Y-1.561
G1 F900 X-0.067 Y-12.943 E129.95538
G1 X0.003 Y-13.013
G0 F7200 X-.632 Y-12.943
G1 F900 X-11.731 Y-1.844 E130.47744
G1 X-11.801 Y-1.774
G0 F7200 X-12.014 Y-2.127
G1 F900 X-1.198 Y-12.943 E130.98619
G1 X-1.128 Y-13.013
G0 F7200 X-1.764 Y-12.943
G1 F900 X-12.297 Y-2.41 E131.48163
G1 X-12.367 Y-2.34
G0 F7200 X-12.58 Y-2.693
