;FLAVOR:RepRap
;TIME:22012
;Filament used: 14.2196m
;Layer height: 0.2
;Generated with Cura_SteamEngine 2.6.2
M104 S200
M109 S200
G28 ;Home
G1 Z15.0 F6000 ;Move the platform down 15mm
;Prime the extruder
G92 E0
G1 F200 E3
G92 E0
;LAYER_COUNT:125
;LAYER:0
M107
G0 F3600 X-9.744 Y6.558 Z0.3
;TYPE:WALL-INNER
G1 F900 X0.054 Y-20.732 E1.4466
G1 X5.453 Y-21.151 E1.71676
G1 X8.799 Y-21.261 E1.88379
G1 X13.328 Y-21.221 E2.10975
G1 X17.074 Y-21.042 E2.29685
G1 X22.005 Y-20.569 E2.54399
G1 X26.914 Y-19.876 E2.79133
G1 X31.787 Y-18.923 E3.03905
G1 X35.863 Y-17.931 E3.24834
G1 X36.259 Y-17.818 E3.26888
G1 X36.577 Y-17.728 E3.28537
G1 X36.349 Y-17.489 E3.29479
G1 X20.034 Y-.412 E4.47309
G1 X19.376 Y1.356 E4.56721
G1 X19.172 Y2.19 E4.61005
G1 X18.957 Y4.606 E4.73106
G1 X19.041 Y5.641 E4.78286
G1 X18.955 Y6.583 E4.83006
G1 X19.074 Y8.052 E4.90358
G1 X19.342 Y8.842 E4.9452
G1 X19.774 Y9.718 E4.99393
G1 X20.646 Y10.932 E5.0685
G1 X21.269 Y11.55 E5.11228
G1 X22.289 Y12.291 E5.17518
G1 X44.433 Y25.705 E6.46684
G1 X45.164 Y26.226 E6.51163
G1 X45.79 Y26.801 E6.55403
G1 X46.512 Y27.726 E6.61257
G1 X46.789 Y28.202 E6.64005
G1 X47.232 Y29.284 E6.69838
G1 X47.414 Y30.147 E6.74238
G1 X47.374 Y30.423 E6.7563
G1 X47.171 Y31.187 E6.79574
G1 X46.933 Y31.788 E6.82798
G1 X46.673 Y32.295 E6.85641
G1 X46.187 Y33.011 E6.89958
G1 X45.617 Y33.663 E6.94279
G1 X44.722 Y34.396 E7.00051
G1 X43.717 Y34.951 E7.05778
G1 X38.797 Y36.573 E7.31624
G1 X38.797 Y41.474 E7.56075
G1 X38.797 Y41.475 E7.5608
G1 X38.797 Y41.707 E7.57237
G1 X39.027 Y41.672 E7.57958
G1 X53.09 Y39.506 E8.28946
G1 X53.071 Y37.479 E8.39059
G1 X53.089 Y37.475 E8.39151
G1 X52.995 Y27.066 E8.91084
G1 X52.797 Y25.537 E8.98776
G1 X52.444 Y24.31 E9.05146
G1 X52.037 Y23.316 E9.10504
G1 X51.462 Y22.303 E9.16316
G1 X50.782 Y21.358 E9.22124
G1 X50.242 Y20.758 E9.26151
G1 X49.076 Y19.739 E9.33877
G1 X47.791 Y18.936 E9.41436
G1 X28.156 Y6.236 E10.58101
G1 X27.155 Y5.631 E10.63936
G1 X26.826 Y5.305 E10.66247
G1 X26.287 Y4.394 E10.71528
G1 X26.423 Y3.942 E10.73883
G1 X48.108 Y-14.353 E12.15429
G1 X48.323 Y-14.479 E12.16672
G1 X49.386 Y-15.294 E12.23355
G1 X50.337 Y-16.243 E12.30058
G1 X51.155 Y-17.308 E12.36757
G1 X51.827 Y-18.47 E12.43454
G1 X52.342 Y-19.71 E12.50153
G1 X52.69 Y-21.008 E12.56858
G1 X52.866 Y-22.34 E12.63561
G1 X52.867 Y-23.682 E12.70256
G1 X52.822 Y-24.016 E12.71937
G1 X52.866 Y-24.339 E12.73564
G1 X52.867 Y-25.682 E12.80264
G1 X52.692 Y-27.014 E12.86966
G1 X52.346 Y-28.311 E12.93663
G1 X51.833 Y-29.552 E13.00363
G1 X51.162 Y-30.715 E13.07062
G1 X50.346 Y-31.78 E13.13755
G1 X49.397 Y-32.731 E13.20458
G1 X48.331 Y-33.549 E13.27162
G1 X47.169 Y-34.221 E13.33859
G1 X45.943 Y-34.729 E13.40479
G1 X43.673 Y-35.458 E13.52374
G1 X39.12 Y-36.66 E13.75867
G1 X34.481 Y-37.544 E13.99428
G1 X32.112 Y-37.873 E14.1136
G1 X28.586 Y-38.188 E14.29022
G1 X25.042 Y-38.339 E14.46719
G1 X20.321 Y-38.242 E14.70277
G1 X16.789 Y-37.942 E14.87962
G1 X13.279 Y-37.48 E15.05624
G1 X7.517 Y-36.279 E15.34989
G1 X4.086 Y-35.329 E15.5275
G1 X0.722 Y-34.184 E15.70479
G1 X-2.585 Y-32.88 E15.88214
G1 X-9.237 Y-29.615 E16.25183
G1 X-9.237 Y-29.33 E16.26605
G1 X-9.237 Y-29.329 E16.2661
G1 X-9.237 Y-29.122 E16.27642
G1 X-9.444 Y-29.13 E16.28304
G1 X-11.025 Y-29.199 E16.36199
G1 X-11.466 Y-29.811 E16.39962
G1 X-12.211 Y-30.652 E16.45568
G1 X-13.385 Y-31.679 E16.5335
G1 X-14.735 Y-32.591 E16.61478
G1 X-16.234 Y-33.373 E16.69913
G1 X-17.459 Y-33.872 E16.76512
G1 X-18.731 Y-34.294 E16.83198
G1 X-19.635 Y-34.53 E16.87859
G1 X-22.337 Y-34.982 E17.01527
G1 X-23.753 Y-35.063 E17.08603
G1 X-25.611 Y-35.015 E17.17876
G1 X-27.005 Y-34.876 E17.24865
G1 X-28.359 Y-34.64 E17.31722
G1 X-29.682 Y-34.322 E17.3851
G1 X-30.945 Y-33.912 E17.45135
G1 X-32.159 Y-33.427 E17.51657
G1 X-33.976 Y-32.449 E17.61952
G1 X-34.978 Y-31.757 E17.68027
G1 X-35.865 Y-30.994 E17.73864
G1 X-36.861 Y-29.912 E17.81201
G1 X-37.491 Y-29.021 E17.86646
G1 X-38.102 Y-27.795 E17.9348
G1 X-38.325 Y-27.138 E17.96941
G1 X-38.526 Y-26.164 E18.01903
G1 X-38.6 Y-25.166 E18.06895
G1 X-38.511 Y-24.235 E18.11561
G1 X-38.526 Y-24.167 E18.11909
G1 X-38.599 Y-23.177 E18.16861
G1 X-38.507 Y-22.167 E18.21921
G1 X-38.282 Y-21.167 E18.27035
G1 X-37.428 Y-19.327 E18.37155
G1 X-36.56 Y-18.173 E18.44359
G1 X-36.033 Y-17.615 E18.48189
G1 X-35.465 Y-17.093 E18.52037
G1 X-34.852 Y-16.601 E18.55959
G1 X-33.519 Y-15.724 E18.63919
G1 X-32.768 Y-15.319 E18.68176
G1 X-31.604 Y-14.796 E18.74543
G1 X-30.372 Y-14.339 E18.81098
G1 X-29.076 Y-13.976 E18.87813
G1 X-27.748 Y-13.693 E18.94587
G1 X-26.815 Y-13.552 E18.99295
G1 X-24.056 Y-13.367 E19.1309
G1 X-21.266 Y-13.516 E19.2703
G1 X-19.034 Y-13.92 E19.38346
G1 X-17.728 Y-14.276 E19.45099
G1 X-15.735 Y-15.057 E19.55779
G1 X-14.275 Y-15.841 E19.64046
G1 X-12.974 Y-16.76 E19.71993
G1 X-12.114 Y-17.52 E19.77719
G1 X-11.16 Y-18.621 E19.84987
G1 X-10.422 Y-19.821 E19.92016
G1 X-9.928 Y-21.076 E19.98744
G1 X-9.84 Y-21.438 E20.00603
G1 X-9.706 Y-21.507 E20.01355
G1 X-9.705 Y-21.508 E20.01362
G1 X-9.352 Y-21.686 E20.03334
G1 X-9.417 Y-21.296 E20.04427
G1 X-9.418 Y-21.295 E20.04434
G1 X-12.859 Y-1.111 E21.06585
G1 X-17.896 Y0.148 E21.32488
G1 X-19.019 Y0.148 E21.38091
G1 X-19.019 Y5.048 E21.62537
G1 X-17.995 Y5.048 E21.67646
G1 X-9.744 Y6.558 E22.09494
G0 F3600 X-9.695 Y6.644
G0 X-44.233 Y1.841
G0 X-44.318 Y1.892
G1 F900 X-44.318 Y-42.467 E24.30802
G1 X57.082 Y-42.467 E29.36688
G1 X57.082 Y45.734 E33.76725
G1 X39.902 Y45.734 E34.62436
G1 X-44.318 Y1.892 E39.36134
G0 F3600 X-44.718 Y2.135
;TYPE:WALL-OUTER
G1 F900 X-44.718 Y-42.867 E41.6065
G1 X57.482 Y-42.867 E46.70528
G1 X57.482 Y46.134 E51.14555
G1 X39.803 Y46.134 E52.02756
G1 X-44.718 Y2.135 E56.78148
G0 F3600 X-44.718 Y1.935
G0 X-44.233 Y1.841
G0 X-33.588 Y-15.651
G0 X-33.314 Y-16.068
G1 F900 X-32.591 Y-15.678 E56.82246
G1 X-31.452 Y-15.166 E56.88476
G1 X-30.248 Y-14.72 E56.94882
G1 X-28.98 Y-14.365 E57.01451
G1 X-27.676 Y-14.087 E57.08103
G1 X-26.772 Y-13.95 E57.12665
G1 X-24.053 Y-13.768 E57.2626
G1 X-21.312 Y-13.914 E57.39954
G1 X-19.122 Y-14.311 E57.51058
G1 X-17.854 Y-14.656 E57.57615
G1 X-15.903 Y-15.421 E57.6807
G1 X-14.486 Y-16.182 E57.76094
G1 X-13.223 Y-17.074 E57.83808
G1 X-12.399 Y-17.802 E57.89294
G1 X-11.484 Y-18.858 E57.96265
G1 X-10.781 Y-20 E58.02955
G1 X-10.31 Y-21.197 E58.09373
G1 X-10.186 Y-21.712 E58.12016
G1 X-9.165 Y-22.23 E58.17727
G1 X-8.864 Y-22.382 E58.1941
G1 X-8.837 Y-22.396 E58.19561
G1 X-8.837 Y-22.329
G1 X-8.893 Y-21.996 E58.20605
G1 X-12.509 Y-.786 E59.27949
G1 X-17.847 Y0.548 E59.55399
G1 X-18.619 Y0.548 E59.59251
G1 X-18.619 Y4.648 E59.79706
G1 X-17.961 Y4.648 E59.82988
G1 X-10.006 Y6.103 E60.23334
G1 X-.234 Y-21.111 E61.67593
G1 X5.431 Y-21.551 E61.95941
G1 X8.79 Y-21.661 E62.12708
G1 X13.347 Y-21.621 E62.35444
G1 X17.093 Y-21.442 E62.54154
G1 X22.055 Y-20.966 E62.79024
G1 X26.991 Y-20.269 E63.03894
G1 X31.872 Y-19.314 E63.28707
G1 X35.958 Y-18.32 E63.49686
G1 X37.006 Y-18.022 E63.55122
G1 X37.324 Y-17.932 E63.56771
G1 X37.096 Y-17.693 E63.57714
G1 X20.38 Y-.195 E64.78444
G1 X19.759 Y1.474 E64.87329
G1 X19.568 Y2.256 E64.91345
G1 X19.358 Y4.608 E65.03126
G1 X19.442 Y5.639 E65.08286
G1 X19.356 Y6.585 E65.13025
G1 X19.469 Y7.97 E65.19958
G1 X19.712 Y8.689 E65.23745
G1 X20.118 Y9.511 E65.28319
G1 X20.951 Y10.671 E65.35443
G1 X21.529 Y11.244 E65.39504
G1 X22.511 Y11.958 E65.45561
G1 X44.657 Y25.373 E66.74738
G1 X45.415 Y25.914 E66.79384
G1 X46.084 Y26.528 E66.83914
G1 X46.846 Y27.504 E66.90092
G1 X47.148 Y28.024 E66.93092
G1 X47.615 Y29.164 E66.99238
G1 X47.82 Y30.135 E67.04189
G1 X47.766 Y30.507 E67.06065
G1 X47.553 Y31.309 E67.10205
G1 X47.297 Y31.956 E67.13676
G1 X47.018 Y32.499 E67.16722
G1 X46.507 Y33.252 E67.21262
G1 X45.897 Y33.95 E67.25887
G1 X44.946 Y34.729 E67.3202
G1 X43.876 Y35.32 E67.38118
G1 X39.197 Y36.862 E67.62697
G1 X39.197 Y41.008 E67.83381
G1 X39.197 Y41.009 E67.83386
G1 X39.197 Y41.241 E67.84544
G1 X39.427 Y41.206 E67.85264
G1 X52.687 Y39.163 E68.52199
G1 X52.668 Y37.159 E68.62198
G1 X52.686 Y37.155 E68.6229
G1 X52.595 Y27.094 E69.12486
G1 X52.404 Y25.618 E69.19911
G1 X52.066 Y24.441 E69.26021
G1 X51.677 Y23.491 E69.31142
G1 X51.125 Y22.519 E69.36719
G1 X50.47 Y21.609 E69.42313
G1 X49.961 Y21.043 E69.4611
G1 X48.837 Y20.061 E69.53557
G1 X47.579 Y19.275 E69.60957
G1 X27.944 Y6.575 E70.77622
G1 X26.911 Y5.952 E70.8364
G1 X26.507 Y5.552 E70.86477
G1 X25.859 Y4.457 E70.92824
G1 X25.872 Y4.384 E70.93194
G1 X26.074 Y3.712 E70.96695
G1 X47.874 Y-14.68 E72.38992
G1 X48.099 Y-14.812 E72.40294
G1 X49.122 Y-15.596 E72.46724
G1 X50.036 Y-16.508 E72.53165
G1 X50.822 Y-17.531 E72.59602
G1 X51.468 Y-18.648 E72.66039
G1 X51.962 Y-19.839 E72.72472
G1 X52.297 Y-21.086 E72.78914
G1 X52.466 Y-22.366 E72.85355
G1 X52.467 Y-23.656 E72.91791
G1 X52.419 Y-24.016 E72.93603
G1 X52.466 Y-24.366 E72.95365
G1 X52.467 Y-25.656 E73.01801
G1 X52.299 Y-26.936 E73.08242
G1 X51.966 Y-28.182 E73.14676
G1 X51.473 Y-29.375 E73.21116
G1 X50.829 Y-30.492 E73.27549
G1 X50.044 Y-31.516 E73.33986
G1 X49.132 Y-32.43 E73.40428
G1 X48.108 Y-33.216 E73.46868
G1 X46.992 Y-33.862 E73.53301
G1 X45.805 Y-34.353 E73.5971
G1 X43.561 Y-35.074 E73.71469
G1 X39.031 Y-36.27 E73.94843
G1 X34.416 Y-37.149 E74.18282
G1 X32.067 Y-37.475 E74.30113
G1 X28.56 Y-37.789 E74.4768
G1 X25.038 Y-37.939 E74.65267
G1 X20.342 Y-37.842 E74.887
G1 X16.832 Y-37.544 E75.06275
G1 X13.346 Y-37.085 E75.23817
G1 X7.611 Y-35.89 E75.53043
G1 X4.204 Y-34.947 E75.7068
G1 X0.86 Y-33.808 E75.88304
G1 X-2.423 Y-32.514 E76.0591
G1 X-8.837 Y-29.366 E76.41556
G1 X-8.837 Y-28.912 E76.43821
G1 X-8.837 Y-28.911 E76.43826
G1 X-8.837 Y-28.704 E76.44858
G1 X-9.044 Y-28.712 E76.4552
G1 X-11.236 Y-28.807 E76.56466
G1 X-11.779 Y-29.561 E76.61102
G1 X-12.494 Y-30.368 E76.66481
G1 X-13.63 Y-31.362 E76.74012
G1 X-14.94 Y-32.247 E76.81899
G1 X-16.402 Y-33.01 E76.90126
G1 X-17.597 Y-33.496 E76.96563
G1 X-18.845 Y-33.91 E77.03123
G1 X-19.719 Y-34.138 E77.07629
G1 X-22.382 Y-34.584 E77.211
G1 X-23.759 Y-34.663 E77.27981
G1 X-25.586 Y-34.616 E77.37099
G1 X-26.951 Y-34.479 E77.43943
G1 X-28.278 Y-34.248 E77.50663
G1 X-29.573 Y-33.937 E77.57307
G1 X-30.809 Y-33.536 E77.6379
G1 X-31.989 Y-33.064 E77.70131
G1 X-33.767 Y-32.107 E77.80205
G1 X-34.733 Y-31.44 E77.86061
G1 X-35.586 Y-30.706 E77.91676
G1 X-36.549 Y-29.66 E77.98769
G1 X-37.147 Y-28.815 E78.03933
G1 X-37.732 Y-27.641 E78.10477
G1 X-37.938 Y-27.033 E78.1368
G1 X-38.129 Y-26.108 E78.18392
G1 X-38.199 Y-25.17 E78.23085
G1 X-38.107 Y-24.209 E78.27901
G1 X-38.129 Y-24.109 E78.28412
G1 X-38.198 Y-23.18 E78.3306
G1 X-38.111 Y-22.229 E78.37824
G1 X-37.901 Y-21.297 E78.42591
G1 X-37.083 Y-19.534 E78.52287
G1 X-36.254 Y-18.431 E78.59171
G1 X-35.752 Y-17.9 E78.62816
G1 X-35.204 Y-17.397 E78.66527
G1 X-34.616 Y-16.925 E78.70289
G1 X-33.314 Y-16.068 E78.78066
G0 F3600 X-33.138 Y-15.973
G0 X-33.786 Y-15.684
;TYPE:SKIN
G1 F900 X-18.133 Y-0.031 E79.88506
G1 X-18.063 Y0.039
G0 F3600 X-17.638 Y-.101
G1 F900 X-32.569 Y-15.033 E80.93856
G1 X-32.639 Y-15.103
G0 F3600 X-31.557 Y-14.586
G1 F900 X-17.185 Y-.214 E81.95258
G1 X-17.115 Y-.144
G0 F3600 X-16.732 Y-.328
G1 F900 X-30.659 Y-14.254 E82.93517
G1 X-30.729 Y-14.324
G0 F3600 X-29.842 Y-14.002
G1 F900 X-16.28 Y-.441 E83.89201
G1 X-16.21 Y-.371
G0 F3600 X-15.827 Y-.554
G1 F900 X-29.063 Y-13.789 E84.82584
G1 X-29.133 Y-13.859
G0 F3600 X-28.343 Y-13.635
G1 F900 X-15.375 Y-.667 E85.74081
G1 X-15.305 Y-.597
G0 F3600 X-14.922 Y-.78
G1 F900 X-27.635 Y-13.493 E86.63778
G1 X-27.705 Y-13.563
G0 F3600 X-26.969 Y-13.393
G1 F900 X-14.47 Y-.893 E87.51968
G1 X-14.4 Y-.823
G0 F3600 X-14.017 Y-1.006
G1 F900 X-26.351 Y-13.34 E88.38992
G1 X-26.421 Y-13.41
G0 F3600 X-25.744 Y-13.299
G1 F900 X-13.565 Y-1.12 E89.24921
G1 X-13.495 Y-1.05
G0 F3600 X-13.112 Y-1.233
G1 F900 X-25.138 Y-13.258 E90.09767
G1 X-25.208 Y-13.328
G0 F3600 X-24.532 Y-13.218
G1 F900 X-12.949 Y-1.636 E90.91488
G1 X-12.879 Y-1.566
G0 F3600 X-12.867 Y-2.119
G1 F900 X-23.94 Y-13.192 E91.69614
G1 X-24.01 Y-13.262
G0 F3600 X-23.403 Y-13.221
G1 F900 X-12.785 Y-2.602 E92.44533
G1 X-12.715 Y-2.532
G0 F3600 X-12.703 Y-3.086
G1 F900 X-22.866 Y-13.249 E93.16239
G1 X-22.936 Y-13.319
G0 F3600 X-22.329 Y-13.278
G1 F900 X-12.62 Y-3.569 E93.84741
G1 X-12.55 Y-3.499
G0 F3600 X-12.538 Y-4.053
G1 F900 X-21.792 Y-13.307 E94.50033
G1 X-21.862 Y-13.377
G0 F3600 X-21.255 Y-13.336
G1 F900 X-12.455 Y-4.536 E95.12122
G1 X-12.385 Y-4.466
G0 F3600 X-12.373 Y-5.019
G1 F900 X-20.775 Y-13.421 E95.71402
G1 X-20.845 Y-13.491
G0 F3600 X-20.296 Y-13.508
G1 F900 X-12.29 Y-5.502 E96.27889
G1 X-12.22 Y-5.432
G0 F3600 X-12.208 Y-5.986
G1 F900 X-19.817 Y-13.594 E96.81571
G1 X-19.887 Y-13.664
G0 F3600 X-19.338 Y-13.681
G1 F900 X-12.126 Y-6.469 E97.32456
G1 X-12.056 Y-6.399
G0 F3600 X-12.044 Y-6.952
G1 F900 X-18.869 Y-13.777 E97.8061
G1 X-18.939 Y-13.847
G0 F3600 X-18.424 Y-13.898
G1 F900 X-11.962 Y-7.436 E98.26203
G1 X-11.892 Y-7.366
G0 F3600 X-11.879 Y-7.919
G1 F900 X-17.979 Y-14.019 E98.69241
G1 X-18.049 Y-14.089
G0 F3600 X-17.546 Y-14.152
G1 F900 X-11.797 Y-8.403 E99.09804
G1 X-11.727 Y-8.333
G0 F3600 X-11.714 Y-8.886
G1 F900 X-17.14 Y-14.311 E99.48084
G1 X-17.21 Y-14.381
G0 F3600 X-16.734 Y-14.471
G1 F900 X-11.632 Y-9.369 E99.84081
G1 X-11.562 Y-9.299
G0 F3600 X-11.549 Y-9.852
G1 F900 X-16.327 Y-14.63 E100.17792
G1 X-16.397 Y-14.7
G0 F3600 X-15.921 Y-14.789
G1 F900 X-11.467 Y-10.336 E100.49214
G1 X-11.397 Y-10.266
G0 F3600 X-11.385 Y-10.819
G1 F900 X-15.528 Y-14.962 E100.78445
G1 X-15.598 Y-15.032
G0 F3600 X-15.16 Y-15.16
G1 F900 X-11.303 Y-11.303 E101.05659
G1 X-11.233 Y-11.233
G0 F3600 X-11.22 Y-11.786
G1 F900 X-14.791 Y-15.357 E101.30854
G1 X-14.861 Y-15.427
G0 F3600 X-14.424 Y-15.555
G1 F900 X-11.138 Y-12.269 E101.54038
G1 X-11.068 Y-12.199
G0 F3600 X-11.056 Y-12.753
G1 F900 X-14.068 Y-15.765 E101.7529
G1 X-14.138 Y-15.835
G0 F3600 X-13.736 Y-15.999
G1 F900 X-10.973 Y-13.236 E101.94784
G1 X-10.903 Y-13.166
G0 F3600 X-10.891 Y-13.719
G1 F900 X-13.405 Y-16.233 E102.12522
G1 X-13.475 Y-16.303
G0 F3600 X-13.073 Y-16.467
G1 F900 X-10.808 Y-14.202 E102.28503
G1 X-10.738 Y-14.132
G0 F3600 X-10.726 Y-14.686
G1 F900 X-12.754 Y-16.713 E102.42808
G1 X-12.824 Y-16.783
G0 F3600 X-12.453 Y-16.979
G1 F900 X-10.644 Y-15.169 E102.55575
G1 X-10.574 Y-15.099
G0 F3600 X-10.562 Y-15.653
G1 F900 X-12.153 Y-17.244 E102.668
G1 X-12.223 Y-17.314
G0 F3600 X-11.87 Y-17.527
G1 F900 X-10.479 Y-16.136 E102.76614
G1 X-10.409 Y-16.066
G0 F3600 X-10.397 Y-16.619
G1 F900 X-11.607 Y-17.829 E102.85151
G1 X-11.677 Y-17.899
G0 F3600 X-11.344 Y-18.133
G1 F900 X-10.314 Y-17.102 E102.92422
G1 X-10.244 Y-17.032
G0 F3600 X-10.232 Y-17.586
G1 F900 X-11.081 Y-18.435 E102.98412
G1 X-11.151 Y-18.505
G0 F3600 X-10.854 Y-18.773
G1 F900 X-10.149 Y-18.069 E103.03383
G1 X-10.079 Y-17.999
G0 F3600 X-10.067 Y-18.553
G1 F900 X-10.638 Y-19.123 E103.07408
G1 X-10.708 Y-19.193
G0 F3600 X-10.204 Y-19.255
G1 F900 X-10.062 Y-19.678 E103.10068
G1 X-9.941 Y-20.123 E103.12035
G1 X-9.82 Y-20.568 E103.13462
G1 X-9.701 Y-21.014 E103.14354
G0 F3600 X-9.746 Y-21.06
G0 X-10.387 Y-19.804
G0 X-11.128 Y-18.598
G0 X-12.086 Y-17.492
G0 X-12.95 Y-16.729
G0 X-14.254 Y-15.807
G0 X-15.719 Y-15.021
G0 X-17.716 Y-14.239
G0 X-19.026 Y-13.881
G0 X-21.262 Y-13.477
G0 X-24.056 Y-13.327
G0 X-26.819 Y-13.513
G0 X-29.085 Y-13.938
G0 X-30.384 Y-14.301
G0 X-31.619 Y-14.759
G0 X-33.539 Y-15.69
G0 X-34.875 Y-16.569
G0 X-36.061 Y-17.587
G0 X-36.59 Y-18.148
G0 X-37.462 Y-19.307
G0 X-38.319 Y-21.155
G0 X-38.546 Y-22.161
G0 X-38.639 Y-23.177
G0 X-38.639 Y-25.166
G0 X-38.565 Y-26.169
G0 X-38.363 Y-27.148
G0 X-38.138 Y-27.81
G0 X-37.525 Y-29.041
G0 X-36.892 Y-29.937
G0 X-35.892 Y-31.022
G0 X-35.002 Y-31.788
G0 X-33.996 Y-32.483
G0 X-32.175 Y-33.463
G0 X-30.958 Y-33.949
G0 X-29.692 Y-34.36
G0 X-28.367 Y-34.679
G0 X-27.01 Y-34.915
G0 X-25.613 Y-35.054
G0 X-23.753 Y-35.102
G0 X-22.333 Y-35.021
G0 X-19.627 Y-34.569
G0 X-17.446 Y-33.909
G0 X-16.218 Y-33.409
G0 X-14.715 Y-32.625
G0 X-9.514 Y-29.313
G1 F900 X-22.488 Y-42.287 E104.05893
G1 X-22.558 Y-42.357
G0 F3600 X-23.053 Y-42.287
G1 F900 X-10.105 Y-29.339 E104.97248
G1 X-10.035 Y-29.269
G0 F3600 X-10.696 Y-29.364
G1 F900 X-11.868 Y-30.535 E105.05514
G1 X-11.938 Y-30.605
