;FLAVOR:RepRap
;TIME:12258
;Filament used: 7.04735m
;Layer height: 0.2
;Generated with Cura_SteamEngine 2.6.2
M104 S200
M109 S200
G28 ;Home
G1 Z15.0 F6000 ;Move the platform down 15mm
;Prime the extruder
G92 E0
G1 F200 E3
G92 E0
;LAYER_COUNT:75
;LAYER:0
M107
G0 F3600 X54.679 Y-6.831 Z0.3
;TYPE:WALL-INNER
G1 F900 X54.679 Y37.528 E2.21308
G1 X-46.721 Y37.528 E7.27195
G1 X-46.721 Y-50.672 E11.67226
G1 X-29.54 Y-50.672 E12.52943
G1 X54.679 Y-6.831 E17.26633
G0 F3600 X55.079 Y-7.074
;TYPE:WALL-OUTER
G1 F900 X55.079 Y37.928 E19.51149
G1 X-47.121 Y37.928 E24.61027
G1 X-47.121 Y-51.072 E29.0505
G1 X-29.441 Y-51.072 E29.93256
G1 X55.079 Y-7.074 E34.68641
G0 F3600 X55.079 Y-6.874
G0 X54.498 Y-6.595
;TYPE:SKIN
G1 F900 X54.235 Y-6.858 E34.70496
G0 F3600 X54.498 Y-6.03
G1 F900 X53.056 Y-7.471 E34.80667
G1 X52.986 Y-7.541
G0 F3600 X51.876 Y-8.086
G1 F900 X54.498 Y-5.464 E34.99166
G1 X54.568 Y-5.394
G0 F3600 X54.498 Y-4.898
G1 F900 X50.696 Y-8.7 E35.25992
G1 X50.626 Y-8.77
G0 F3600 X49.516 Y-9.314
G1 F900 X54.498 Y-4.333 E35.61139
G1 X54.568 Y-4.263
G0 F3600 X54.498 Y-3.767
G1 F900 X48.336 Y-9.929 E36.04615
G1 X48.266 Y-9.999
G0 F3600 X47.156 Y-10.542
G1 F900 X54.498 Y-3.201 E36.56413
G1 X54.568 Y-3.131
G0 F3600 X54.498 Y-2.636
G1 F900 X45.976 Y-11.157 E37.16537
G1 X45.906 Y-11.227
G0 F3600 X44.796 Y-11.771
G1 F900 X54.498 Y-2.07 E37.84986
G1 X54.568 Y-2
G0 F3600 X54.498 Y-1.504
G1 F900 X43.617 Y-12.385 E38.61758
G1 X43.547 Y-12.455
G0 F3600 X42.437 Y-13
G1 F900 X54.498 Y-.939 E39.46854
G1 X54.568 Y-.869
G0 F3600 X54.498 Y-.373
G1 F900 X41.257 Y-13.613 E40.40273
G1 X41.187 Y-13.683
G0 F3600 X40.077 Y-14.228
G1 F900 X54.498 Y0.192 E41.42018
G1 X54.568 Y0.262
G0 F3600 X54.498 Y0.758
G1 F900 X38.897 Y-14.842 E42.52088
G1 X38.827 Y-14.912
G0 F3600 X37.717 Y-15.456
G1 F900 X54.498 Y1.323 E43.7048
G1 X54.568 Y1.393
G0 F3600 X54.498 Y1.889
G1 F900 X36.537 Y-16.071 E44.97201
G1 X36.467 Y-16.141
G0 F3600 X35.358 Y-16.684
G1 F900 X54.498 Y2.455 E46.3224
G1 X54.568 Y2.525
G0 F3600 X54.498 Y3.02
G1 F900 X34.178 Y-17.299 E47.75605
G1 X34.108 Y-17.369
G0 F3600 X32.997 Y-17.913
G1 F900 X54.498 Y3.586 E49.27299
G1 X54.568 Y3.656
G0 F3600 X54.498 Y4.152
G1 F900 X31.818 Y-18.527 E50.87316
G1 X31.748 Y-18.597
G0 F3600 X30.638 Y-19.142
G1 F900 X54.498 Y4.717 E52.55657
G1 X54.568 Y4.787
G0 F3600 X54.498 Y5.283
G1 F900 X29.458 Y-19.755 E54.32321
G1 X29.388 Y-19.825
G0 F3600 X28.278 Y-20.37
G1 F900 X54.498 Y5.849 E56.17314
G1 X54.568 Y5.919
G0 F3600 X54.498 Y6.414
G1 F900 X27.098 Y-20.984 E58.10628
G1 X27.028 Y-21.054
G0 F3600 X25.918 Y-21.598
G1 F900 X54.498 Y6.98 E60.12269
G1 X54.568 Y7.05
G0 F3600 X54.498 Y7.546
G1 F900 X24.738 Y-22.213 E62.22238
G1 X24.668 Y-22.283
G0 F3600 X23.558 Y-22.827
G1 F900 X54.498 Y8.111 E64.40529
G1 X54.568 Y8.181
G0 F3600 X54.498 Y8.677
G1 F900 X22.379 Y-23.441 E66.67143
G1 X22.309 Y-23.511
G0 F3600 X21.199 Y-24.055
G1 F900 X54.498 Y9.243 E69.02082
G1 X54.568 Y9.313
G0 F3600 X54.498 Y9.808
G1 F900 X20.019 Y-24.669 E71.45342
G1 X19.949 Y-24.739
G0 F3600 X18.839 Y-25.284
G1 F900 X54.498 Y10.374 E73.96932
G1 X54.568 Y10.444
G0 F3600 X54.498 Y10.94
G1 F900 X17.659 Y-25.898 E76.56848
G1 X17.589 Y-25.968
G0 F3600 X16.479 Y-26.512
G1 F900 X54.498 Y11.506 E79.25089
G1 X54.568 Y11.576
G0 F3600 X54.498 Y12.071
G1 F900 X15.299 Y-27.126 E82.01652
G1 X15.229 Y-27.196
G0 F3600 X14.12 Y-27.74
G1 F900 X54.498 Y12.637 E84.86537
G1 X54.568 Y12.707
G0 F3600 X54.498 Y13.203
G1 F900 X12.94 Y-28.354 E87.79748
G1 X12.87 Y-28.424
G0 F3600 X11.759 Y-28.969
G1 F900 X54.498 Y13.768 E90.81287
G1 X54.568 Y13.838
G0 F3600 X54.498 Y14.334
G1 F900 X10.58 Y-29.583 E93.91149
G1 X10.51 Y-29.653
G0 F3600 X9.4 Y-30.197
G1 F900 X54.498 Y14.9 E97.09336
G1 X54.568 Y14.97
G0 F3600 X54.498 Y15.465
G1 F900 X8.22 Y-30.811 E100.35846
G1 X8.15 Y-30.881
G0 F3600 X7.04 Y-31.425
G1 F900 X54.498 Y16.031 E103.7068
G1 X54.568 Y16.101
G0 F3600 X54.498 Y16.597
G1 F900 X5.86 Y-32.04 E107.13844
G1 X5.79 Y-32.11
G0 F3600 X4.681 Y-32.654
G1 F900 X54.498 Y17.162 E110.65326
G1 X54.568 Y17.232
G0 F3600 X54.498 Y17.728
G1 F900 X3.5 Y-33.268 E114.25138
G1 X3.43 Y-33.338
G0 F3600 X2.321 Y-33.882
G1 F900 X54.498 Y18.294 E117.93271
G1 X54.568 Y18.364
G0 F3600 X54.498 Y18.859
G1 F900 X1.141 Y-34.496 E121.69727
G1 X1.071 Y-34.566
G0 F3600 X-0.038 Y-35.111
G1 F900 X54.498 Y19.425 E125.54508
G1 X54.568 Y19.495
G0 F3600 X54.498 Y19.991
G1 F900 X-1.218 Y-35.725 E129.47614
G1 X-1.288 Y-35.795
G0 F3600 X-2.398 Y-36.339
G1 F900 X54.498 Y20.557 E133.49046
G1 X54.568 Y20.627
G0 F3600 X54.498 Y21.122
G1 F900 X-3.577 Y-36.953 E137.58797
G1 X-3.647 Y-37.023
G0 F3600 X-4.758 Y-37.567
G1 F900 X54.498 Y21.688 E141.76876
G1 X54.568 Y21.758
G0 F3600 X54.498 Y22.254
G1 F900 X-5.938 Y-38.182 E146.03285
G1 X-6.008 Y-38.252
G0 F3600 X-7.117 Y-38.796
G1 F900 X54.498 Y22.819 E150.38012
G1 X54.568 Y22.889
G0 F3600 X54.498 Y23.385
G1 F900 X-8.297 Y-39.41 E154.81064
G1 X-8.367 Y-39.48
G0 F3600 X-9.477 Y-40.024
G1 F900 X54.498 Y23.951 E159.32443
G1 X54.568 Y24.021
G0 F3600 X54.498 Y24.516
G1 F900 X-10.657 Y-40.638 E163.92143
G1 X-10.727 Y-40.708
G0 F3600 X-11.837 Y-41.253
G1 F900 X54.498 Y25.082 E168.60172
G1 X54.568 Y25.152
G0 F3600 X54.498 Y25.648
G1 F900 X-13.017 Y-41.867 E173.36527
G1 X-13.087 Y-41.937
G0 F3600 X-14.197 Y-42.481
G1 F900 X54.498 Y26.213 E178.21204
G1 X54.568 Y26.283
G0 F3600 X54.498 Y26.779
G1 F900 X-15.376 Y-43.095 E183.14203
G1 X-15.446 Y-43.165
G0 F3600 X-16.556 Y-43.709
G1 F900 X54.498 Y27.345 E188.15527
G1 X54.568 Y27.415
G0 F3600 X54.498 Y27.91
G1 F900 X-17.737 Y-44.324 E193.2518
G1 X-17.807 Y-44.394
G0 F3600 X-18.916 Y-44.938
G1 F900 X54.498 Y28.476 E198.43156
G1 X54.568 Y28.546
G0 F3600 X54.498 Y29.042
G1 F900 X-20.096 Y-45.552 E203.69457
G1 X-20.166 Y-45.622
G0 F3600 X-21.276 Y-46.167
G1 F900 X54.498 Y29.607 E209.04083
G1 X54.568 Y29.677
G0 F3600 X54.498 Y30.173
G1 F900 X-22.456 Y-46.78 E214.47032
G1 X-22.526 Y-46.85
G0 F3600 X-23.636 Y-47.395
G1 F900 X54.498 Y30.739 E219.98309
G1 X54.568 Y30.809
G0 F3600 X54.498 Y31.305
G1 F900 X-24.815 Y-48.009 E225.57909
G1 X-24.885 Y-48.079
G0 F3600 X-25.996 Y-48.623
G1 F900 X54.498 Y31.87 E231.25834
G1 X54.568 Y31.94
G0 F3600 X54.498 Y32.436
G1 F900 X-27.176 Y-49.237 E237.02085
G1 X-27.246 Y-49.307
G0 F3600 X-28.355 Y-49.851
G1 F900 X54.498 Y33.002 E242.86657
G1 X54.568 Y33.072
G0 F3600 X54.498 Y33.567
G1 F900 X-29.535 Y-50.466 E248.79555
G1 X-29.605 Y-50.536
G0 F3600 X-30.126 Y-50.49
G1 F900 X54.498 Y34.133 E254.7662
G1 X54.568 Y34.203
G0 F3600 X54.498 Y34.699
G1 F900 X-30.691 Y-50.49 E260.77674
G1 X-30.761 Y-50.56
G0 F3600 X-31.257 Y-50.49
G1 F900 X54.498 Y35.264 E266.82719
G1 X54.568 Y35.334
G0 F3600 X54.498 Y35.83
G1 F900 X-31.823 Y-50.49 E272.91756
G1 X-31.893 Y-50.56
G0 F3600 X-32.389 Y-50.49
G1 F900 X54.498 Y36.396 E279.04788
G1 X54.568 Y36.466
G0 F3600 X54.498 Y36.961
G1 F900 X-32.954 Y-50.49 E285.21805
G1 X-33.024 Y-50.56
G0 F3600 X-33.52 Y-50.49
G1 F900 X54.318 Y37.347 E291.41546
G1 X54.388 Y37.417
G0 F3600 X53.752 Y37.347
G1 F900 X-34.086 Y-50.49 E297.61287
G1 X-34.156 Y-50.56
G0 F3600 X-34.651 Y-50.49
G1 F900 X53.187 Y37.347 E303.81028
G1 X53.257 Y37.417
G0 F3600 X52.621 Y37.347
G1 F900 X-35.217 Y-50.49 E310.00769
G1 X-35.287 Y-50.56
G0 F3600 X-35.783 Y-50.49
G1 F900 X52.055 Y37.347 E316.2051
G1 X52.125 Y37.417
G0 F3600 X51.49 Y37.347
G1 F900 X-36.348 Y-50.49 E322.40251
G1 X-36.418 Y-50.56
G0 F3600 X-36.914 Y-50.49
G1 F900 X50.924 Y37.347 E328.59992
G1 X50.994 Y37.417
G0 F3600 X50.358 Y37.347
G1 F900 X-37.48 Y-50.49 E334.79733
G1 X-37.55 Y-50.56
G0 F3600 X-38.045 Y-50.49
G1 F900 X49.793 Y37.347 E340.99474
G1 X49.863 Y37.417
G0 F3600 X49.227 Y37.347
G1 F900 X-38.611 Y-50.49 E347.19215
G1 X-38.681 Y-50.56
G0 F3600 X-39.177 Y-50.49
G1 F900 X48.661 Y37.347 E353.38956
G1 X48.731 Y37.417
G0 F3600 X48.095 Y37.347
G1 F900 X-39.742 Y-50.49 E359.58694
G1 X-39.812 Y-50.56
G0 F3600 X-40.308 Y-50.49
G1 F900 X47.53 Y37.347 E365.78435
G1 X47.6 Y37.417
G0 F3600 X46.964 Y37.347
G1 F900 X-40.874 Y-50.49 E371.98176
G1 X-40.944 Y-50.56
G0 F3600 X-41.439 Y-50.49
G1 F900 X46.398 Y37.347 E378.17913
G1 X46.468 Y37.417
G0 F3600 X45.833 Y37.347
G1 F900 X-42.005 Y-50.49 E384.37654
G1 X-42.075 Y-50.56
G0 F3600 X-42.571 Y-50.49
G1 F900 X45.267 Y37.347 E390.57395
G1 X45.337 Y37.417
G0 F3600 X44.701 Y37.347
G1 F900 X-43.137 Y-50.49 E396.77136
G1 X-43.207 Y-50.56
G0 F3600 X-43.702 Y-50.49
G1 F900 X44.136 Y37.347 E402.96877
G1 X44.206 Y37.417
G0 F3600 X43.57 Y37.347
G1 F900 X-44.268 Y-50.49 E409.16618
G1 X-44.338 Y-50.56
G0 F3600 X-44.834 Y-50.49
G1 F900 X43.004 Y37.347 E415.36359
G1 X43.074 Y37.417
G0 F3600 X42.439 Y37.347
G1 F900 X-45.399 Y-50.49 E421.561
G1 X-45.469 Y-50.56
G0 F3600 X-45.965 Y-50.49
G1 F900 X41.873 Y37.347 E427.75841
G1 X41.943 Y37.417
G0 F3600 X41.307 Y37.347
G1 F900 X-46.531 Y-50.49 E433.95582
G1 X-46.601 Y-50.56
G0 F3600 X-46.541 Y-49.935
G1 F900 X40.742 Y37.347 E440.11407
G1 X40.812 Y37.417
G0 F3600 X40.176 Y37.347
G1 F900 X-46.541 Y-49.369 E446.23239
G1 X-46.611 Y-49.439
G0 F3600 X-46.541 Y-48.803
G1 F900 X39.61 Y37.347 E452.31077
G1 X39.68 Y37.417
G0 F3600 X39.045 Y37.347
G1 F900 X-46.541 Y-48.238 E458.34929
G1 X-46.611 Y-48.308
G0 F3600 X-46.541 Y-47.672
G1 F900 X38.479 Y37.347 E464.34788
G1 X38.549 Y37.417
G0 F3600 X37.913 Y37.347
G1 F900 X-46.541 Y-47.106 E470.30653
G1 X-46.611 Y-47.176
G0 F3600 X-46.541 Y-46.541
G1 F900 X37.347 Y37.347 E476.22528
G1 X37.417 Y37.417
G0 F3600 X36.782 Y37.347
G1 F900 X-46.541 Y-45.975 E482.10413
G1 X-46.611 Y-46.045
G0 F3600 X-46.541 Y-45.409
G1 F900 X36.216 Y37.347 E487.94305
G1 X36.286 Y37.417
G0 F3600 X35.65 Y37.347
G1 F900 X-46.541 Y-44.844 E493.74207
G1 X-46.611 Y-44.914
G0 F3600 X-46.541 Y-44.278
G1 F900 X35.085 Y37.347 E499.50119
G1 X35.155 Y37.417
G0 F3600 X34.519 Y37.347
G1 F900 X-46.541 Y-43.712 E505.22038
G1 X-46.611 Y-43.782
G0 F3600 X-46.541 Y-43.146
G1 F900 X33.953 Y37.347 E510.89963
G1 X34.023 Y37.417
G0 F3600 X33.388 Y37.347
G1 F900 X-46.541 Y-42.581 E516.53901
G1 X-46.611 Y-42.651
G0 F3600 X-46.541 Y-42.015
G1 F900 X32.822 Y37.347 E522.13847
G1 X32.892 Y37.417
G0 F3600 X32.256 Y37.347
G1 F900 X-46.541 Y-41.449 E527.69799
G1 X-46.611 Y-41.519
G0 F3600 X-46.541 Y-40.884
G1 F900 X31.691 Y37.347 E533.21764
G1 X31.761 Y37.417
G0 F3600 X31.125 Y37.347
G1 F900 X-46.541 Y-40.318 E538.69736
G1 X-46.611 Y-40.388
G0 F3600 X-46.541 Y-39.752
G1 F900 X30.559 Y37.347 E544.13715
G1 X30.629 Y37.417
G0 F3600 X29.994 Y37.347
G1 F900 X-46.541 Y-39.187 E549.53707
G1 X-46.611 Y-39.257
G0 F3600 X-46.541 Y-38.621
G1 F900 X29.428 Y37.347 E554.89706
G1 X29.498 Y37.417
G0 F3600 X28.862 Y37.347
G1 F900 X-46.541 Y-38.055 E560.21711
G1 X-46.611 Y-38.125
G0 F3600 X-46.541 Y-37.49
G1 F900 X28.296 Y37.347 E565.49727
G1 X28.366 Y37.417
G0 F3600 X27.731 Y37.347
G1 F900 X-46.541 Y-36.924 E570.73752
G1 X-46.611 Y-36.994
G0 F3600 X-46.541 Y-36.358
G1 F900 X27.165 Y37.347 E575.93784
G1 X27.235 Y37.417
G0 F3600 X26.599 Y37.347
G1 F900 X-46.541 Y-35.793 E581.09826
G1 X-46.611 Y-35.863
G0 F3600 X-46.541 Y-35.227
G1 F900 X26.034 Y37.347 E586.21879
G1 X26.104 Y37.417
G0 F3600 X25.468 Y37.347
G1 F900 X-46.541 Y-34.661 E591.29938
G1 X-46.611 Y-34.731
G0 F3600 X-46.541 Y-34.095
G1 F900 X24.902 Y37.347 E596.34003
G1 X24.972 Y37.417
G0 F3600 X24.337 Y37.347
G1 F900 X-46.541 Y-33.53 E601.34082
G1 X-46.611 Y-33.6
G0 F3600 X-46.541 Y-32.964
G1 F900 X23.771 Y37.347 E606.30168
G1 X23.841 Y37.417
G0 F3600 X23.205 Y37.347
G1 F900 X-46.541 Y-32.398 E611.2226
G1 X-46.611 Y-32.468
G0 F3600 X-46.541 Y-31.833
G1 F900 X22.64 Y37.347 E616.10366
G1 X22.71 Y37.417
G0 F3600 X22.074 Y37.347
G1 F900 X-46.541 Y-31.267 E620.94478
G1 X-46.611 Y-31.337
G0 F3600 X-46.541 Y-30.701
G1 F900 X21.508 Y37.347 E625.74597
G1 X21.578 Y37.417
G0 F3600 X20.943 Y37.347
G1 F900 X-46.541 Y-30.136 E630.50729
G1 X-46.611 Y-30.206
G0 F3600 X-46.541 Y-29.57
G1 F900 X20.377 Y37.347 E635.22869
G1 X20.447 Y37.417
G0 F3600 X19.811 Y37.347
G1 F900 X-46.541 Y-29.004 E639.91014
G1 X-46.611 Y-29.074
G0 F3600 X-46.541 Y-28.439
G1 F900 X19.246 Y37.347 E644.55174
G1 X19.316 Y37.417
G0 F3600 X18.68 Y37.347
G1 F900 X-46.541 Y-27.873 E649.15339
G1 X-46.611 Y-27.943
G0 F3600 X-46.541 Y-27.307
G1 F900 X18.114 Y37.347 E653.71512
G1 X18.184 Y37.417
G0 F3600 X17.548 Y37.347
G1 F900 X-46.541 Y-26.742 E658.23694
G1 X-46.611 Y-26.812
G0 F3600 X-46.541 Y-26.176
G1 F900 X16.983 Y37.347 E662.71887
G1 X17.053 Y37.417
G0 F3600 X16.417 Y37.347
G1 F900 X-46.541 Y-25.61 E667.16086
G1 X-46.611 Y-25.68
G0 F3600 X-46.541 Y-25.045
G1 F900 X15.851 Y37.347 E671.56295
G1 X15.921 Y37.417
G0 F3600 X15.286 Y37.347
G1 F900 X-46.541 Y-24.479 E675.92515
G1 X-46.611 Y-24.549
G0 F3600 X-46.541 Y-23.913
G1 F900 X14.72 Y37.347 E680.24741
G1 X14.79 Y37.417
G0 F3600 X14.154 Y37.347
G1 F900 X-46.541 Y-23.347 E684.52973
G1 X-46.611 Y-23.417
G0 F3600 X-46.541 Y-22.782
G1 F900 X13.589 Y37.347 E688.77219
G1 X13.659 Y37.417
G0 F3600 X13.023 Y37.347
G1 F900 X-46.541 Y-22.216 E692.97472
G1 X-46.611 Y-22.286
G0 F3600 X-46.541 Y-21.65
G1 F900 X12.457 Y37.347 E697.13731
G1 X12.527 Y37.417
G0 F3600 X11.892 Y37.347
G1 F900 X-46.541 Y-21.085 E701.26004
G1 X-46.611 Y-21.155
G0 F3600 X-46.541 Y-20.519
G1 F900 X11.326 Y37.347 E705.34283
G1 X11.396 Y37.417
G0 F3600 X10.76 Y37.347
G1 F900 X-46.541 Y-19.953 E709.38569
G1 X-46.611 Y-20.023
G0 F3600 X-46.541 Y-19.388
G1 F900 X10.195 Y37.347 E713.38869
G1 X10.265 Y37.417
G0 F3600 X9.629 Y37.347
G1 F900 X-46.541 Y-18.822 E717.35175
G1 X-46.611 Y-18.892
G0 F3600 X-46.541 Y-18.256
G1 F900 X9.063 Y37.347 E721.27488
G1 X9.133 Y37.417
G0 F3600 X8.498 Y37.347
G1 F900 X-46.541 Y-17.691 E725.15814
G1 X-46.611 Y-17.761
G0 F3600 X-46.541 Y-17.125
G1 F900 X7.932 Y37.347 E729.00147
G1 X8.002 Y37.417
G0 F3600 X7.366 Y37.347
G1 F900 X-46.541 Y-16.559 E732.80487
G1 X-46.611 Y-16.629
G0 F3600 X-46.541 Y-15.994
G1 F900 X6.8 Y37.347 E736.56836
G1 X6.87 Y37.417
G0 F3600 X6.235 Y37.347
G1 F900 X-46.541 Y-15.428 E740.29196
G1 X-46.611 Y-15.498
G0 F3600 X-46.541 Y-14.862
G1 F900 X5.669 Y37.347 E743.97562
G1 X5.739 Y37.417
G0 F3600 X5.103 Y37.347
G1 F900 X-46.541 Y-14.296 E747.61935
G1 X-46.611 Y-14.366
G0 F3600 X-46.541 Y-13.731
G1 F900 X4.538 Y37.347 E751.22321
G1 X4.608 Y37.417
G0 F3600 X3.972 Y37.347
G1 F900 X-46.541 Y-13.165 E754.78714
G1 X-46.611 Y-13.235
G0 F3600 X-46.541 Y-12.599
G1 F900 X3.406 Y37.347 E758.31114
G1 X3.476 Y37.417
G0 F3600 X2.841 Y37.347
G1 F900 X-46.541 Y-12.034 E761.79527
G1 X-46.611 Y-12.104
G0 F3600 X-46.541 Y-11.468
G1 F900 X2.275 Y37.347 E765.23947
G1 X2.345 Y37.417
G0 F3600 X1.709 Y37.347
G1 F900 X-46.541 Y-10.902 E768.64373
G1 X-46.611 Y-10.972
G0 F3600 X-46.541 Y-10.337
G1 F900 X1.144 Y37.347 E772.00813
G1 X1.214 Y37.417
G0 F3600 X0.578 Y37.347
G1 F900 X-46.541 Y-9.771 E775.33259
G1 X-46.611 Y-9.841
G0 F3600 X-46.541 Y-9.205
G1 F900 X0.012 Y37.347 E778.61712
G1 X0.082 Y37.417
G0 F3600 X-.552 Y37.347
G1 F900 X-46.541 Y-8.64 E781.86182
G1 X-46.611 Y-8.71
G0 F3600 X-46.541 Y-8.074
G1 F900 X-1.118 Y37.347 E785.06659
G1 X-1.048 Y37.417
G0 F3600 X-1.684 Y37.347
G1 F900 X-46.541 Y-7.508 E788.23142
G1 X-46.611 Y-7.578
G0 F3600 X-46.541 Y-6.943
G1 F900 X-2.25 Y37.347 E791.35636
G1 X-2.18 Y37.417
G0 F3600 X-2.815 Y37.347
G1 F900 X-46.541 Y-6.377 E794.44139
G1 X-46.611 Y-6.447
G0 F3600 X-46.541 Y-5.811
G1 F900 X-3.381 Y37.347 E797.48649
G1 X-3.311 Y37.417
G0 F3600 X-3.947 Y37.347
G1 F900 X-46.541 Y-5.246 E800.4917
G1 X-46.611 Y-5.316
G0 F3600 X-46.541 Y-4.68
G1 F900 X-4.512 Y37.347 E803.457
G1 X-4.442 Y37.417
G0 F3600 X-5.078 Y37.347
G1 F900 X-46.541 Y-4.114 E806.38237
G1 X-46.611 Y-4.184
G0 F3600 X-46.541 Y-3.548
G1 F900 X-5.644 Y37.347 E809.2678
G1 X-5.574 Y37.417
G0 F3600 X-6.209 Y37.347
G1 F900 X-46.541 Y-2.983 E812.11337
G1 X-46.611 Y-3.053
G0 F3600 X-46.541 Y-2.417
G1 F900 X-6.775 Y37.347 E814.919
G1 X-6.705 Y37.417
G0 F3600 X-7.341 Y37.347
G1 F900 X-46.541 Y-1.851 E817.68471
G1 X-46.611 Y-1.921
G0 F3600 X-46.541 Y-1.286
G1 F900 X-7.906 Y37.347 E820.41054
G1 X-7.836 Y37.417
G0 F3600 X-8.472 Y37.347
G1 F900 X-46.541 Y-.72 E823.09645
G1 X-46.611 Y-.79
G0 F3600 X-46.541 Y-.154
G1 F900 X-9.038 Y37.347 E825.74242
G1 X-8.968 Y37.417
G0 F3600 X-9.603 Y37.347
