;FLAVOR:RepRap
;TIME:12242
;Filament used: 7.03176m
;Layer height: 0.2
;Generated with Cura_SteamEngine 2.6.2
M104 S200
M109 S200
G28 ;Home
G1 Z15.0 F6000 ;Move the platform down 15mm
;Prime the extruder
G92 E0
G1 F200 E3
G92 E0
;LAYER_COUNT:75
;LAYER:0
M107
G0 F3600 X-54.587 Y-4.307 Z0.3
;TYPE:WALL-INNER
G1 F900 X29.632 Y-48.148 E4.73691
G1 X46.813 Y-48.148 E5.59407
G1 X46.813 Y40.052 E9.99439
G1 X-54.587 Y40.052 E15.05326
G1 X-54.587 Y-4.307 E17.26633
G0 F3600 X-54.987 Y-4.55
;TYPE:WALL-OUTER
G1 F900 X29.533 Y-48.548 E22.02018
G1 X47.213 Y-48.548 E22.90224
G1 X47.213 Y40.452 E27.34247
G1 X-54.987 Y40.452 E32.44125
G1 X-54.987 Y-4.55 E34.68641
G0 F3600 X-54.81 Y-4.642
G0 X-54.406 Y-4.06
;TYPE:SKIN
G1 F900 X-10.473 Y39.872 E37.78608
G1 X-10.403 Y39.942
G0 F3600 X-11.039 Y39.872
G1 F900 X-54.406 Y-3.494 E40.84582
G1 X-54.476 Y-3.564
G0 F3600 X-54.406 Y-2.928
G1 F900 X-11.605 Y39.872 E43.86563
G1 X-11.535 Y39.942
G0 F3600 X-12.17 Y39.872
G1 F900 X-54.406 Y-2.363 E46.84557
G1 X-54.476 Y-2.433
G0 F3600 X-54.406 Y-1.797
G1 F900 X-12.736 Y39.872 E49.78558
G1 X-12.666 Y39.942
G0 F3600 X-13.302 Y39.872
G1 F900 X-54.406 Y-1.231 E52.68565
G1 X-54.476 Y-1.301
G0 F3600 X-54.406 Y-.666
G1 F900 X-13.867 Y39.872 E55.54586
G1 X-13.797 Y39.942
G0 F3600 X-14.433 Y39.872
G1 F900 X-54.406 Y-.1 E58.36614
G1 X-54.476 Y-.17
G0 F3600 X-54.406 Y0.465
G1 F900 X-14.999 Y39.872 E61.14652
G1 X-14.929 Y39.942
G0 F3600 X-15.564 Y39.872
G1 F900 X-54.406 Y1.03 E63.88703
G1 X-54.476 Y0.96
G0 F3600 X-54.406 Y1.596
G1 F900 X-16.13 Y39.872 E66.58761
G1 X-16.06 Y39.942
G0 F3600 X-16.696 Y39.872
G1 F900 X-54.406 Y2.162 E69.24825
G1 X-54.476 Y2.092
G0 F3600 X-54.406 Y2.728
G1 F900 X-17.261 Y39.872 E71.869
G1 X-17.191 Y39.942
G0 F3600 X-17.827 Y39.872
G1 F900 X-54.406 Y3.293 E74.44984
G1 X-54.476 Y3.223
G0 F3600 X-54.406 Y3.859
G1 F900 X-18.393 Y39.872 E76.99075
G1 X-18.323 Y39.942
G0 F3600 X-18.958 Y39.872
G1 F900 X-54.406 Y4.425 E79.49177
G1 X-54.476 Y4.355
G0 F3600 X-54.406 Y4.99
G1 F900 X-19.524 Y39.872 E81.95288
G1 X-19.454 Y39.942
G0 F3600 X-20.09 Y39.872
G1 F900 X-54.406 Y5.556 E84.37406
G1 X-54.476 Y5.486
G0 F3600 X-54.406 Y6.122
G1 F900 X-20.656 Y39.872 E86.7553
G1 X-20.586 Y39.942
G0 F3600 X-21.221 Y39.872
G1 F900 X-54.406 Y6.687 E89.09668
G1 X-54.476 Y6.617
G0 F3600 X-54.406 Y7.253
G1 F900 X-21.787 Y39.872 E91.39813
G1 X-21.717 Y39.942
G0 F3600 X-22.353 Y39.872
G1 F900 X-54.406 Y7.819 E93.65964
G1 X-54.476 Y7.749
G0 F3600 X-54.406 Y8.384
G1 F900 X-22.918 Y39.872 E95.88129
G1 X-22.848 Y39.942
G0 F3600 X-23.484 Y39.872
G1 F900 X-54.406 Y8.95 E98.06301
G1 X-54.476 Y8.88
G0 F3600 X-54.406 Y9.516
G1 F900 X-24.05 Y39.872 E100.20479
G1 X-23.98 Y39.942
G0 F3600 X-24.615 Y39.872
G1 F900 X-54.406 Y10.081 E102.3067
G1 X-54.476 Y10.011
G0 F3600 X-54.406 Y10.647
G1 F900 X-25.181 Y39.872 E104.36868
G1 X-25.111 Y39.942
G0 F3600 X-25.747 Y39.872
G1 F900 X-54.406 Y11.213 E106.39073
G1 X-54.476 Y11.143
G0 F3600 X-54.406 Y11.778
G1 F900 X-26.312 Y39.872 E108.37291
G1 X-26.242 Y39.942
G0 F3600 X-26.878 Y39.872
G1 F900 X-54.406 Y12.344 E110.31516
G1 X-54.476 Y12.274
G0 F3600 X-54.406 Y12.91
G1 F900 X-27.444 Y39.872 E112.21748
G1 X-27.374 Y39.942
G0 F3600 X-28.009 Y39.872
G1 F900 X-54.406 Y13.476 E114.07989
G1 X-54.476 Y13.406
G0 F3600 X-54.406 Y14.041
G1 F900 X-28.575 Y39.872 E115.90241
G1 X-28.505 Y39.942
G0 F3600 X-29.141 Y39.872
G1 F900 X-54.406 Y14.607 E117.68499
G1 X-54.476 Y14.537
G0 F3600 X-54.406 Y15.173
G1 F900 X-29.706 Y39.872 E119.42768
G1 X-29.636 Y39.942
G0 F3600 X-30.272 Y39.872
G1 F900 X-54.406 Y15.738 E121.13046
G1 X-54.476 Y15.668
G0 F3600 X-54.406 Y16.304
G1 F900 X-30.838 Y39.872 E122.79331
G1 X-30.768 Y39.942
G0 F3600 X-31.404 Y39.872
G1 F900 X-54.406 Y16.87 E124.41622
G1 X-54.476 Y16.8
G0 F3600 X-54.406 Y17.435
G1 F900 X-31.969 Y39.872 E125.99928
G1 X-31.899 Y39.942
G0 F3600 X-32.535 Y39.872
G1 F900 X-54.406 Y18.001 E127.54239
G1 X-54.476 Y17.931
G0 F3600 X-54.406 Y18.567
G1 F900 X-33.101 Y39.872 E129.04558
G1 X-33.031 Y39.942
G0 F3600 X-33.666 Y39.872
G1 F900 X-54.406 Y19.132 E130.5089
G1 X-54.476 Y19.062
G0 F3600 X-54.406 Y19.698
G1 F900 X-34.232 Y39.872 E131.93228
G1 X-34.162 Y39.942
G0 F3600 X-34.798 Y39.872
G1 F900 X-54.406 Y20.264 E133.31573
G1 X-54.476 Y20.194
G0 F3600 X-54.406 Y20.829
G1 F900 X-35.363 Y39.872 E134.65932
G1 X-35.293 Y39.942
G0 F3600 X-35.929 Y39.872
G1 F900 X-54.406 Y21.395 E135.96297
G1 X-54.476 Y21.325
G0 F3600 X-54.406 Y21.961
G1 F900 X-36.495 Y39.872 E137.22669
G1 X-36.425 Y39.942
G0 F3600 X-37.06 Y39.872
G1 F900 X-54.406 Y22.527 E138.45051
G1 X-54.476 Y22.457
G0 F3600 X-54.406 Y23.092
G1 F900 X-37.626 Y39.872 E139.63443
G1 X-37.556 Y39.942
G0 F3600 X-38.192 Y39.872
G1 F900 X-54.406 Y23.658 E140.77841
G1 X-54.476 Y23.588
G0 F3600 X-54.406 Y24.224
G1 F900 X-38.757 Y39.872 E141.8825
G1 X-38.687 Y39.942
G0 F3600 X-39.323 Y39.872
G1 F900 X-54.406 Y24.789 E142.94668
G1 X-54.476 Y24.719
G0 F3600 X-54.406 Y25.355
G1 F900 X-39.889 Y39.872 E143.97094
G1 X-39.819 Y39.942
G0 F3600 X-40.454 Y39.872
G1 F900 X-54.406 Y25.921 E144.95529
G1 X-54.476 Y25.851
G0 F3600 X-54.406 Y26.486
G1 F900 X-41.02 Y39.872 E145.89974
G1 X-40.95 Y39.942
G0 F3600 X-41.586 Y39.872
G1 F900 X-54.406 Y27.052 E146.80426
G1 X-54.476 Y26.982
G0 F3600 X-54.406 Y27.618
G1 F900 X-42.152 Y39.872 E147.66885
G1 X-42.082 Y39.942
G0 F3600 X-42.717 Y39.872
G1 F900 X-54.406 Y28.183 E148.49357
G1 X-54.476 Y28.113
G0 F3600 X-54.406 Y28.749
G1 F900 X-43.283 Y39.872 E149.27836
G1 X-43.213 Y39.942
G0 F3600 X-43.849 Y39.872
G1 F900 X-54.406 Y29.315 E150.02321
G1 X-54.476 Y29.245
G0 F3600 X-54.406 Y29.88
G1 F900 X-44.414 Y39.872 E150.7282
G1 X-44.344 Y39.942
G0 F3600 X-44.98 Y39.872
G1 F900 X-54.406 Y30.446 E151.39326
G1 X-54.476 Y30.376
G0 F3600 X-54.406 Y31.012
G1 F900 X-45.546 Y39.872 E152.01838
G1 X-45.476 Y39.942
G0 F3600 X-46.111 Y39.872
G1 F900 X-54.406 Y31.577 E152.60364
G1 X-54.476 Y31.507
G0 F3600 X-54.406 Y32.143
G1 F900 X-46.677 Y39.872 E153.14896
G1 X-46.607 Y39.942
G0 F3600 X-47.243 Y39.872
G1 F900 X-54.406 Y32.709 E153.65435
G1 X-54.476 Y32.639
G0 F3600 X-54.406 Y33.275
G1 F900 X-47.808 Y39.872 E154.11984
G1 X-47.738 Y39.942
G0 F3600 X-48.374 Y39.872
G1 F900 X-54.406 Y33.84 E154.54543
G1 X-54.476 Y33.77
G0 F3600 X-54.406 Y34.406
G1 F900 X-48.94 Y39.872 E154.93108
G1 X-48.87 Y39.942
G0 F3600 X-49.505 Y39.872
G1 F900 X-54.406 Y34.972 E155.27684
G1 X-54.476 Y34.902
G0 F3600 X-54.406 Y35.537
G1 F900 X-50.071 Y39.872 E155.5827
G1 X-50.001 Y39.942
G0 F3600 X-50.637 Y39.872
G1 F900 X-54.406 Y36.103 E155.84862
G1 X-54.476 Y36.033
G0 F3600 X-54.406 Y36.669
G1 F900 X-51.203 Y39.872 E156.07461
G1 X-51.133 Y39.942
G0 F3600 X-51.768 Y39.872
G1 F900 X-54.406 Y37.234 E156.26073
G1 X-54.476 Y37.164
G0 F3600 X-54.406 Y37.8
G1 F900 X-52.334 Y39.872 E156.40693
G1 X-52.264 Y39.942
G0 F3600 X-52.9 Y39.872
G1 F900 X-54.406 Y38.366 E156.51318
G1 X-54.476 Y38.296
G0 F3600 X-54.406 Y38.931
G1 F900 X-53.465 Y39.872 E156.57957
G1 X-53.395 Y39.942
G0 F3600 X-54.031 Y39.872
G1 F900 X-54.406 Y39.497 E156.60603
G0 F3600 X-54.124 Y-4.343
G1 F900 X-9.907 Y39.872 E159.72571
G1 X-9.837 Y39.942
G0 F3600 X-9.342 Y39.872
G1 F900 X-53.752 Y-4.537 E162.85904
G1 X-53.822 Y-4.607
G0 F3600 X-53.38 Y-4.731
G1 F900 X-8.776 Y39.872 E166.00606
G1 X-8.706 Y39.942
G0 F3600 X-8.21 Y39.872
G1 F900 X-53.008 Y-4.924 E169.16673
G1 X-53.078 Y-4.994
G0 F3600 X-52.635 Y-5.118
G1 F900 X-7.645 Y39.872 E172.34102
G1 X-7.575 Y39.942
G0 F3600 X-7.079 Y39.872
G1 F900 X-52.263 Y-5.311 E175.52896
G1 X-52.333 Y-5.381
G0 F3600 X-51.891 Y-5.505
G1 F900 X-6.513 Y39.872 E178.73058
G1 X-6.443 Y39.942
G0 F3600 X-5.948 Y39.872
G1 F900 X-51.519 Y-5.699 E181.94586
G1 X-51.589 Y-5.769
G0 F3600 X-51.147 Y-5.893
G1 F900 X-5.382 Y39.872 E185.17483
G1 X-5.312 Y39.942
G0 F3600 X-4.816 Y39.872
G1 F900 X-50.775 Y-6.086 E188.41745
G1 X-50.845 Y-6.156
G0 F3600 X-50.403 Y-6.28
G1 F900 X-4.251 Y39.872 E191.67373
G1 X-4.181 Y39.942
G0 F3600 X-3.685 Y39.872
G1 F900 X-50.032 Y-6.474 E194.94372
G1 X-50.102 Y-6.544
G0 F3600 X-49.66 Y-6.668
G1 F900 X-3.119 Y39.872 E198.2274
G1 X-3.049 Y39.942
G0 F3600 X-2.554 Y39.872
G1 F900 X-49.287 Y-6.861 E201.52467
G1 X-49.357 Y-6.931
G0 F3600 X-48.915 Y-7.054
G1 F900 X-1.988 Y39.872 E204.83559
G1 X-1.918 Y39.942
G0 F3600 X-1.422 Y39.872
G1 F900 X-48.543 Y-7.248 E208.16019
G1 X-48.613 Y-7.318
G0 F3600 X-48.171 Y-7.442
G1 F900 X-.857 Y39.872 E211.49845
G1 X-.787 Y39.942
G0 F3600 X-.291 Y39.872
G1 F900 X-47.799 Y-7.636 E214.8504
G1 X-47.869 Y-7.706
G0 F3600 X-47.427 Y-7.829
G1 F900 X0.274 Y39.872 E218.21596
G1 X0.344 Y39.942
G0 F3600 X0.84 Y39.872
G1 F900 X-47.055 Y-8.023 E221.59521
G1 X-47.125 Y-8.093
G0 F3600 X-46.683 Y-8.217
G1 F900 X1.405 Y39.872 E224.98812
G1 X1.475 Y39.942
G0 F3600 X1.971 Y39.872
G1 F900 X-46.311 Y-8.41 E228.39467
G1 X-46.381 Y-8.48
G0 F3600 X-45.939 Y-8.604
G1 F900 X2.537 Y39.872 E231.81492
G1 X2.607 Y39.942
G0 F3600 X3.102 Y39.872
G1 F900 X-45.567 Y-8.797 E235.24878
G1 X-45.637 Y-8.867
G0 F3600 X-45.195 Y-8.991
G1 F900 X3.668 Y39.872 E238.69632
G1 X3.738 Y39.942
G0 F3600 X4.234 Y39.872
G1 F900 X-44.823 Y-9.185 E242.15756
G1 X-44.893 Y-9.255
G0 F3600 X-44.451 Y-9.379
G1 F900 X4.799 Y39.872 E245.63245
G1 X4.869 Y39.942
G0 F3600 X5.365 Y39.872
G1 F900 X-44.079 Y-9.572 E249.12099
G1 X-44.149 Y-9.642
G0 F3600 X-43.707 Y-9.766
G1 F900 X5.931 Y39.872 E252.62322
G1 X6.001 Y39.942
G0 F3600 X6.496 Y39.872
G1 F900 X-43.335 Y-9.96 E256.1391
G1 X-43.405 Y-10.03
G0 F3600 X-42.963 Y-10.153
G1 F900 X7.062 Y39.872 E259.66864
G1 X7.132 Y39.942
G0 F3600 X7.628 Y39.872
G1 F900 X-42.591 Y-10.347 E263.21186
G1 X-42.661 Y-10.417
G0 F3600 X-42.219 Y-10.54
G1 F900 X8.193 Y39.872 E266.7687
G1 X8.263 Y39.942
G0 F3600 X8.759 Y39.872
G1 F900 X-41.847 Y-10.734 E270.33922
G1 X-41.917 Y-10.804
G0 F3600 X-41.475 Y-10.928
G1 F900 X9.325 Y39.872 E273.92344
G1 X9.395 Y39.942
G0 F3600 X9.891 Y39.872
G1 F900 X-41.103 Y-11.122 E277.52134
G1 X-41.173 Y-11.192
G0 F3600 X-40.731 Y-11.315
G1 F900 X10.456 Y39.872 E281.13286
G1 X10.526 Y39.942
G0 F3600 X11.022 Y39.872
G1 F900 X-40.359 Y-11.509 E284.75807
G1 X-40.429 Y-11.579
G0 F3600 X-39.986 Y-11.702
G1 F900 X11.588 Y39.872 E288.39689
G1 X11.658 Y39.942
G0 F3600 X12.153 Y39.872
G1 F900 X-39.614 Y-11.896 E292.04937
G1 X-39.684 Y-11.966
G0 F3600 X-39.243 Y-12.09
G1 F900 X12.719 Y39.872 E295.71557
G1 X12.789 Y39.942
G0 F3600 X13.285 Y39.872
G1 F900 X-38.871 Y-12.283 E299.39542
G1 X-38.941 Y-12.353
G0 F3600 X-38.499 Y-12.477
G1 F900 X13.85 Y39.872 E303.08892
G1 X13.92 Y39.942
G0 F3600 X14.416 Y39.872
G1 F900 X-38.127 Y-12.671 E306.79612
G1 X-38.197 Y-12.741
G0 F3600 X-37.755 Y-12.865
G1 F900 X14.982 Y39.872 E310.517
G1 X15.052 Y39.942
G0 F3600 X15.547 Y39.872
G1 F900 X-37.383 Y-13.058 E314.25149
G1 X-37.453 Y-13.128
G0 F3600 X-37.011 Y-13.252
G1 F900 X16.113 Y39.872 E317.99968
G1 X16.183 Y39.942
G0 F3600 X16.679 Y39.872
G1 F900 X-36.638 Y-13.445 E321.76148
G1 X-36.708 Y-13.515
G0 F3600 X-36.266 Y-13.639
G1 F900 X17.244 Y39.872 E325.53694
G1 X17.314 Y39.942
G0 F3600 X17.81 Y39.872
G1 F900 X-35.894 Y-13.833 E329.32608
G1 X-35.964 Y-13.903
G0 F3600 X-35.522 Y-14.026
G1 F900 X18.376 Y39.872 E333.12887
G1 X18.446 Y39.942
G0 F3600 X18.941 Y39.872
G1 F900 X-35.15 Y-14.22 E336.94532
G1 X-35.22 Y-14.29
G0 F3600 X-34.779 Y-14.414
G1 F900 X19.507 Y39.872 E340.77549
G1 X19.577 Y39.942
G0 F3600 X20.073 Y39.872
G1 F900 X-34.407 Y-14.608 E344.61935
G1 X-34.477 Y-14.678
G0 F3600 X-34.035 Y-14.801
G1 F900 X20.639 Y39.872 E348.47686
G1 X20.709 Y39.942
G0 F3600 X21.204 Y39.872
G1 F900 X-33.662 Y-14.994 E352.34795
G1 X-33.732 Y-15.064
G0 F3600 X-33.29 Y-15.188
G1 F900 X21.77 Y39.872 E356.23273
G1 X21.84 Y39.942
G0 F3600 X22.336 Y39.872
G1 F900 X-32.918 Y-15.382 E360.1312
G1 X-32.988 Y-15.452
G0 F3600 X-32.546 Y-15.576
G1 F900 X22.901 Y39.872 E364.04332
G1 X22.971 Y39.942
G0 F3600 X23.467 Y39.872
G1 F900 X-32.174 Y-15.769 E367.96909
G1 X-32.244 Y-15.839
G0 F3600 X-31.802 Y-15.963
G1 F900 X24.033 Y39.872 E371.90856
G1 X24.103 Y39.942
G0 F3600 X24.598 Y39.872
G1 F900 X-31.43 Y-16.157 E375.86167
G1 X-31.5 Y-16.227
G0 F3600 X-31.058 Y-16.351
G1 F900 X25.164 Y39.872 E379.82847
G1 X25.234 Y39.942
G0 F3600 X25.73 Y39.872
G1 F900 X-30.687 Y-16.544 E383.80896
G1 X-30.757 Y-16.614
G0 F3600 X-30.314 Y-16.737
G1 F900 X26.295 Y39.872 E387.80303
G1 X26.365 Y39.942
G0 F3600 X26.861 Y39.872
G1 F900 X-29.942 Y-16.931 E391.81079
G1 X-30.012 Y-17.001
G0 F3600 X-29.57 Y-17.125
G1 F900 X27.427 Y39.872 E395.83223
G1 X27.497 Y39.942
G0 F3600 X27.992 Y39.872
G1 F900 X-29.198 Y-17.319 E399.86733
G1 X-29.268 Y-17.389
G0 F3600 X-28.826 Y-17.512
G1 F900 X28.558 Y39.872 E403.91608
G1 X28.628 Y39.942
G0 F3600 X29.124 Y39.872
G1 F900 X-28.454 Y-17.706 E407.97852
G1 X-28.524 Y-17.776
G0 F3600 X-28.082 Y-17.9
G1 F900 X29.689 Y39.872 E412.05461
G1 X29.759 Y39.942
G0 F3600 X30.255 Y39.872
G1 F900 X-27.71 Y-18.094 E416.14439
G1 X-27.78 Y-18.164
G0 F3600 X-27.338 Y-18.287
G1 F900 X30.821 Y39.872 E420.24782
G1 X30.891 Y39.942
G0 F3600 X31.387 Y39.872
G1 F900 X-26.966 Y-18.48 E424.36491
G1 X-27.036 Y-18.55
G0 F3600 X-26.594 Y-18.674
G1 F900 X31.952 Y39.872 E428.49565
G1 X32.022 Y39.942
G0 F3600 X32.518 Y39.872
G1 F900 X-26.222 Y-18.868 E432.64007
G1 X-26.292 Y-18.938
G0 F3600 X-25.85 Y-19.062
G1 F900 X33.084 Y39.872 E436.79818
G1 X33.154 Y39.942
G0 F3600 X33.649 Y39.872
G1 F900 X-25.478 Y-19.255 E440.96991
G1 X-25.548 Y-19.325
G0 F3600 X-25.106 Y-19.449
G1 F900 X34.215 Y39.872 E445.15533
G1 X34.285 Y39.942
G0 F3600 X34.781 Y39.872
G1 F900 X-24.734 Y-19.643 E449.35443
G1 X-24.804 Y-19.713
G0 F3600 X-24.362 Y-19.837
G1 F900 X35.346 Y39.872 E453.56719
G1 X35.416 Y39.942
G0 F3600 X35.912 Y39.872
G1 F900 X-23.99 Y-20.03 E457.7936
G1 X-24.06 Y-20.1
G0 F3600 X-23.618 Y-20.223
G1 F900 X36.478 Y39.872 E462.03366
G1 X36.548 Y39.942
G0 F3600 X37.043 Y39.872
G1 F900 X-23.246 Y-20.417 E466.28738
G1 X-23.316 Y-20.487
G0 F3600 X-22.874 Y-20.611
G1 F900 X37.609 Y39.872 E470.55478
G1 X37.679 Y39.942
G0 F3600 X38.175 Y39.872
G1 F900 X-22.502 Y-20.805 E474.83587
G1 X-22.572 Y-20.875
G0 F3600 X-22.13 Y-20.998
G1 F900 X38.74 Y39.872 E479.13058
G1 X38.81 Y39.942
G0 F3600 X39.306 Y39.872
G1 F900 X-21.758 Y-21.192 E483.43897
G1 X-21.828 Y-21.262
G0 F3600 X-21.386 Y-21.386
G1 F900 X39.872 Y39.872 E487.76105
G1 X39.942 Y39.942
G0 F3600 X40.438 Y39.872
G1 F900 X-21.013 Y-21.579 E492.09675
G1 X-21.083 Y-21.649
G0 F3600 X-20.641 Y-21.773
G1 F900 X41.003 Y39.872 E496.44611
G1 X41.073 Y39.942
G0 F3600 X41.569 Y39.872
G1 F900 X-20.269 Y-21.966 E500.80911
G1 X-20.339 Y-22.036
G0 F3600 X-19.897 Y-22.16
G1 F900 X42.135 Y39.872 E505.1858
G1 X42.205 Y39.942
G0 F3600 X42.7 Y39.872
G1 F900 X-19.526 Y-22.354 E509.57618
G1 X-19.596 Y-22.424
G0 F3600 X-19.154 Y-22.548
G1 F900 X43.266 Y39.872 E513.98025
G1 X43.336 Y39.942
G0 F3600 X43.832 Y39.872
G1 F900 X-18.782 Y-22.741 E518.39797
G1 X-18.852 Y-22.811
G0 F3600 X-18.41 Y-22.935
G1 F900 X44.397 Y39.872 E522.82935
G1 X44.467 Y39.942
G0 F3600 X44.963 Y39.872
G1 F900 X-18.037 Y-23.128 E527.27434
G1 X-18.107 Y-23.198
G0 F3600 X-17.665 Y-23.322
G1 F900 X45.529 Y39.872 E531.73301
G1 X45.599 Y39.942
G0 F3600 X46.094 Y39.872
G1 F900 X-17.293 Y-23.516 E536.20534
G1 X-17.363 Y-23.586
G0 F3600 X-16.921 Y-23.709
G1 F900 X46.632 Y39.844 E540.68935
G1 X46.702 Y39.914
G0 F3600 X46.632 Y39.279
G1 F900 X-16.549 Y-23.903 E545.14715
G1 X-16.619 Y-23.973
G0 F3600 X-16.177 Y-24.097
G1 F900 X46.632 Y38.713 E549.5787
G1 X46.702 Y38.783
G0 F3600 X46.632 Y38.147
G1 F900 X-15.805 Y-24.291 E553.984
G1 X-15.875 Y-24.361
G0 F3600 X-15.434 Y-24.484
G1 F900 X46.632 Y37.582 E558.36309
G1 X46.702 Y37.652
G0 F3600 X46.632 Y37.016
G1 F900 X-15.062 Y-24.678 E562.71594
G1 X-15.132 Y-24.748
G0 F3600 X-14.689 Y-24.871
G1 F900 X46.632 Y36.45 E567.04246
G1 X46.702 Y36.52
G0 F3600 X46.632 Y35.884
G1 F900 X-14.317 Y-25.065 E571.34275
G1 X-14.387 Y-25.135
G0 F3600 X-13.945 Y-25.259
G1 F900 X46.632 Y35.319 E575.61682
G1 X46.702 Y35.389
G0 F3600 X46.632 Y34.753
G1 F900 X-13.573 Y-25.453 E579.86464
G1 X-13.643 Y-25.523
G0 F3600 X-13.201 Y-25.646
G1 F900 X46.632 Y34.187 E584.08618
G1 X46.702 Y34.257
G0 F3600 X46.632 Y33.622
G1 F900 X-12.829 Y-25.84 E588.28151
